; generated by Slic3r 1.2.9 on 2017-06-22 at 13:25:31

; external perimeters extrusion width = 0.38mm
; perimeters extrusion width = 0.38mm
; infill extrusion width = 0.38mm
; solid infill extrusion width = 0.38mm
; top infill extrusion width = 0.36mm

M107
M190 S50 ; set bed temperature
M104 S210 ; set temperature
G28 ; home all axes
G1 Z5 F5000 ; lift nozzle

M109 S210 ; wait for temperature to be reached
G21 ; set units to millimeters
G90 ; use absolute coordinates
M82 ; use absolute distances for extrusion
G92 E0
G1 E-0.57000 F3300.00000
G92 E0
G1 Z1.600 F2700.000
G1 X36.269 Y26.349 F2700.000
G1 E0.57000 F3300.00000
M204 S1000
G1 X24.064 Y43.142 E1.15186 F2700.000
G1 X23.496 Y43.878 E1.17792
G1 X23.119 Y44.331 E1.19443
G1 X22.506 Y45.019 E1.22027
G1 X21.449 Y46.078 E1.26221
G1 X21.014 Y46.474 E1.27869
G1 X20.310 Y47.069 E1.30451
G1 X19.782 Y47.482 E1.32329
G1 X18.626 Y48.302 E1.36304
G1 X17.849 Y48.793 E1.38880
G1 X17.336 Y49.091 E1.40542
G1 X16.512 Y49.531 E1.43162
G1 X15.162 Y50.158 E1.47333
G1 X14.607 Y50.383 E1.49012
G1 X13.741 Y50.699 E1.51594
G1 X13.101 Y50.904 E1.53478
G1 X11.732 Y51.276 E1.57455
G1 X10.833 Y51.467 E1.60031
G1 X10.256 Y51.569 E1.61674
G1 X8.765 Y51.757 E1.65884
G1 X7.264 Y51.840 E1.70099
G1 X6.345 Y51.839 E1.72675
G1 X5.730 Y51.817 E1.74399
G1 X4.813 Y51.749 E1.76976
G1 X3.340 Y51.558 E1.81138
G1 X2.755 Y51.453 E1.82806
G1 X1.846 Y51.256 E1.85411
G1 X1.284 Y51.113 E1.87039
G1 X0.398 Y50.855 E1.89624
G1 X-35.483 Y39.200 E2.95366
G1 X-36.577 Y38.813 E2.98618
G1 X-37.122 Y38.597 E3.00261
G1 X-37.963 Y38.228 E3.02835
G1 X-38.487 Y37.976 E3.04465
G1 X-39.303 Y37.548 E3.07047
G1 X-39.826 Y37.250 E3.08734
G1 X-40.619 Y36.756 E3.11353
G1 X-41.829 Y35.909 E3.15494
G1 X-42.998 Y34.963 E3.19708
G1 X-43.443 Y34.566 E3.21378
G1 X-44.520 Y33.501 E3.25624
G1 X-45.136 Y32.819 E3.28199
G1 X-45.513 Y32.370 E3.29843
G1 X-46.083 Y31.642 E3.32434
G1 X-46.935 Y30.420 E3.36612
G1 X-47.258 Y29.904 E3.38315
G1 X-47.990 Y28.592 E3.42527
G1 X-48.393 Y27.765 E3.45106
G1 X-48.626 Y27.240 E3.46715
G1 X-48.976 Y26.371 E3.49342
G1 X-49.455 Y24.957 E3.53526
G1 X-49.617 Y24.390 E3.55179
G1 X-49.958 Y22.917 E3.59418
G1 X-50.116 Y22.010 E3.61998
G1 X-50.205 Y21.339 E3.63895
G1 X-50.327 Y19.920 E3.67886
G1 X-50.355 Y19.001 E3.70463
G1 X-50.358 Y-18.726 E4.76206
G1 X-50.329 Y-19.880 E4.79442
G1 X-50.291 Y-20.470 E4.81097
G1 X-50.199 Y-21.392 E4.83695
G1 X-50.122 Y-21.963 E4.85311
G1 X-49.965 Y-22.878 E4.87912
G1 X-49.631 Y-24.336 E4.92104
G1 X-49.470 Y-24.906 E4.93765
G1 X-49.186 Y-25.790 E4.96367
G1 X-48.984 Y-26.351 E4.98038
G1 X-48.412 Y-27.724 E5.02207
G1 X-48.013 Y-28.549 E5.04776
G1 X-47.729 Y-29.086 E5.06479
G1 X-46.966 Y-30.369 E5.10661
G1 X-46.454 Y-31.132 E5.13238
G1 X-46.109 Y-31.608 E5.14885
G1 X-45.166 Y-32.783 E5.19108
G1 X-44.552 Y-33.467 E5.21684
G1 X-44.140 Y-33.894 E5.23347
G1 X-43.472 Y-34.538 E5.25947
G1 X-43.034 Y-34.932 E5.27599
G1 X-41.869 Y-35.879 E5.31808
G1 X-41.123 Y-36.419 E5.34389
G1 X-40.631 Y-36.749 E5.36049
G1 X-39.357 Y-37.518 E5.40220
G1 X-38.524 Y-37.958 E5.42861
G1 X-37.997 Y-38.212 E5.44500
G1 X-36.618 Y-38.798 E5.48699
G1 X-35.505 Y-39.194 E5.52012
G1 X0.135 Y-50.773 E6.57044
G1 X1.242 Y-51.102 E6.60280
G1 X2.707 Y-51.444 E6.64496
G1 X3.280 Y-51.549 E6.66128
G1 X4.210 Y-51.684 E6.68763
G1 X4.793 Y-51.747 E6.70407
G1 X6.287 Y-51.837 E6.74602
G1 X7.207 Y-51.841 E6.77182
G1 X7.806 Y-51.822 E6.78860
G1 X9.302 Y-51.701 E6.83068 F2700.000
G1 X10.214 Y-51.576 E6.85646
G1 X10.880 Y-51.457 E6.87544
G1 X12.259 Y-51.145 E6.91507
G1 X13.143 Y-50.894 E6.94081
G1 X13.715 Y-50.709 E6.95766
G1 X15.093 Y-50.187 E6.99898
G1 X15.967 Y-49.797 E7.02580
G1 X17.291 Y-49.117 E7.06751
G1 X17.811 Y-48.816 E7.08434
G1 X18.601 Y-48.319 E7.11052
G1 X19.814 Y-47.459 E7.15220
G1 X20.977 Y-46.507 E7.19430
G1 X21.424 Y-46.102 E7.21123
G1 X22.476 Y-45.053 E7.25286
G1 X23.466 Y-43.913 E7.29518
G1 X24.192 Y-42.971 E7.32851
G1 X46.352 Y-12.465 E8.38534
G1 X47.188 Y-11.204 E8.42772
G1 X47.652 Y-10.411 E8.45349
G1 X47.933 Y-9.889 E8.47009
G1 X48.579 Y-8.537 E8.51209
G1 X48.929 Y-7.684 E8.53794
G1 X49.135 Y-7.124 E8.55467
G1 X49.422 Y-6.251 E8.58043
G1 X49.585 Y-5.689 E8.59683
G1 X49.810 Y-4.798 E8.62259
G1 X49.934 Y-4.227 E8.63897
G1 X50.097 Y-3.312 E8.66500
G1 X50.179 Y-2.733 E8.68141
G1 X50.277 Y-1.820 E8.70715
G1 X50.319 Y-1.230 E8.72370
G1 X50.352 Y0.272 E8.76581
G1 X50.280 Y1.771 E8.80787
G1 X50.184 Y2.691 E8.83382
G1 X50.102 Y3.274 E8.85030
G1 X49.942 Y4.179 E8.87606
G1 X49.820 Y4.755 E8.89256
G1 X49.595 Y5.650 E8.91844
G1 X49.430 Y6.222 E8.93513
G1 X48.947 Y7.632 E8.97689
G1 X48.602 Y8.483 E9.00263
G1 X48.354 Y9.036 E9.01963
G1 X47.947 Y9.863 E9.04546
G1 X47.212 Y11.166 E9.08737
G1 X46.892 Y11.674 E9.10422
G1 X46.230 Y12.636 E9.13695
G1 X36.304 Y26.300 E9.61032
G1 X35.996 Y26.151 F2700.000
G1 X23.797 Y42.936 E10.19191 F2700.000
G1 X23.229 Y43.672 E10.21796
G1 X22.254 Y44.795 E10.25963
G1 X21.213 Y45.837 E10.30092
G1 X20.796 Y46.216 E10.31673
G1 X20.093 Y46.812 E10.34255
G1 X19.583 Y47.210 E10.36068
G1 X18.446 Y48.017 E10.39976
G1 X17.669 Y48.508 E10.42552
G1 X17.177 Y48.794 E10.44147
G1 X16.353 Y49.233 E10.46765
G1 X15.024 Y49.850 E10.50872
G1 X14.491 Y50.067 E10.52484
G1 X13.626 Y50.382 E10.55065
G1 X13.008 Y50.580 E10.56883
G1 X11.662 Y50.946 E10.60793
G1 X10.763 Y51.137 E10.63370
G1 X10.209 Y51.235 E10.64947
G1 X8.742 Y51.421 E10.69091
G1 X7.264 Y51.503 E10.73239
G1 X6.345 Y51.502 E10.75815
G1 X5.755 Y51.481 E10.77470
G1 X4.838 Y51.413 E10.80047
G1 X3.388 Y51.225 E10.84145
G1 X2.826 Y51.124 E10.85746
G1 X1.918 Y50.927 E10.88350
G1 X0.492 Y50.531 E10.92496
G1 X-35.379 Y38.880 E11.98209
G1 X-36.464 Y38.496 E12.01434
G1 X-37.828 Y37.919 E12.05585
G1 X-39.146 Y37.250 E12.09729
G1 X-39.648 Y36.963 E12.11348
G1 X-40.441 Y36.470 E12.13966
G1 X-41.632 Y35.635 E12.18044
G1 X-42.783 Y34.704 E12.22191
G1 X-43.209 Y34.323 E12.23794
G1 X-44.269 Y33.275 E12.27973
G1 X-45.248 Y32.163 E12.32125
G1 X-45.818 Y31.435 E12.34716
G1 X-46.656 Y30.230 E12.38829
G1 X-46.966 Y29.736 E12.40464
G1 X-47.687 Y28.445 E12.44609
G1 X-48.090 Y27.618 E12.47188
G1 X-48.314 Y27.114 E12.48733
G1 X-48.663 Y26.245 E12.51358
G1 X-49.134 Y24.853 E12.55477
G1 X-49.290 Y24.309 E12.57063
G1 X-49.626 Y22.859 E12.61235
G1 X-49.784 Y21.952 E12.63815
G1 X-49.869 Y21.305 E12.65646
G1 X-49.990 Y19.910 E12.69569
G1 X-50.018 Y18.991 E12.72147
G1 X-50.021 Y-18.726 E13.77861
G1 X-49.992 Y-19.871 E13.81070
G1 X-49.956 Y-20.436 E13.82658
G1 X-49.864 Y-21.358 E13.85255
G1 X-49.633 Y-22.821 E13.89405
G1 X-49.303 Y-24.256 E13.93533
G1 X-49.149 Y-24.804 E13.95127
G1 X-48.866 Y-25.687 E13.97728
G1 X-48.671 Y-26.225 E13.99331
G1 X-48.108 Y-27.577 E14.03436
G1 X-47.709 Y-28.402 E14.06005
G1 X-47.437 Y-28.918 E14.07639
G1 X-46.686 Y-30.181 E14.11757
G1 X-45.843 Y-31.401 E14.15914
G1 X-44.915 Y-32.558 E14.20071
G1 X-43.906 Y-33.651 E14.24242
G1 X-42.817 Y-34.673 E14.28426
G1 X-41.671 Y-35.606 E14.32569
G1 X-40.454 Y-36.463 E14.36742
G1 X-39.199 Y-37.220 E14.40848
G1 X-37.861 Y-37.904 E14.45060
G1 X-36.504 Y-38.481 E14.49192
G1 X-35.401 Y-38.874 E14.52476
G1 X0.240 Y-50.452 E15.57508
G1 X1.337 Y-50.778 E15.60718
G1 X2.779 Y-51.115 E15.64868
G1 X3.329 Y-51.215 E15.66434
G1 X4.258 Y-51.350 E15.69066
G1 X4.818 Y-51.411 E15.70644
G1 X6.289 Y-51.500 E15.74774
G1 X7.209 Y-51.504 E15.77353
G1 X7.783 Y-51.486 E15.78963
G1 X9.256 Y-51.367 E15.83106 F2700.000
G1 X10.167 Y-51.242 E15.85684
G1 X10.810 Y-51.127 E15.87515
G1 X12.167 Y-50.821 E15.91413
G1 X13.050 Y-50.570 E15.93987
G1 X13.599 Y-50.392 E15.95604
G1 X14.957 Y-49.879 E15.99673
G1 X15.830 Y-49.490 E16.02351
G1 X17.133 Y-48.819 E16.06458
G1 X17.632 Y-48.530 E16.08073
G1 X18.422 Y-48.034 E16.10689
G1 X19.616 Y-47.187 E16.14792
G1 X20.760 Y-46.249 E16.18937
G1 X21.189 Y-45.861 E16.20561
G1 X22.225 Y-44.828 E16.24660
G1 X23.199 Y-43.706 E16.28826
G1 X23.919 Y-42.773 E16.32128
G1 X46.074 Y-12.274 E17.37785
G1 X46.897 Y-11.034 E17.41956
G1 X47.631 Y-9.740 E17.46126
G1 X48.267 Y-8.409 E17.50259
G1 X48.617 Y-7.556 E17.52845
G1 X48.815 Y-7.019 E17.54450
G1 X49.102 Y-6.145 E17.57026
G1 X49.484 Y-4.715 E17.61176
G1 X49.602 Y-4.167 E17.62747
G1 X49.765 Y-3.253 E17.65349
G1 X49.942 Y-1.784 E17.69497
G1 X49.982 Y-1.218 E17.71086
G1 X50.015 Y0.260 E17.75232
G1 X49.945 Y1.736 E17.79371
G1 X49.848 Y2.656 E17.81965
G1 X49.610 Y4.120 E17.86122
G1 X49.493 Y4.673 E17.87706
G1 X49.269 Y5.568 E17.90293
G1 X49.110 Y6.117 E17.91895
G1 X48.635 Y7.505 E17.96006
G1 X48.290 Y8.356 E17.98581
G1 X48.052 Y8.887 E18.00212
G1 X47.644 Y9.714 E18.02795
G1 X46.921 Y10.996 E18.06921
G1 X46.613 Y11.484 E18.08538
G1 X45.958 Y12.438 E18.11783
G1 X36.031 Y26.102 E18.59119
G1 X35.723 Y25.953 F2700.000
G1 X23.530 Y42.731 E19.17252 F2700.000
G1 X22.962 Y43.466 E19.19856
G1 X22.003 Y44.570 E19.23956
G1 X20.978 Y45.596 E19.28020
G1 X20.578 Y45.959 E19.29534
G1 X19.875 Y46.554 E19.32117
G1 X19.384 Y46.938 E19.33863
G1 X18.267 Y47.732 E19.37705
G1 X17.489 Y48.222 E19.40281
G1 X17.018 Y48.497 E19.41809
G1 X16.194 Y48.936 E19.44425
G1 X14.886 Y49.543 E19.48468
G1 X14.375 Y49.750 E19.50012
G1 X13.510 Y50.066 E19.52593
G1 X12.915 Y50.256 E19.54345
G1 X11.592 Y50.616 E19.58189
G1 X10.693 Y50.808 E19.60765
G1 X10.162 Y50.901 E19.62276
G1 X8.719 Y51.085 E19.66354
G1 X7.264 Y51.165 E19.70437
G1 X6.345 Y51.165 E19.73013
G1 X5.780 Y51.144 E19.74598
G1 X4.863 Y51.077 E19.77175
G1 X3.436 Y50.891 E19.81209
G1 X2.897 Y50.794 E19.82743
G1 X1.990 Y50.597 E19.85345
G1 X0.587 Y50.208 E19.89426
G1 X-35.275 Y38.559 E20.95110
G1 X-36.350 Y38.178 E20.98307
G1 X-37.693 Y37.611 E21.02392
G1 X-38.990 Y36.951 E21.06471
G1 X-39.470 Y36.677 E21.08022
G1 X-40.263 Y36.184 E21.10638
G1 X-41.436 Y35.361 E21.14653
G1 X-42.567 Y34.445 E21.18734
G1 X-42.976 Y34.080 E21.20270
G1 X-44.019 Y33.049 E21.24381
G1 X-44.983 Y31.955 E21.28467
G1 X-45.552 Y31.227 E21.31057
G1 X-46.377 Y30.041 E21.35106
G1 X-46.674 Y29.568 E21.36672
G1 X-47.384 Y28.297 E21.40751
G1 X-47.787 Y27.470 E21.43330
G1 X-48.350 Y26.120 E21.47432
G1 X-48.814 Y24.749 E21.51486
G1 X-48.962 Y24.228 E21.53006
G1 X-49.294 Y22.802 E21.57110
G1 X-49.451 Y21.894 E21.59691
G1 X-49.534 Y21.271 E21.61455
G1 X-49.653 Y19.900 E21.65311
G1 X-49.681 Y18.981 E21.67889
G1 X-49.684 Y-18.726 E22.73574
G1 X-49.655 Y-19.861 E22.76757
G1 X-49.528 Y-21.325 E22.80874
G1 X-49.301 Y-22.764 E22.84958
G1 X-48.976 Y-24.176 E22.89020
G1 X-48.545 Y-25.584 E22.93146
G1 X-48.358 Y-26.100 E22.94683
G1 X-47.805 Y-27.430 E22.98723
G1 X-47.406 Y-28.256 E23.01292
G1 X-47.145 Y-28.749 E23.02858
G1 X-46.407 Y-29.993 E23.06911
G1 X-45.577 Y-31.194 E23.11001
G1 X-44.664 Y-32.333 E23.15092
G1 X-43.672 Y-33.409 E23.19196
G1 X-42.601 Y-34.414 E23.23312
G1 X-41.473 Y-35.333 E23.27390
G1 X-40.276 Y-36.177 E23.31496
G1 X-39.041 Y-36.923 E23.35538
G1 X-37.725 Y-37.595 E23.39680
G1 X-36.390 Y-38.163 E23.43748
G1 X-35.297 Y-38.553 E23.47001
G1 X0.551 Y-50.196 E24.52642
G1 X1.953 Y-50.588 E24.56721
G1 X2.851 Y-50.785 E24.59301
G1 X3.378 Y-50.882 E24.60801
G1 X4.307 Y-51.016 E24.63431
G1 X4.843 Y-51.075 E24.64942
G1 X6.290 Y-51.163 E24.69007
G1 X7.760 Y-51.150 E24.73128
G1 X9.210 Y-51.033 E24.77205 F2700.000
G1 X10.121 Y-50.908 E24.79783
G1 X10.741 Y-50.797 E24.81547
G1 X12.075 Y-50.497 E24.85379
G1 X13.484 Y-50.075 E24.89501
G1 X14.821 Y-49.570 E24.93508
G1 X15.692 Y-49.182 E24.96181
G1 X16.975 Y-48.521 E25.00224
G1 X17.452 Y-48.245 E25.01771
G1 X18.242 Y-47.748 E25.04386
G1 X19.417 Y-46.914 E25.08425
G1 X20.543 Y-45.992 E25.12504
G1 X20.954 Y-45.619 E25.14060
G1 X21.974 Y-44.602 E25.18095
G1 X22.933 Y-43.499 E25.22194
G1 X23.646 Y-42.575 E25.25466
G1 X45.796 Y-12.084 E26.31096
G1 X46.606 Y-10.864 E26.35200
G1 X47.329 Y-9.591 E26.39303
G1 X47.955 Y-8.281 E26.43371
G1 X48.495 Y-6.913 E26.47493
G1 X48.782 Y-6.040 E26.50069
G1 X49.157 Y-4.632 E26.54153
G1 X49.433 Y-3.194 E26.58258
G1 X49.607 Y-1.748 E26.62340
G1 X49.645 Y-1.206 E26.63862
G1 X49.678 Y0.249 E26.67942
G1 X49.609 Y1.701 E26.72016
G1 X49.513 Y2.621 E26.74610
G1 X49.278 Y4.062 E26.78700
G1 X48.942 Y5.486 E26.82803
G1 X48.790 Y6.012 E26.84338
G1 X48.322 Y7.378 E26.88385
G1 X47.977 Y8.230 E26.90959
G1 X47.749 Y8.738 E26.92522
G1 X47.342 Y9.565 E26.95105
G1 X46.629 Y10.827 E26.99166
G1 X46.335 Y11.294 E27.00715
G1 X45.685 Y12.240 E27.03931
G1 X35.758 Y25.904 E27.51268
G1 X35.450 Y25.754 F2700.000
G1 X23.263 Y42.525 E28.09374 F2700.000
G1 X22.696 Y43.260 E28.11976
G1 X21.751 Y44.346 E28.16010
G1 X20.742 Y45.354 E28.20008
G1 X20.360 Y45.702 E28.21457
G1 X19.657 Y46.297 E28.24039
G1 X19.184 Y46.666 E28.25719
G1 X18.087 Y47.447 E28.29495
G1 X17.309 Y47.937 E28.32071
G1 X16.036 Y48.639 E28.36146
G1 X14.748 Y49.235 E28.40124
G1 X14.260 Y49.433 E28.41601
G1 X12.906 Y49.908 E28.45623
G1 X12.018 Y50.163 E28.48211
G1 X10.623 Y50.478 E28.52221
G1 X10.115 Y50.567 E28.53665
G1 X9.206 Y50.695 E28.56239
G1 X8.608 Y50.755 E28.57921
G1 X7.264 Y50.828 E28.61695
G1 X6.345 Y50.828 E28.64271
G1 X5.805 Y50.808 E28.65786
G1 X4.888 Y50.740 E28.68364
G1 X3.483 Y50.557 E28.72333
G1 X2.061 Y50.268 E28.76401
G1 X0.681 Y49.884 E28.80415
G1 X-35.171 Y38.238 E29.86071
G1 X-36.237 Y37.861 E29.89241
G1 X-37.557 Y37.302 E29.93259
G1 X-38.833 Y36.653 E29.97272
G1 X-39.293 Y36.390 E29.98755
G1 X-40.085 Y35.898 E30.01369
G1 X-41.239 Y35.088 E30.05321
G1 X-42.352 Y34.186 E30.09337
G1 X-42.742 Y33.837 E30.10805
G1 X-43.769 Y32.823 E30.14849
G1 X-44.717 Y31.747 E30.18868
G1 X-45.287 Y31.019 E30.21458
G1 X-46.098 Y29.852 E30.25442
G1 X-46.382 Y29.399 E30.26939
G1 X-47.081 Y28.150 E30.30953
G1 X-47.484 Y27.323 E30.33532
G1 X-47.727 Y26.766 E30.35234
G1 X-48.210 Y25.519 E30.38983
G1 X-48.493 Y24.645 E30.41556
G1 X-48.656 Y24.063 E30.43253
G1 X-48.962 Y22.744 E30.47047
G1 X-49.119 Y21.837 E30.49627
G1 X-49.283 Y20.402 E30.53676
G1 X-49.344 Y18.970 E30.57691
G1 X-49.347 Y-18.726 E31.63348
G1 X-49.318 Y-19.852 E31.66503
G1 X-49.193 Y-21.291 E31.70553
G1 X-48.969 Y-22.707 E31.74571
G1 X-48.648 Y-24.097 E31.78568
G1 X-48.224 Y-25.481 E31.82626
G1 X-48.046 Y-25.974 E31.84096
G1 X-47.501 Y-27.284 E31.88071
G1 X-46.853 Y-28.581 E31.92137
G1 X-46.127 Y-29.805 E31.96125
G1 X-45.311 Y-30.987 E32.00149
G1 X-44.414 Y-32.107 E32.04174
G1 X-43.438 Y-33.166 E32.08211
G1 X-42.385 Y-34.156 E32.12259
G1 X-41.276 Y-35.060 E32.16271
G1 X-40.098 Y-35.890 E32.20310
G1 X-38.883 Y-36.625 E32.24288
G1 X-37.589 Y-37.287 E32.28362
G1 X-36.276 Y-37.846 E32.32364
G1 X-35.192 Y-38.233 E32.35587
G1 X0.646 Y-49.872 E33.41202
G1 X2.025 Y-50.259 E33.45215
G1 X2.924 Y-50.456 E33.47794
G1 X4.355 Y-50.683 E33.51856
G1 X4.867 Y-50.739 E33.53300
G1 X6.292 Y-50.826 E33.57300
G1 X7.738 Y-50.814 E33.61353
G1 X9.164 Y-50.700 E33.65365 F2700.000
G1 X10.075 Y-50.574 E33.67942
G1 X10.672 Y-50.467 E33.69640
G1 X11.983 Y-50.173 E33.73406
G1 X13.369 Y-49.759 E33.77460
G1 X14.685 Y-49.262 E33.81405
G1 X15.555 Y-48.874 E33.84074
G1 X16.816 Y-48.223 E33.88052
G1 X17.273 Y-47.959 E33.89531
G1 X18.063 Y-47.463 E33.92144
G1 X19.219 Y-46.642 E33.96119
G1 X20.326 Y-45.734 E34.00132
G1 X20.719 Y-45.377 E34.01620
G1 X21.723 Y-44.377 E34.05591
G1 X22.667 Y-43.292 E34.09623
G1 X23.374 Y-42.377 E34.12864
G1 X45.518 Y-11.893 E35.18468
G1 X46.315 Y-10.694 E35.22506
G1 X47.027 Y-9.442 E35.26541
G1 X47.643 Y-8.154 E35.30544
G1 X48.174 Y-6.808 E35.34598
G1 X48.461 Y-5.935 E35.37175
G1 X48.830 Y-4.550 E35.41192
G1 X49.101 Y-3.135 E35.45231
G1 X49.272 Y-1.712 E35.49246
G1 X49.308 Y-1.194 E35.50701
G1 X49.341 Y0.238 E35.54716
G1 X49.274 Y1.666 E35.58724
G1 X49.178 Y2.586 E35.61317
G1 X48.947 Y4.003 E35.65341
G1 X48.615 Y5.404 E35.69377
G1 X48.469 Y5.907 E35.70844
G1 X48.010 Y7.252 E35.74826
