; generated by Slic3r 1.2.9 on 2017-06-21 at 09:33:22

; external perimeters extrusion width = 0.38mm
; perimeters extrusion width = 0.38mm
; infill extrusion width = 0.38mm
; solid infill extrusion width = 0.38mm
; top infill extrusion width = 0.36mm

M107
M190 S60 ; set bed temperature
M104 S210 ; set temperature
G28 ; home all axes
G1 Z5 F5000 ; lift nozzle

M109 S210 ; wait for temperature to be reached
G21 ; set units to millimeters
G90 ; use absolute coordinates
M82 ; use absolute distances for extrusion
G92 E0
G1 E-0.57000 F3300.00000
G92 E0
G1 Z0.250 F2700.000
G1 X17.332 Y14.240 F2700.000
G1 E0.57000 F3300.00000
M204 S1000
G1 X7.800 Y25.841 E0.99084 F2700.000
G1 X6.819 Y26.849 E1.03026
G1 X5.965 Y27.531 E1.06091
G1 X5.717 Y27.705 E1.06940
G1 X3.479 Y28.818 E1.13944
G1 X2.662 Y29.057 E1.16331
G1 X1.986 Y29.204 E1.18271
G1 X0.561 Y29.340 E1.22281
G1 X-0.016 Y29.343 E1.23900
G1 X-0.649 Y29.314 E1.25676
G1 X-2.743 Y29.129 E1.31568
G1 X-3.928 Y28.923 E1.34937
G1 X-5.456 Y28.411 E1.39454
G1 X-5.706 Y28.299 E1.40223
G1 X-6.781 Y27.728 E1.43634
G1 X-8.173 Y26.693 E1.48496
G1 X-8.373 Y26.510 E1.49255
G1 X-9.263 Y25.555 E1.52913
G1 X-21.819 Y8.733 E2.11748
G1 X-22.258 Y8.054 E2.14015
G1 X-22.648 Y7.307 E2.16377
G1 X-22.965 Y6.551 E2.18677
G1 X-23.145 Y6.013 E2.20266
G1 X-23.310 Y5.394 E2.22061
G1 X-23.425 Y4.807 E2.23738
G1 X-23.499 Y4.268 E2.25262
G1 X-23.547 Y3.687 E2.26897
G1 X-23.562 Y2.946 E2.28974
G1 X-23.521 Y2.166 E2.31162
G1 X-23.372 Y1.081 E2.34234
G1 X-18.772 Y-21.279 E2.98217
G1 X-18.538 Y-22.193 E3.00862
G1 X-18.435 Y-22.513 E3.01804
G1 X-18.013 Y-23.552 E3.04947
G1 X-17.529 Y-24.460 E3.07830
G1 X-17.138 Y-25.061 E3.09841
G1 X-16.596 Y-25.763 E3.12327
G1 X-15.536 Y-26.943 E3.16770
G1 X-15.088 Y-27.406 E3.18577
G1 X-14.402 Y-28.007 E3.21134
G1 X-13.676 Y-28.525 E3.23633
G1 X-12.758 Y-29.050 E3.26598
G1 X-11.649 Y-29.558 E3.30016
G1 X-10.669 Y-29.933 E3.32956
G1 X-9.799 Y-30.177 E3.35490
G1 X-9.223 Y-30.291 E3.37137
G1 X-7.453 Y-30.573 E3.42160
G1 X-6.831 Y-30.641 E3.43913
G1 X-6.200 Y-30.664 E3.45684
G1 X6.202 Y-30.664 E3.80443
G1 X6.833 Y-30.641 E3.82213
G1 X7.494 Y-30.567 E3.84077 F2700.000
G1 X9.310 Y-30.277 E3.89232
G1 X10.177 Y-30.083 E3.91721
G1 X10.735 Y-29.911 E3.93359
G1 X11.649 Y-29.559 E3.96103
G1 X12.806 Y-29.026 E3.99674
G1 X13.607 Y-28.570 E4.02258
G1 X14.404 Y-28.007 E4.04992
G1 X15.119 Y-27.378 E4.07662
G1 X15.540 Y-26.940 E4.09365
G1 X16.541 Y-25.829 E4.13555
G1 X17.197 Y-24.977 E4.16569
G1 X17.687 Y-24.190 E4.19168
G1 X18.119 Y-23.322 E4.21887
G1 X18.438 Y-22.505 E4.24345
G1 X18.727 Y-21.492 E4.27298
G1 X23.344 Y0.926 E4.91449
G1 X23.453 Y1.574 E4.93291
G1 X23.532 Y2.280 E4.95281
G1 X23.564 Y2.945 E4.97149
G1 X23.549 Y3.687 E4.99228
G1 X23.501 Y4.268 E5.00863
G1 X23.427 Y4.807 E5.02386
G1 X23.312 Y5.394 E5.04064
G1 X23.147 Y6.012 E5.05858
G1 X22.943 Y6.615 E5.07642
G1 X22.650 Y7.307 E5.09748
G1 X22.260 Y8.054 E5.12110
G1 X21.820 Y8.733 E5.14377
G1 X21.381 Y9.311 E5.16412
G1 X17.370 Y14.193 E5.34122
G1 X17.071 Y14.026 F2700.000
G1 X7.540 Y25.627 E5.76206 F2700.000
G1 X6.598 Y26.594 E5.79989
G1 X5.771 Y27.255 E5.82957
G1 X5.523 Y27.429 E5.83806
G1 X3.376 Y28.497 E5.90527
G1 X2.583 Y28.729 E5.92844
G1 X1.925 Y28.873 E5.94730
G1 X0.558 Y29.003 E5.98579
G1 X-0.013 Y29.006 E6.00181
G1 X-0.621 Y28.978 E6.01886
G1 X-2.701 Y28.794 E6.07738
G1 X-3.847 Y28.596 E6.10999
G1 X-5.319 Y28.103 E6.15348
G1 X-5.569 Y27.991 E6.16116
G1 X-6.609 Y27.438 E6.19418
G1 X-7.945 Y26.445 E6.24084
G1 X-8.145 Y26.262 E6.24843
G1 X-8.999 Y25.345 E6.28354
G1 X-21.545 Y8.537 E6.87143
G1 X-21.967 Y7.885 E6.89318
G1 X-22.344 Y7.162 E6.91604
G1 X-22.649 Y6.433 E6.93819
G1 X-22.823 Y5.913 E6.95355
G1 X-22.981 Y5.319 E6.97078
G1 X-23.092 Y4.754 E6.98694
G1 X-23.165 Y4.230 E7.00177
G1 X-23.211 Y3.665 E7.01764
G1 X-23.225 Y2.954 E7.03758
G1 X-23.185 Y2.195 E7.05888
G1 X-23.041 Y1.144 E7.08862
G1 X-18.442 Y-21.211 E7.72832
G1 X-18.216 Y-22.092 E7.75381
G1 X-18.116 Y-22.405 E7.76302
G1 X-17.707 Y-23.411 E7.79345
G1 X-17.239 Y-24.288 E7.82132
G1 X-16.862 Y-24.867 E7.84068
G1 X-16.340 Y-25.544 E7.86465
G1 X-15.286 Y-26.717 E7.90883
G1 X-14.853 Y-27.165 E7.92629
G1 X-14.191 Y-27.744 E7.95094
G1 X-13.495 Y-28.241 E7.97491
G1 X-12.603 Y-28.751 E8.00373
G1 X-11.515 Y-29.249 E8.03726
G1 X-10.561 Y-29.613 E8.06588
G1 X-9.722 Y-29.849 E8.09030
G1 X-9.166 Y-29.959 E8.10620
G1 X-7.404 Y-30.239 E8.15621
G1 X-6.805 Y-30.304 E8.17308
G1 X-6.200 Y-30.327 E8.19006
G1 X6.202 Y-30.327 E8.53766
G1 X6.807 Y-30.304 E8.55464
G1 X7.445 Y-30.234 E8.57262 F2700.000
G1 X9.253 Y-29.945 E8.62394
G1 X10.088 Y-29.758 E8.64791
G1 X10.629 Y-29.591 E8.66378
G1 X11.514 Y-29.250 E8.69038
G1 X12.653 Y-28.726 E8.72552
G1 X13.429 Y-28.284 E8.75055
G1 X14.193 Y-27.744 E8.77678
G1 X14.883 Y-27.138 E8.80250
G1 X15.290 Y-26.714 E8.81897
G1 X16.287 Y-25.608 E8.86072
G1 X16.920 Y-24.785 E8.88982
G1 X17.394 Y-24.023 E8.91497
G1 X17.812 Y-23.183 E8.94127
G1 X18.119 Y-22.397 E8.96490
G1 X18.398 Y-21.419 E8.99343
G1 X23.014 Y0.994 E9.63480
G1 X23.120 Y1.621 E9.65264
G1 X23.196 Y2.304 E9.67189
G1 X23.227 Y2.954 E9.69011
G1 X23.213 Y3.665 E9.71006
G1 X23.167 Y4.230 E9.72594
G1 X23.094 Y4.754 E9.74077
G1 X22.983 Y5.320 E9.75693
G1 X22.825 Y5.913 E9.77414
G1 X22.627 Y6.498 E9.79145
G1 X22.346 Y7.162 E9.81167
G1 X21.969 Y7.885 E9.83452
G1 X21.547 Y8.537 E9.85628
G1 X21.121 Y9.097 E9.87602
G1 X17.110 Y13.979 E10.05312
G1 X16.811 Y13.812 F2700.000
G1 X7.279 Y25.413 E10.47396 F2700.000
G1 X6.377 Y26.340 E10.51020
G1 X5.578 Y26.979 E10.53890
G1 X5.330 Y27.153 E10.54739
G1 X3.273 Y28.176 E10.61178
G1 X2.504 Y28.401 E10.63424
G1 X1.865 Y28.541 E10.65257
G1 X0.555 Y28.665 E10.68944
G1 X-0.011 Y28.669 E10.70530
G1 X-0.592 Y28.642 E10.72163
G1 X-2.659 Y28.460 E10.77976
G1 X-3.767 Y28.268 E10.81128
G1 X-5.181 Y27.795 E10.85309
G1 X-5.432 Y27.683 E10.86078
G1 X-6.437 Y27.148 E10.89270
G1 X-7.718 Y26.197 E10.93740
G1 X-7.917 Y26.014 E10.94499
G1 X-8.735 Y25.136 E10.97863
G1 X-21.271 Y8.340 E11.56605
G1 X-21.675 Y7.716 E11.58689
G1 X-22.040 Y7.017 E11.60899
G1 X-22.333 Y6.316 E11.63028
G1 X-22.501 Y5.814 E11.64512
G1 X-22.653 Y5.245 E11.66162
G1 X-22.759 Y4.701 E11.67716
G1 X-22.830 Y4.191 E11.69159
G1 X-22.875 Y3.643 E11.70699
G1 X-22.888 Y2.962 E11.72609
G1 X-22.849 Y2.224 E11.74680
G1 X-22.710 Y1.207 E11.77557
G1 X-18.112 Y-21.143 E12.41514
G1 X-17.894 Y-21.991 E12.43967
G1 X-17.796 Y-22.298 E12.44869
G1 X-17.401 Y-23.270 E12.47811
G1 X-16.949 Y-24.117 E12.50502
G1 X-16.587 Y-24.673 E12.52362
G1 X-16.083 Y-25.325 E12.54671
G1 X-15.036 Y-26.491 E12.59063
G1 X-14.618 Y-26.923 E12.60749
G1 X-13.981 Y-27.480 E12.63120
G1 X-13.314 Y-27.957 E12.65417
G1 X-12.447 Y-28.452 E12.68216
G1 X-11.380 Y-28.940 E12.71504
G1 X-10.453 Y-29.294 E12.74286
G1 X-9.645 Y-29.521 E12.76638
G1 X-9.109 Y-29.627 E12.78171
G1 X-7.355 Y-29.906 E12.83148
G1 X-6.780 Y-29.968 E12.84769
G1 X-6.200 Y-29.990 E12.86397
G1 X6.202 Y-29.990 E13.21156
G1 X6.782 Y-29.968 E13.22783
G1 X7.396 Y-29.900 E13.24515 F2700.000
G1 X9.196 Y-29.612 E13.29624
G1 X9.999 Y-29.433 E13.31930
G1 X10.522 Y-29.271 E13.33465
G1 X11.380 Y-28.941 E13.36041
G1 X12.500 Y-28.425 E13.39498
G1 X13.251 Y-27.998 E13.41919
G1 X13.983 Y-27.480 E13.44432
G1 X14.646 Y-26.898 E13.46907
G1 X15.040 Y-26.489 E13.48498
G1 X16.033 Y-25.386 E13.52657
G1 X16.644 Y-24.593 E13.55463
G1 X17.101 Y-23.856 E13.57893
G1 X17.505 Y-23.044 E13.60435
G1 X17.799 Y-22.290 E13.62704
G1 X18.069 Y-21.346 E13.65455
G1 X22.684 Y1.062 E14.29579
G1 X22.786 Y1.669 E14.31303
G1 X22.860 Y2.328 E14.33164
G1 X22.890 Y2.962 E14.34941
G1 X22.877 Y3.643 E14.36852
G1 X22.832 Y4.191 E14.38393
G1 X22.761 Y4.701 E14.39835
G1 X22.655 Y5.245 E14.41390
G1 X22.503 Y5.814 E14.43039
G1 X22.311 Y6.381 E14.44717
G1 X22.042 Y7.017 E14.46653
G1 X21.677 Y7.716 E14.48861
G1 X21.273 Y8.340 E14.50946
G1 X20.860 Y8.883 E14.52859
G1 X16.849 Y13.765 E14.70569
G1 X16.551 Y13.598 F2700.000
G1 X7.019 Y25.199 E15.12653 F2700.000
G1 X6.156 Y26.085 E15.16118
G1 X5.384 Y26.703 E15.18891
G1 X5.136 Y26.877 E15.19740
G1 X3.169 Y27.855 E15.25897
G1 X2.425 Y28.074 E15.28072
G1 X1.804 Y28.210 E15.29852
G1 X0.552 Y28.328 E15.33377
G1 X-0.008 Y28.332 E15.34946
G1 X-0.564 Y28.306 E15.36507
G1 X-2.616 Y28.125 E15.42281
G1 X-3.686 Y27.941 E15.45325
G1 X-5.044 Y27.487 E15.49337
G1 X-5.295 Y27.376 E15.50106
G1 X-6.265 Y26.858 E15.53190
G1 X-7.490 Y25.948 E15.57464
G1 X-7.689 Y25.765 E15.58223
G1 X-8.471 Y24.926 E15.61439
G1 X-20.997 Y8.143 E16.20135
G1 X-21.392 Y7.532 E16.22175
G1 X-21.736 Y6.872 E16.24261
G1 X-22.017 Y6.199 E16.26305
G1 X-22.179 Y5.714 E16.27736
G1 X-22.324 Y5.171 E16.29314
G1 X-22.426 Y4.648 E16.30807
G1 X-22.495 Y4.153 E16.32209
G1 X-22.538 Y3.622 E16.33701
G1 X-22.551 Y2.970 E16.35527
G1 X-22.513 Y2.253 E16.37541
G1 X-22.379 Y1.271 E16.40320
G1 X-17.781 Y-21.075 E17.04264
G1 X-17.573 Y-21.890 E17.06621
G1 X-17.477 Y-22.190 E17.07503
G1 X-17.095 Y-23.129 E17.10345
G1 X-16.659 Y-23.945 E17.12939
G1 X-16.311 Y-24.479 E17.14725
G1 X-15.827 Y-25.106 E17.16945
G1 X-14.786 Y-26.265 E17.21310
G1 X-14.383 Y-26.682 E17.22937
G1 X-13.771 Y-27.217 E17.25214
G1 X-13.015 Y-27.747 E17.27803
G1 X-12.510 Y-28.038 E17.29437
G1 X-12.000 Y-28.296 E17.31038
G1 X-10.951 Y-28.753 E17.34246
G1 X-10.447 Y-28.940 E17.35752
G1 X-9.930 Y-29.102 E17.37271
G1 X-9.137 Y-29.280 E17.39549
G1 X-7.306 Y-29.572 E17.44745
G1 X-6.755 Y-29.632 E17.46300
G1 X-6.200 Y-29.653 E17.47856
G1 X6.202 Y-29.653 E17.82615
G1 X6.757 Y-29.632 E17.84171
G1 X7.347 Y-29.567 E17.85837 F2700.000
G1 X9.139 Y-29.280 E17.90922
G1 X9.910 Y-29.108 E17.93137
G1 X10.415 Y-28.952 E17.94620
G1 X11.246 Y-28.632 E17.97113
G1 X12.347 Y-28.125 E18.00512
G1 X13.073 Y-27.712 E18.02853
G1 X13.773 Y-27.217 E18.05255
G1 X14.410 Y-26.657 E18.07632
G1 X14.790 Y-26.263 E18.09167
G1 X15.779 Y-25.164 E18.13310
G1 X16.367 Y-24.400 E18.16012
G1 X16.808 Y-23.689 E18.18357
G1 X17.198 Y-22.905 E18.20812
G1 X17.480 Y-22.183 E18.22986
G1 X17.740 Y-21.273 E18.25636
G1 X22.353 Y1.130 E18.89746
G1 X22.452 Y1.716 E18.91412
G1 X22.523 Y2.353 E18.93208
G1 X22.553 Y2.970 E18.94940
G1 X22.540 Y3.622 E18.96767
G1 X22.497 Y4.153 E18.98260
G1 X22.428 Y4.648 E18.99662
G1 X22.326 Y5.171 E19.01155
G1 X22.181 Y5.714 E19.02732
G1 X21.995 Y6.263 E19.04356
G1 X21.738 Y6.872 E19.06208
G1 X21.386 Y7.546 E19.08340
G1 X20.999 Y8.143 E19.10333
G1 X20.600 Y8.669 E19.12185
G1 X16.589 Y13.551 E19.29895
G1 X16.290 Y13.384 F2700.000
G1 X6.758 Y24.985 E19.71979 F2700.000
G1 X5.936 Y25.830 E19.75285
G1 X5.191 Y26.427 E19.77961
G1 X4.943 Y26.601 E19.78810
G1 X3.066 Y27.535 E19.84684
G1 X2.346 Y27.746 E19.86789
G1 X1.744 Y27.878 E19.88515
G1 X0.549 Y27.991 E19.91879
G1 X-0.005 Y27.995 E19.93431
G1 X-0.535 Y27.970 E19.94920
G1 X-2.574 Y27.791 E20.00656
G1 X-3.606 Y27.614 E20.03590
G1 X-4.907 Y27.179 E20.07435
G1 X-5.158 Y27.068 E20.08204
G1 X-6.094 Y26.568 E20.11178
G1 X-7.262 Y25.700 E20.15256
G1 X-7.461 Y25.517 E20.16015
G1 X-8.207 Y24.716 E20.19084
G1 X-20.724 Y7.946 E20.77734
G1 X-21.101 Y7.363 E20.79682
G1 X-21.432 Y6.727 E20.81692
G1 X-21.701 Y6.081 E20.83651
G1 X-21.857 Y5.615 E20.85029
G1 X-22.007 Y5.043 E20.86687
G1 X-22.160 Y4.114 E20.89326
G1 X-22.202 Y3.600 E20.90771
G1 X-22.214 Y2.979 E20.92513
G1 X-22.178 Y2.282 E20.94469
G1 X-22.048 Y1.334 E20.97151
G1 X-17.451 Y-21.007 E21.61081
G1 X-17.251 Y-21.789 E21.63343
G1 X-17.158 Y-22.082 E21.64205
G1 X-16.788 Y-22.988 E21.66946
G1 X-16.369 Y-23.774 E21.69444
G1 X-16.035 Y-24.285 E21.71154
G1 X-15.571 Y-24.887 E21.73287
G1 X-14.536 Y-26.039 E21.77625
G1 X-14.147 Y-26.441 E21.79192
G1 X-13.560 Y-26.953 E21.81377
G1 X-12.835 Y-27.462 E21.83859
G1 X-12.349 Y-27.742 E21.85432
G1 X-11.858 Y-27.991 E21.86975
G1 X-10.825 Y-28.440 E21.90134
G1 X-10.339 Y-28.621 E21.91586
G1 X-9.840 Y-28.777 E21.93050
G1 X-9.080 Y-28.948 E21.95235
G1 X-7.257 Y-29.239 E22.00408
G1 X-6.729 Y-29.296 E22.01897
G1 X-6.200 Y-29.316 E22.03382
G1 X6.202 Y-29.316 E22.38141
G1 X6.731 Y-29.296 E22.39625
G1 X7.298 Y-29.233 E22.41225 F2700.000
G1 X9.082 Y-28.948 E22.46287
G1 X9.821 Y-28.782 E22.48411
G1 X10.309 Y-28.632 E22.49842
G1 X11.111 Y-28.323 E22.52252
G1 X12.194 Y-27.825 E22.55592
G1 X12.895 Y-27.425 E22.57852
G1 X13.562 Y-26.953 E22.60144
G1 X14.173 Y-26.417 E22.62423
G1 X14.540 Y-26.037 E22.63903
G1 X15.525 Y-24.943 E22.68030
G1 X16.090 Y-24.208 E22.70628
G1 X16.515 Y-23.522 E22.72889
G1 X16.891 Y-22.766 E22.75255
G1 X17.160 Y-22.075 E22.77335
G1 X17.410 Y-21.201 E22.79884
G1 X22.023 Y1.198 E23.43980
G1 X22.118 Y1.763 E23.45587
G1 X22.187 Y2.377 E23.47318
G1 X22.216 Y2.978 E23.49005
G1 X22.204 Y3.600 E23.50748
G1 X22.162 Y4.114 E23.52194
G1 X22.095 Y4.595 E23.53555
G1 X21.997 Y5.096 E23.54987
G1 X21.859 Y5.615 E23.56491
G1 X21.679 Y6.146 E23.58063
G1 X21.433 Y6.727 E23.59830
G1 X21.094 Y7.377 E23.61885
G1 X20.726 Y7.946 E23.63787
G1 X20.339 Y8.455 E23.65578
G1 X16.328 Y13.338 E23.83288
G1 X16.030 Y13.170 F2700.000
G1 X6.498 Y24.771 E24.25372 F2700.000
G1 X5.715 Y25.576 E24.28519
G1 X4.997 Y26.151 E24.31097
G1 X4.749 Y26.325 E24.31946
G1 X2.963 Y27.214 E24.37538
G1 X2.267 Y27.418 E24.39572
G1 X1.683 Y27.546 E24.41245
G1 X0.546 Y27.654 E24.44447
G1 X-0.002 Y27.658 E24.45982
G1 X-0.507 Y27.634 E24.47400
G1 X-2.531 Y27.457 E24.53096
G1 X-3.525 Y27.286 E24.55922
G1 X-4.770 Y26.871 E24.59599
G1 X-5.020 Y26.760 E24.60368
G1 X-5.922 Y26.278 E24.63233
G1 X-7.034 Y25.452 E24.67115
G1 X-7.233 Y25.269 E24.67874
G1 X-7.943 Y24.506 E24.70795
G1 X-20.450 Y7.750 E25.29400
G1 X-20.809 Y7.193 E25.31256
G1 X-21.127 Y6.581 E25.33189
G1 X-21.385 Y5.964 E25.35064
G1 X-21.535 Y5.516 E25.36389
G1 X-21.678 Y4.969 E25.37974
G1 X-21.825 Y4.075 E25.40511
G1 X-21.866 Y3.578 E25.41909
G1 X-21.877 Y2.987 E25.43567
G1 X-21.842 Y2.311 E25.45464
G1 X-21.717 Y1.397 E25.48050
G1 X-17.121 Y-20.939 E26.11966
G1 X-16.930 Y-21.688 E26.14132
G1 X-16.838 Y-21.974 E26.14974
G1 X-16.482 Y-22.846 E26.17615
G1 X-16.078 Y-23.602 E26.20016
G1 X-15.760 Y-24.091 E26.21652
G1 X-15.315 Y-24.669 E26.23696
G1 X-14.286 Y-25.813 E26.28008
G1 X-13.912 Y-26.199 E26.29515
G1 X-13.350 Y-26.690 E26.31606
G1 X-12.656 Y-27.177 E26.33982
G1 X-12.189 Y-27.446 E26.35494
G1 X-11.716 Y-27.685 E26.36978
G1 X-10.698 Y-28.128 E26.40089
G1 X-10.231 Y-28.302 E26.41488
G1 X-9.751 Y-28.452 E26.42896
G1 X-9.023 Y-28.616 E26.44989
G1 X-7.208 Y-28.905 E26.50139
G1 X-6.704 Y-28.960 E26.51562
G1 X-6.200 Y-28.979 E26.52975
G1 X6.202 Y-28.979 E26.87734
G1 X6.706 Y-28.960 E26.89147
G1 X7.250 Y-28.900 E26.90681 F2700.000
G1 X9.025 Y-28.616 E26.95720
G1 X9.732 Y-28.457 E26.97752
G1 X10.202 Y-28.312 E26.99131
G1 X10.977 Y-28.014 E27.01458
G1 X12.041 Y-27.524 E27.04740
G1 X12.716 Y-27.139 E27.06919
G1 X13.352 Y-26.690 E27.09101
G1 X13.937 Y-26.177 E27.11282
G1 X14.290 Y-25.811 E27.12706
G1 X15.271 Y-24.721 E27.16817
G1 X15.813 Y-24.015 E27.19312
G1 X16.223 Y-23.356 E27.21488
G1 X16.584 Y-22.627 E27.23766
G1 X16.841 Y-21.968 E27.25751
G1 X17.081 Y-21.128 E27.28199
G1 X21.693 Y1.266 E27.92282
G1 X21.785 Y1.811 E27.93830
G1 X21.851 Y2.401 E27.95496
G1 X21.879 Y2.986 E27.97138
G1 X21.868 Y3.578 E27.98797
G1 X21.827 Y4.076 E28.00196
G1 X21.762 Y4.542 E28.01516
G1 X21.668 Y5.022 E28.02886
G1 X21.537 Y5.515 E28.04318
G1 X21.363 Y6.029 E28.05837
G1 X21.129 Y6.581 E28.07519
G1 X20.803 Y7.208 E28.09498
G1 X20.452 Y7.750 E28.11308
G1 X20.079 Y8.241 E28.13038
G1 X16.068 Y13.124 E28.30748
G1 X15.769 Y12.956 F2700.000
G1 X6.237 Y24.557 E28.72832 F2700.000
G1 X5.494 Y25.321 E28.75820
G1 X4.804 Y25.875 E28.78301
G1 X4.556 Y26.049 E28.79150
G1 X2.859 Y26.893 E28.84459
G1 X2.187 Y27.091 E28.86422
G1 X1.623 Y27.215 E28.88043
G1 X0.543 Y27.317 E28.91083
