; generated by Slic3r 1.2.9 on 2017-06-28 at 09:23:28

; external perimeters extrusion width = 0.38mm
; perimeters extrusion width = 0.38mm
; infill extrusion width = 0.38mm
; solid infill extrusion width = 0.38mm
; top infill extrusion width = 0.36mm

M107
M190 S50 ; set bed temperature
M104 S210 ; set temperature
G28 ; home all axes
G1 Z5 F5000 ; lift nozzle

M109 S210 ; wait for temperature to be reached
G21 ; set units to millimeters
G90 ; use absolute coordinates
M82 ; use absolute distances for extrusion
G92 E0
G1 E-0.57000 F3300.00000
G92 E0
G1 Z1.600 F2700.000
G1 X20.938 Y0.000 F2700.000
G1 E0.57000 F3300.00000
M204 S1000
G1 X20.938 Y15.425 E1.00234 F2700.000
G1 X20.822 Y17.526 E1.06132
G1 X20.690 Y18.568 E1.09075
G1 X20.394 Y20.119 E1.13502
G1 X20.133 Y21.136 E1.16443
G1 X19.800 Y22.161 E1.19464
G1 X19.645 Y22.639 E1.20872
G1 X19.259 Y23.615 E1.23814
G1 X18.586 Y25.044 E1.28241
G1 X18.081 Y25.964 E1.31183
G1 X17.234 Y27.297 E1.35610
G1 X16.617 Y28.147 E1.38554
G1 X15.610 Y29.364 E1.42981
G1 X14.892 Y30.129 E1.45923
G1 X13.740 Y31.211 E1.50351
G1 X12.931 Y31.880 E1.53293
G1 X11.653 Y32.808 E1.57720
G1 X10.767 Y33.370 E1.60661
G1 X9.383 Y34.131 E1.65089
G1 X8.433 Y34.579 E1.68032
G1 X6.964 Y35.160 E1.72460
G1 X5.966 Y35.484 E1.75401
G1 X4.436 Y35.877 E1.79828
G1 X3.405 Y36.074 E1.82771
G1 X1.837 Y36.272 E1.87198
G1 X0.790 Y36.338 E1.90141
G1 X-0.790 Y36.338 E1.94568
G1 X-1.838 Y36.272 E1.97510
G1 X-3.405 Y36.074 E2.01938
G1 X-4.436 Y35.877 E2.04880
G1 X-5.966 Y35.484 E2.09308
G1 X-6.964 Y35.160 E2.12249
G1 X-8.433 Y34.578 E2.16677
G1 X-9.383 Y34.131 E2.19620
G1 X-10.767 Y33.370 E2.24048
G1 X-11.653 Y32.808 E2.26988
G1 X-12.931 Y31.880 E2.31416
G1 X-13.740 Y31.210 E2.34359
G1 X-14.891 Y30.129 E2.38786
G1 X-15.610 Y29.364 E2.41728
G1 X-16.617 Y28.147 E2.46155
G1 X-17.234 Y27.297 E2.49098
G1 X-18.081 Y25.964 E2.53526
G1 X-18.586 Y25.044 E2.56467
G1 X-19.259 Y23.614 E2.60895
G1 X-19.645 Y22.638 E2.63837
G1 X-20.133 Y21.136 E2.68265
G1 X-20.394 Y20.120 E2.71206
G1 X-20.690 Y18.568 E2.75634
G1 X-20.822 Y17.526 E2.78577
G1 X-20.938 Y15.425 E2.84475
G1 X-20.938 Y-15.425 E3.70942
G1 X-20.822 Y-17.526 E3.76841
G1 X-20.690 Y-18.568 E3.79783
G1 X-20.394 Y-20.120 E3.84211
G1 X-20.133 Y-21.136 E3.87152
G1 X-19.645 Y-22.639 E3.91581
G1 X-19.259 Y-23.615 E3.94523
G1 X-18.586 Y-25.044 E3.98950
G1 X-18.081 Y-25.964 E4.01891
G1 X-17.234 Y-27.297 E4.06319
G1 X-16.617 Y-28.147 E4.09262
G1 X-15.610 Y-29.364 E4.13690
G1 X-14.892 Y-30.129 E4.16631
G1 X-13.740 Y-31.211 E4.21059
G1 X-12.931 Y-31.880 E4.24002
G1 X-11.653 Y-32.808 E4.28429
G1 X-10.767 Y-33.370 E4.31370
G1 X-9.383 Y-34.131 E4.35797
G1 X-8.433 Y-34.579 E4.38741
G1 X-6.964 Y-35.160 E4.43168
G1 X-5.966 Y-35.484 E4.46110
G1 X-4.436 Y-35.877 E4.50537
G1 X-3.405 Y-36.074 E4.53480
G1 X-1.837 Y-36.272 E4.57907
G1 X-0.790 Y-36.338 E4.60849
G1 X0.790 Y-36.338 E4.65277
G1 X1.838 Y-36.272 E4.68219
G1 X3.405 Y-36.074 E4.72646 F2700.000
G1 X4.436 Y-35.877 E4.75589
G1 X5.966 Y-35.484 E4.80016
G1 X6.964 Y-35.160 E4.82957
G1 X8.433 Y-34.578 E4.87385
G1 X9.383 Y-34.131 E4.90329
G1 X10.767 Y-33.370 E4.94756
G1 X11.653 Y-32.808 E4.97696
G1 X12.931 Y-31.880 E5.02125
G1 X13.740 Y-31.210 E5.05067
G1 X14.892 Y-30.129 E5.09494
G1 X15.610 Y-29.364 E5.12436
G1 X16.617 Y-28.147 E5.16864
G1 X17.234 Y-27.297 E5.19807
G1 X18.081 Y-25.964 E5.24234
G1 X18.586 Y-25.044 E5.27176
G1 X19.259 Y-23.614 E5.31604
G1 X19.645 Y-22.638 E5.34546
G1 X20.133 Y-21.136 E5.38973
G1 X20.394 Y-20.120 E5.41915
G1 X20.596 Y-19.061 E5.44935
G1 X20.690 Y-18.568 E5.46343
G1 X20.822 Y-17.526 E5.49285
G1 X20.938 Y-15.425 E5.55184
G1 X20.938 Y-0.060 E5.98249
G1 X20.600 Y0.000 F2700.000
G1 X20.600 Y15.425 E6.41483 F2700.000
G1 X20.485 Y17.505 E6.47322
G1 X20.359 Y18.505 E6.50146
G1 X20.063 Y20.056 E6.54573
G1 X19.813 Y21.032 E6.57396
G1 X19.480 Y22.057 E6.60416
G1 X19.324 Y22.535 E6.61825
G1 X18.954 Y23.471 E6.64648
G1 X18.281 Y24.900 E6.69075
G1 X17.796 Y25.783 E6.71898
G1 X16.950 Y27.117 E6.76326
G1 X16.357 Y27.932 E6.79150
G1 X15.350 Y29.149 E6.83577
G1 X14.661 Y29.883 E6.86400
G1 X13.509 Y30.965 E6.90828
G1 X12.733 Y31.607 E6.93652
G1 X11.455 Y32.535 E6.98080
G1 X10.605 Y33.075 E7.00902
G1 X9.221 Y33.836 E7.05329
G1 X8.308 Y34.265 E7.08154
G1 X6.840 Y34.847 E7.12582
G1 X5.882 Y35.158 E7.15404
G1 X4.352 Y35.551 E7.19832
G1 X3.362 Y35.739 E7.22656
G1 X1.795 Y35.937 E7.27083
G1 X0.790 Y36.001 E7.29907
G1 X-0.790 Y36.001 E7.34334
G1 X-1.795 Y35.937 E7.37158
G1 X-3.362 Y35.739 E7.41585
G1 X-4.352 Y35.551 E7.44409
G1 X-5.882 Y35.158 E7.48836
G1 X-6.840 Y34.847 E7.51659
G1 X-8.309 Y34.265 E7.56087
G1 X-9.221 Y33.836 E7.58912
G1 X-10.605 Y33.075 E7.63339
G1 X-11.455 Y32.535 E7.66161
G1 X-12.733 Y31.607 E7.70589
G1 X-13.509 Y30.965 E7.73413
G1 X-14.661 Y29.883 E7.77840
G1 X-15.350 Y29.149 E7.80663
G1 X-16.357 Y27.932 E7.85090
G1 X-16.950 Y27.117 E7.87915
G1 X-17.796 Y25.783 E7.92343
G1 X-18.281 Y24.900 E7.95165
G1 X-18.954 Y23.471 E7.99594
G1 X-19.325 Y22.534 E8.02417
G1 X-19.813 Y21.032 E8.06844
G1 X-20.063 Y20.056 E8.09667
G1 X-20.359 Y18.505 E8.14095
G1 X-20.485 Y17.505 E8.16919
G1 X-20.600 Y15.425 E8.22758
G1 X-20.600 Y-15.425 E9.09225
G1 X-20.485 Y-17.505 E9.15064
G1 X-20.359 Y-18.505 E9.17888
G1 X-20.063 Y-20.056 E9.22316
G1 X-19.813 Y-21.032 E9.25138
G1 X-19.324 Y-22.535 E9.29567
G1 X-18.954 Y-23.471 E9.32390
G1 X-18.281 Y-24.900 E9.36817
G1 X-17.796 Y-25.783 E9.39640
G1 X-16.950 Y-27.117 E9.44068
G1 X-16.357 Y-27.932 E9.46893
G1 X-15.350 Y-29.149 E9.51320
G1 X-14.661 Y-29.883 E9.54143
G1 X-13.509 Y-30.965 E9.58571
G1 X-12.733 Y-31.607 E9.61395
G1 X-11.455 Y-32.535 E9.65822
G1 X-10.605 Y-33.075 E9.68644
G1 X-9.221 Y-33.836 E9.73072
G1 X-8.308 Y-34.265 E9.75897
G1 X-6.840 Y-34.847 E9.80324
G1 X-5.882 Y-35.158 E9.83147
G1 X-4.352 Y-35.551 E9.87574
G1 X-3.362 Y-35.739 E9.90398
G1 X-1.795 Y-35.937 E9.94825
G1 X-0.790 Y-36.001 E9.97649
G1 X0.790 Y-36.001 E10.02076
G1 X1.795 Y-35.937 E10.04900
G1 X3.362 Y-35.739 E10.09327 F2700.000
G1 X4.352 Y-35.551 E10.12152
G1 X5.882 Y-35.158 E10.16579
G1 X6.840 Y-34.847 E10.19401
G1 X8.309 Y-34.265 E10.23829
G1 X9.221 Y-33.836 E10.26654
G1 X10.605 Y-33.075 E10.31081
G1 X11.455 Y-32.535 E10.33903
G1 X12.733 Y-31.607 E10.38331
G1 X13.509 Y-30.965 E10.41155
G1 X14.661 Y-29.883 E10.45582
G1 X15.350 Y-29.149 E10.48406
G1 X16.357 Y-27.932 E10.52833
G1 X16.950 Y-27.117 E10.55658
G1 X17.796 Y-25.783 E10.60085
G1 X18.281 Y-24.900 E10.62908
G1 X18.954 Y-23.471 E10.67336
G1 X19.325 Y-22.534 E10.70159
G1 X19.813 Y-21.032 E10.74587
G1 X20.063 Y-20.056 E10.77410
G1 X20.265 Y-18.998 E10.80430
G1 X20.359 Y-18.505 E10.81838
G1 X20.485 Y-17.505 E10.84661
G1 X20.600 Y-15.425 E10.90500
G1 X20.600 Y-0.060 E11.33566
G1 X20.263 Y0.000 F2700.000
G1 X20.263 Y15.425 E11.76799 F2700.000
G1 X20.149 Y17.484 E11.82579
G1 X20.028 Y18.442 E11.85285
G1 X19.732 Y19.993 E11.89712
G1 X19.492 Y20.928 E11.92416
G1 X19.159 Y21.953 E11.95437
G1 X19.004 Y22.430 E11.96845
G1 X18.649 Y23.328 E11.99549
G1 X17.976 Y24.757 E12.03976
G1 X17.511 Y25.602 E12.06681
G1 X16.665 Y26.936 E12.11108
G1 X16.097 Y27.717 E12.13814
G1 X15.091 Y28.934 E12.18242
G1 X14.430 Y29.638 E12.20946
G1 X13.278 Y30.719 E12.25374
G1 X12.535 Y31.334 E12.28079
G1 X11.257 Y32.263 E12.32506
G1 X10.442 Y32.780 E12.35210
G1 X9.058 Y33.541 E12.39637
G1 X8.184 Y33.952 E12.42344
G1 X6.716 Y34.533 E12.46771
G1 X5.798 Y34.831 E12.49475
G1 X4.268 Y35.224 E12.53903
G1 X3.320 Y35.405 E12.56608
G1 X1.753 Y35.603 E12.61035
G1 X0.790 Y35.664 E12.63740
G1 X-0.790 Y35.664 E12.68168
G1 X-1.753 Y35.603 E12.70873
G1 X-3.320 Y35.405 E12.75300
G1 X-4.268 Y35.224 E12.78005
G1 X-5.798 Y34.831 E12.82433
G1 X-6.716 Y34.533 E12.85137
G1 X-8.185 Y33.952 E12.89564
G1 X-9.058 Y33.541 E12.92271
G1 X-10.442 Y32.780 E12.96698
G1 X-11.257 Y32.263 E12.99401
G1 X-12.535 Y31.334 E13.03829
G1 X-13.279 Y30.719 E13.06534
G1 X-14.430 Y29.638 E13.10962
G1 X-15.091 Y28.934 E13.13666
G1 X-16.097 Y27.717 E13.18094
G1 X-16.665 Y26.936 E13.20800
G1 X-17.511 Y25.602 E13.25227
G1 X-17.976 Y24.757 E13.27931
G1 X-18.649 Y23.327 E13.32359
G1 X-19.004 Y22.430 E13.35064
G1 X-19.492 Y20.928 E13.39491
G1 X-19.732 Y19.993 E13.42196
G1 X-20.028 Y18.441 E13.46624
G1 X-20.149 Y17.484 E13.49329
G1 X-20.263 Y15.425 E13.55108
G1 X-20.263 Y-15.425 E14.41576
G1 X-20.149 Y-17.484 E14.47356
G1 X-20.028 Y-18.442 E14.50061
G1 X-19.732 Y-19.993 E14.54488
G1 X-19.492 Y-20.928 E14.57192
G1 X-19.004 Y-22.430 E14.61621
G1 X-18.649 Y-23.328 E14.64325
G1 X-17.976 Y-24.757 E14.68752
G1 X-17.511 Y-25.602 E14.71457
G1 X-16.665 Y-26.936 E14.75885
G1 X-16.097 Y-27.717 E14.78591
G1 X-15.091 Y-28.934 E14.83018
G1 X-14.430 Y-29.638 E14.85722
G1 X-13.278 Y-30.719 E14.90150
G1 X-12.535 Y-31.334 E14.92856
G1 X-11.257 Y-32.263 E14.97283
G1 X-10.442 Y-32.779 E14.99986
G1 X-9.058 Y-33.541 E15.04414
G1 X-8.184 Y-33.952 E15.07120
G1 X-6.716 Y-34.533 E15.11547
G1 X-5.798 Y-34.831 E15.14251
G1 X-4.268 Y-35.224 E15.18679
G1 X-3.320 Y-35.405 E15.21384
G1 X-1.753 Y-35.603 E15.25812
G1 X-0.790 Y-35.664 E15.28517
G1 X0.790 Y-35.664 E15.32944
G1 X1.753 Y-35.603 E15.35649
G1 X3.320 Y-35.405 E15.40076 F2700.000
G1 X4.268 Y-35.224 E15.42782
G1 X5.798 Y-34.831 E15.47209
G1 X6.716 Y-34.533 E15.49913
G1 X8.185 Y-33.952 E15.54341
G1 X9.058 Y-33.541 E15.57047
G1 X10.442 Y-32.780 E15.61474
G1 X11.257 Y-32.263 E15.64177
G1 X12.535 Y-31.334 E15.68605
G1 X13.279 Y-30.719 E15.71311
G1 X14.430 Y-29.638 E15.75738
G1 X15.091 Y-28.934 E15.78443
G1 X16.097 Y-27.717 E15.82870
G1 X16.665 Y-26.936 E15.85576
G1 X17.511 Y-25.602 E15.90003
G1 X17.976 Y-24.757 E15.92708
G1 X18.649 Y-23.327 E15.97136
G1 X19.004 Y-22.430 E15.99840
G1 X19.492 Y-20.928 E16.04268
G1 X19.732 Y-19.993 E16.06972
G1 X19.934 Y-18.934 E16.09993
G1 X20.028 Y-18.441 E16.11400
G1 X20.149 Y-17.484 E16.14105
G1 X20.263 Y-15.425 E16.19885
G1 X20.263 Y-0.060 E16.62950
G1 X19.926 Y0.000 F2700.000
G1 X19.926 Y15.425 E17.06184 F2700.000
G1 X19.813 Y17.463 E17.11904
G1 X19.697 Y18.378 E17.14491
G1 X19.401 Y19.930 E17.18918
G1 X19.172 Y20.824 E17.21504
G1 X18.839 Y21.848 E17.24524
G1 X18.683 Y22.326 E17.25932
G1 X18.344 Y23.184 E17.28518
G1 X17.671 Y24.613 E17.32945
G1 X17.227 Y25.422 E17.35531
G1 X16.380 Y26.755 E17.39959
G1 X15.838 Y27.502 E17.42546
G1 X14.831 Y28.719 E17.46973
G1 X14.199 Y29.392 E17.49559
G1 X13.048 Y30.473 E17.53987
G1 X12.337 Y31.062 E17.56574
G1 X11.059 Y31.990 E17.61001
G1 X10.280 Y32.484 E17.63586
G1 X8.896 Y33.245 E17.68013
G1 X8.060 Y33.638 E17.70601
G1 X6.592 Y34.220 E17.75028
G1 X5.714 Y34.505 E17.77614
G1 X4.184 Y34.898 E17.82041
G1 X3.278 Y35.071 E17.84628
G1 X1.711 Y35.269 E17.89055
G1 X0.790 Y35.326 E17.91642
G1 X-0.790 Y35.326 E17.96069
G1 X-1.711 Y35.269 E17.98655
G1 X-3.278 Y35.071 E18.03083
G1 X-4.184 Y34.898 E18.05669
G1 X-5.714 Y34.505 E18.10097
G1 X-6.592 Y34.220 E18.12682
G1 X-8.060 Y33.638 E18.17110
G1 X-8.896 Y33.245 E18.19697
G1 X-10.280 Y32.484 E18.24125
G1 X-11.059 Y31.990 E18.26709
G1 X-12.337 Y31.061 E18.31137
G1 X-13.048 Y30.473 E18.33724
G1 X-14.199 Y29.392 E18.38151
G1 X-14.831 Y28.719 E18.40737
G1 X-15.838 Y27.502 E18.45164
G1 X-16.380 Y26.755 E18.47752
G1 X-17.227 Y25.422 E18.52179
G1 X-17.671 Y24.613 E18.54765
G1 X-18.344 Y23.184 E18.59193
G1 X-18.683 Y22.326 E18.61779
G1 X-19.171 Y20.824 E18.66206
G1 X-19.401 Y19.930 E18.68792
G1 X-19.697 Y18.378 E18.73220
G1 X-19.813 Y17.463 E18.75806
G1 X-19.926 Y15.425 E18.81527
G1 X-19.926 Y-15.425 E19.67994
G1 X-19.813 Y-17.463 E19.73714
G1 X-19.697 Y-18.378 E19.76301
G1 X-19.401 Y-19.930 E19.80728
G1 X-19.172 Y-20.824 E19.83314
G1 X-18.683 Y-22.326 E19.87742
G1 X-18.344 Y-23.184 E19.90328
G1 X-17.671 Y-24.613 E19.94755
G1 X-17.227 Y-25.422 E19.97341
G1 X-16.380 Y-26.755 E20.01769
G1 X-15.838 Y-27.502 E20.04356
G1 X-14.831 Y-28.719 E20.08783
G1 X-14.199 Y-29.392 E20.11369
G1 X-13.048 Y-30.473 E20.15797
G1 X-12.337 Y-31.062 E20.18384
G1 X-11.059 Y-31.990 E20.22811
G1 X-10.280 Y-32.484 E20.25396
G1 X-8.896 Y-33.245 E20.29823
G1 X-8.060 Y-33.638 E20.32411
G1 X-6.592 Y-34.220 E20.36838
G1 X-5.714 Y-34.505 E20.39424
G1 X-4.184 Y-34.898 E20.43851
G1 X-3.278 Y-35.071 E20.46438
G1 X-1.711 Y-35.269 E20.50865
G1 X-0.790 Y-35.326 E20.53452
G1 X0.790 Y-35.326 E20.57879
G1 X1.711 Y-35.269 E20.60465
G1 X3.278 Y-35.071 E20.64893 F2700.000
G1 X4.184 Y-34.898 E20.67479
G1 X5.714 Y-34.505 E20.71907
G1 X6.592 Y-34.220 E20.74492
G1 X8.060 Y-33.638 E20.78920
G1 X8.896 Y-33.245 E20.81507
G1 X10.280 Y-32.484 E20.85935
G1 X11.059 Y-31.990 E20.88519
G1 X12.337 Y-31.061 E20.92947
G1 X13.048 Y-30.473 E20.95534
G1 X14.199 Y-29.392 E20.99961
G1 X14.831 Y-28.719 E21.02547
G1 X15.838 Y-27.502 E21.06974
G1 X16.380 Y-26.755 E21.09562
G1 X17.227 Y-25.422 E21.13989
G1 X17.671 Y-24.613 E21.16575
G1 X18.344 Y-23.184 E21.21003
G1 X18.683 Y-22.326 E21.23589
G1 X19.171 Y-20.824 E21.28016
G1 X19.401 Y-19.930 E21.30602
G1 X19.603 Y-18.871 E21.33623
G1 X19.697 Y-18.378 E21.35030
G1 X19.813 Y-17.463 E21.37616
G1 X19.926 Y-15.425 E21.43337
G1 X19.926 Y-0.060 E21.86402
G1 X19.589 Y0.000 F2700.000
G1 X19.589 Y15.425 E22.29636 F2700.000
G1 X19.476 Y17.442 E22.35297
G1 X19.366 Y18.315 E22.37765
G1 X19.070 Y19.867 E22.42192
G1 X18.851 Y20.719 E22.44659
G1 X18.518 Y21.745 E22.47681
G1 X18.363 Y22.222 E22.49088
G1 X18.039 Y23.041 E22.51555
G1 X17.366 Y24.470 E22.55982
G1 X16.942 Y25.241 E22.58449
G1 X16.096 Y26.575 E22.62877
G1 X15.578 Y27.287 E22.65346
G1 X14.571 Y28.504 E22.69773
G1 X13.969 Y29.146 E22.72240
G1 X12.817 Y30.228 E22.76668
G1 X12.138 Y30.789 E22.79136
G1 X10.861 Y31.717 E22.83563
G1 X10.118 Y32.189 E22.86029
G1 X8.733 Y32.950 E22.90457
G1 X7.936 Y33.325 E22.92926
G1 X6.468 Y33.906 E22.97353
G1 X5.631 Y34.178 E22.99820
G1 X4.101 Y34.571 E23.04247
G1 X3.236 Y34.736 E23.06715
G1 X1.669 Y34.934 E23.11143
G1 X0.790 Y34.989 E23.13611
G1 X-0.790 Y34.989 E23.18038
G1 X-1.669 Y34.934 E23.20506
G1 X-3.236 Y34.736 E23.24933
G1 X-4.101 Y34.571 E23.27401
G1 X-5.631 Y34.178 E23.31828
G1 X-6.468 Y33.906 E23.34295
G1 X-7.936 Y33.325 E23.38723
G1 X-8.733 Y32.950 E23.41192
G1 X-10.118 Y32.189 E23.45619
G1 X-10.860 Y31.717 E23.48085
G1 X-12.139 Y30.789 E23.52513
G1 X-12.817 Y30.227 E23.54981
G1 X-13.969 Y29.146 E23.59408
G1 X-14.571 Y28.504 E23.61876
G1 X-15.578 Y27.287 E23.66303
G1 X-16.096 Y26.575 E23.68771
G1 X-16.942 Y25.241 E23.73199
G1 X-17.366 Y24.470 E23.75666
G1 X-18.039 Y23.040 E23.80094
G1 X-18.363 Y22.222 E23.82561
G1 X-18.851 Y20.719 E23.86989
G1 X-19.070 Y19.867 E23.89456
G1 X-19.366 Y18.315 E23.93884
G1 X-19.476 Y17.442 E23.96352
G1 X-19.589 Y15.425 E24.02012
G1 X-19.589 Y-15.425 E24.88480
G1 X-19.476 Y-17.442 E24.94141
G1 X-19.366 Y-18.315 E24.96609
G1 X-19.070 Y-19.867 E25.01036
G1 X-18.851 Y-20.719 E25.03503
G1 X-18.363 Y-22.222 E25.07932
G1 X-18.039 Y-23.041 E25.10399
G1 X-17.366 Y-24.470 E25.14826
G1 X-16.942 Y-25.241 E25.17293
G1 X-16.096 Y-26.575 E25.21721
G1 X-15.578 Y-27.287 E25.24189
G1 X-14.571 Y-28.504 E25.28617
G1 X-13.969 Y-29.146 E25.31084
G1 X-12.817 Y-30.228 E25.35512
G1 X-12.138 Y-30.789 E25.37980
G1 X-10.861 Y-31.717 E25.42407
G1 X-10.118 Y-32.189 E25.44873
G1 X-8.733 Y-32.950 E25.49301
G1 X-7.936 Y-33.325 E25.51770
G1 X-6.468 Y-33.906 E25.56197
G1 X-5.631 Y-34.178 E25.58664
G1 X-4.101 Y-34.571 E25.63091
G1 X-3.236 Y-34.736 E25.65559
G1 X-1.668 Y-34.934 E25.69987
G1 X-0.790 Y-34.989 E25.72454
G1 X0.790 Y-34.989 E25.76882
G1 X1.669 Y-34.934 E25.79350
G1 X3.236 Y-34.736 E25.83777 F2700.000
G1 X4.101 Y-34.571 E25.86245
G1 X5.631 Y-34.178 E25.90672
G1 X6.468 Y-33.906 E25.93139
G1 X7.936 Y-33.325 E25.97567
G1 X8.733 Y-32.950 E26.00035
G1 X10.118 Y-32.189 E26.04463
G1 X10.860 Y-31.717 E26.06929
G1 X12.139 Y-30.789 E26.11357
