; generated by Slic3r 1.2.9 on 2017-06-22 at 11:23:08

; external perimeters extrusion width = 0.38mm
; perimeters extrusion width = 0.38mm
; infill extrusion width = 0.38mm
; solid infill extrusion width = 0.38mm
; top infill extrusion width = 0.36mm

M107
M190 S50 ; set bed temperature
M104 S210 ; set temperature
G28 ; home all axes
G1 Z5 F5000 ; lift nozzle

M109 S210 ; wait for temperature to be reached
G21 ; set units to millimeters
G90 ; use absolute coordinates
M82 ; use absolute distances for extrusion
G92 E0
G1 E-0.57000 F3300.00000
G92 E0
G1 Z1.600 F2700.000
G1 X-17.624 Y-5.340 F2700.000
G1 E0.57000 F3300.00000
M204 S1000
G1 X-11.415 Y-25.834 E1.17021 F2700.000
G1 X-11.148 Y-26.585 E1.19255
G1 X-10.996 Y-26.955 E1.20376
G1 X-10.483 Y-27.994 E1.23623
G1 X-10.296 Y-28.314 E1.24662
G1 X-9.573 Y-29.360 E1.28225
G1 X-9.351 Y-29.635 E1.29217
G1 X-8.513 Y-30.532 E1.32656
G1 X-7.992 Y-30.998 E1.34616
G1 X-7.481 Y-31.396 E1.36432
G1 X-7.241 Y-31.569 E1.37261
G1 X-6.326 Y-32.141 E1.40284
G1 X-5.571 Y-32.507 E1.42636
G1 X-4.506 Y-32.930 E1.45850
G1 X-3.684 Y-33.181 E1.48258
G1 X-2.833 Y-33.376 E1.50704
G1 X-2.143 Y-33.494 E1.52666
G1 X-1.293 Y-33.592 E1.55066
G1 X-0.187 Y-33.637 E1.58167
G1 X0.653 Y-33.627 E1.60521
G1 X1.292 Y-33.592 E1.62316 F2700.000
G1 X1.746 Y-33.545 E1.63595
G1 X2.833 Y-33.376 E1.66678
G1 X3.684 Y-33.181 E1.69125
G1 X4.506 Y-32.930 E1.71533
G1 X5.572 Y-32.507 E1.74747
G1 X6.326 Y-32.141 E1.77097
G1 X7.240 Y-31.569 E1.80120
G1 X7.481 Y-31.397 E1.80949
G1 X8.083 Y-30.921 E1.83100
G1 X8.676 Y-30.373 E1.85362
G1 X9.351 Y-29.635 E1.88167
G1 X9.573 Y-29.360 E1.89159
G1 X10.296 Y-28.314 E1.92721
G1 X10.482 Y-27.994 E1.93760
G1 X10.996 Y-26.955 E1.97007
G1 X11.148 Y-26.585 E1.98128
G1 X11.415 Y-25.834 E2.00363
G1 X19.904 Y2.185 E2.82422
G1 X20.163 Y3.158 E2.85243
G1 X20.366 Y4.178 E2.88157
G1 X22.037 Y15.584 E3.20469
G1 X22.115 Y16.382 E3.22716
G1 X22.138 Y16.835 E3.23987
G1 X22.142 Y18.567 E3.28841
G1 X22.120 Y19.093 E3.30318
G1 X22.052 Y19.839 E3.32415
G1 X21.984 Y20.343 E3.33841
G1 X21.756 Y21.452 E3.37016
G1 X21.690 Y21.691 E3.37711
G1 X21.092 Y23.234 E3.42348
G1 X20.938 Y23.537 E3.43300
G1 X19.915 Y25.090 E3.48513
G1 X19.781 Y25.252 E3.49104
G1 X17.905 Y26.918 E3.56134
G1 X17.560 Y27.141 E3.57285
G1 X16.730 Y27.611 E3.59961
G1 X4.223 Y33.771 E3.99035
G1 X3.545 Y34.055 E4.01097
G1 X2.477 Y34.400 E4.04242
G1 X1.123 Y34.659 E4.08105
G1 X0.888 Y34.684 E4.08766
G1 X-0.888 Y34.684 E4.13747
G1 X-1.123 Y34.659 E4.14408
G1 X-2.477 Y34.400 E4.18271
G1 X-3.545 Y34.055 E4.21416
G1 X-3.776 Y33.963 E4.22114
G1 X-4.816 Y33.491 E4.25315
G1 X-16.730 Y27.611 E4.62552
G1 X-17.560 Y27.141 E4.65227
G1 X-17.905 Y26.918 E4.66379
G1 X-19.781 Y25.252 E4.73410
G1 X-19.916 Y25.090 E4.74001
G1 X-20.939 Y23.537 E4.79214
G1 X-21.092 Y23.235 E4.80163
G1 X-21.690 Y21.691 E4.84802
G1 X-21.756 Y21.453 E4.85496
G1 X-21.984 Y20.343 E4.88672
G1 X-22.052 Y19.839 E4.90098
G1 X-22.120 Y19.092 E4.92200
G1 X-22.150 Y18.215 E4.94660
G1 X-22.148 Y17.228 E4.97424
G1 X-22.115 Y16.383 E4.99796
G1 X-22.037 Y15.584 E5.02044
G1 X-20.366 Y4.178 E5.34357
G1 X-20.257 Y3.588 E5.36038
G1 X-20.065 Y2.762 E5.38414
G1 X-19.904 Y2.185 E5.40092
G1 X-17.642 Y-5.282 E5.61962
G1 X-17.302 Y-5.242 F2700.000
G1 X-11.092 Y-25.736 E6.21983 F2700.000
G1 X-10.836 Y-26.457 E6.24128
G1 X-10.684 Y-26.827 E6.25248
G1 X-10.191 Y-27.824 E6.28364
G1 X-10.005 Y-28.144 E6.29403
G1 X-9.311 Y-29.148 E6.32823
G1 X-9.089 Y-29.423 E6.33815
G1 X-8.278 Y-30.290 E6.37140
G1 X-7.774 Y-30.740 E6.39035
G1 X-7.284 Y-31.123 E6.40778
G1 X-7.044 Y-31.295 E6.41607
G1 X-6.164 Y-31.846 E6.44515
G1 X-5.440 Y-32.196 E6.46771
G1 X-4.644 Y-32.521 E6.49179
G1 X-3.602 Y-32.854 E6.52245
G1 X-3.129 Y-32.967 E6.53610
G1 X-2.100 Y-33.160 E6.56543
G1 X-1.409 Y-33.243 E6.58494
G1 X-0.783 Y-33.286 E6.60252
G1 X0.180 Y-33.300 E6.62951
G1 X1.262 Y-33.256 E6.65987 F2700.000
G1 X2.100 Y-33.160 E6.68352
G1 X2.762 Y-33.046 E6.70235
G1 X3.602 Y-32.854 E6.72650
G1 X4.391 Y-32.613 E6.74962
G1 X5.440 Y-32.196 E6.78126
G1 X6.213 Y-31.819 E6.80536
G1 X7.044 Y-31.296 E6.83288
G1 X7.774 Y-30.740 E6.85860
G1 X8.278 Y-30.290 E6.87756
G1 X9.089 Y-29.423 E6.91082
G1 X9.311 Y-29.148 E6.92074
G1 X10.005 Y-28.144 E6.95492
G1 X10.191 Y-27.824 E6.96531
G1 X10.684 Y-26.827 E6.99648
G1 X10.836 Y-26.457 E7.00768
G1 X11.092 Y-25.736 E7.02913
G1 X19.582 Y2.283 E7.84972
G1 X19.833 Y3.231 E7.87721
G1 X20.032 Y4.227 E7.90566
G1 X21.704 Y15.633 E8.22879
G1 X21.779 Y16.399 E8.25035
G1 X21.801 Y16.852 E8.26306
G1 X21.813 Y18.213 E8.30122
G1 X21.783 Y19.078 E8.32547
G1 X21.718 Y19.793 E8.34561
G1 X21.650 Y20.298 E8.35987
G1 X21.431 Y21.362 E8.39033
G1 X21.365 Y21.601 E8.39728
G1 X20.791 Y23.082 E8.44178
G1 X20.638 Y23.384 E8.45128
G1 X19.656 Y24.874 E8.50130
G1 X19.521 Y25.037 E8.50721
G1 X17.722 Y26.635 E8.57468
G1 X17.377 Y26.858 E8.58617
G1 X16.580 Y27.309 E8.61185
G1 X4.081 Y33.465 E9.00236
G1 X3.420 Y33.741 E9.02243
G1 X2.386 Y34.075 E9.05289
G1 X1.087 Y34.324 E9.08996
G1 X0.853 Y34.349 E9.09658
G1 X-0.853 Y34.349 E9.14437
G1 X-1.087 Y34.324 E9.15099
G1 X-2.386 Y34.075 E9.18806
G1 X-3.421 Y33.741 E9.21852
G1 X-3.652 Y33.649 E9.22550
G1 X-4.667 Y33.188 E9.25674
G1 X-16.580 Y27.309 E9.62910
G1 X-17.377 Y26.858 E9.65477
G1 X-17.722 Y26.635 E9.66627
G1 X-19.522 Y25.036 E9.73374
G1 X-19.657 Y24.874 E9.73965
G1 X-20.638 Y23.384 E9.78968
G1 X-20.791 Y23.082 E9.79915
G1 X-21.365 Y21.601 E9.84366
G1 X-21.431 Y21.362 E9.85061
G1 X-21.650 Y20.297 E9.88109
G1 X-21.718 Y19.793 E9.89535
G1 X-21.783 Y19.077 E9.91551
G1 X-21.813 Y18.215 E9.93969
G1 X-21.811 Y17.229 E9.96731
G1 X-21.779 Y16.399 E9.99059
G1 X-21.704 Y15.633 E10.01216
G1 X-20.032 Y4.227 E10.33528
G1 X-19.928 Y3.660 E10.35143
G1 X-19.740 Y2.851 E10.37472
G1 X-19.582 Y2.283 E10.39123
G1 X-17.319 Y-5.185 E10.60994
G1 X-16.979 Y-5.144 F2700.000
G1 X-10.770 Y-25.639 E11.21014 F2700.000
G1 X-10.372 Y-26.699 E11.24189
G1 X-9.900 Y-27.654 E11.27174
G1 X-9.713 Y-27.974 E11.28213
G1 X-9.049 Y-28.936 E11.31489
G1 X-8.827 Y-29.211 E11.32481
G1 X-8.043 Y-30.048 E11.35693
G1 X-7.557 Y-30.483 E11.37523
G1 X-7.087 Y-30.849 E11.39192
G1 X-6.847 Y-31.022 E11.40021
G1 X-6.003 Y-31.550 E11.42813
G1 X-5.308 Y-31.886 E11.44975
G1 X-4.530 Y-32.204 E11.47333
G1 X-3.520 Y-32.527 E11.50302
G1 X-3.058 Y-32.638 E11.51635
G1 X-2.057 Y-32.825 E11.54489
G1 X-1.378 Y-32.907 E11.56405
G1 X-0.773 Y-32.949 E11.58107
G1 X0.172 Y-32.963 E11.60755
G1 X1.231 Y-32.921 E11.63726 F2700.000
G1 X2.057 Y-32.825 E11.66056
G1 X2.691 Y-32.717 E11.67860
G1 X3.520 Y-32.527 E11.70244
G1 X4.276 Y-32.296 E11.72458
G1 X5.309 Y-31.886 E11.75572
G1 X6.051 Y-31.523 E11.77888
G1 X6.847 Y-31.022 E11.80524
G1 X7.557 Y-30.483 E11.83023
G1 X8.044 Y-30.048 E11.84853
G1 X8.827 Y-29.211 E11.88066
G1 X9.049 Y-28.936 E11.89058
G1 X9.713 Y-27.974 E11.92333
G1 X9.900 Y-27.654 E11.93372
G1 X10.372 Y-26.699 E11.96357
G1 X10.770 Y-25.639 E11.99532
G1 X19.259 Y2.381 E12.81591
G1 X19.504 Y3.304 E12.84267
G1 X19.699 Y4.275 E12.87045
G1 X21.370 Y15.682 E13.19357
G1 X21.442 Y16.416 E13.21423
G1 X21.464 Y16.869 E13.22694
G1 X21.476 Y18.213 E13.26463
G1 X21.446 Y19.063 E13.28846
G1 X21.384 Y19.748 E13.30774
G1 X21.316 Y20.252 E13.32200
G1 X21.106 Y21.272 E13.35119
G1 X21.040 Y21.511 E13.35813
G1 X20.491 Y22.930 E13.40077
G1 X20.338 Y23.231 E13.41025
G1 X19.397 Y24.659 E13.45817
G1 X19.262 Y24.821 E13.46408
G1 X17.538 Y26.352 E13.52871
G1 X17.195 Y26.574 E13.54017
G1 X16.431 Y27.007 E13.56477
G1 X3.939 Y33.159 E13.95506
G1 X3.296 Y33.428 E13.97458
G1 X2.296 Y33.750 E14.00405
G1 X1.052 Y33.988 E14.03956
G1 X0.817 Y34.014 E14.04618
G1 X-0.817 Y34.014 E14.09196
G1 X-1.052 Y33.988 E14.09858
G1 X-2.296 Y33.750 E14.13409
G1 X-3.296 Y33.428 E14.16356
G1 X-3.528 Y33.336 E14.17053
G1 X-4.518 Y32.886 E14.20100
G1 X-16.431 Y27.007 E14.57337
G1 X-17.195 Y26.574 E14.59796
G1 X-17.538 Y26.352 E14.60943
G1 X-19.263 Y24.821 E14.67407
G1 X-19.397 Y24.659 E14.67998
G1 X-20.338 Y23.231 E14.72790
G1 X-20.491 Y22.930 E14.73735
G1 X-21.040 Y21.511 E14.77999
G1 X-21.106 Y21.272 E14.78694
G1 X-21.316 Y20.252 E14.81614
G1 X-21.384 Y19.748 E14.83040
G1 X-21.446 Y19.061 E14.84972
G1 X-21.476 Y18.215 E14.87347
G1 X-21.474 Y17.230 E14.90106
G1 X-21.442 Y16.416 E14.92390
G1 X-21.370 Y15.682 E14.94456
G1 X-19.699 Y4.275 E15.26769
G1 X-19.599 Y3.733 E15.28315
G1 X-19.414 Y2.940 E15.30598
G1 X-19.259 Y2.381 E15.32223
G1 X-16.996 Y-5.087 E15.54094
G1 X-16.656 Y-5.047 F2700.000
G1 X-10.447 Y-25.541 E16.14114 F2700.000
G1 X-10.060 Y-26.571 E16.17199
G1 X-9.609 Y-27.484 E16.20053
G1 X-9.422 Y-27.804 E16.21092
G1 X-8.787 Y-28.724 E16.24224
G1 X-8.565 Y-28.999 E16.25216
G1 X-7.809 Y-29.806 E16.28316
G1 X-7.339 Y-30.225 E16.30079
G1 X-6.890 Y-30.575 E16.31675
G1 X-6.650 Y-30.748 E16.32504
G1 X-5.841 Y-31.254 E16.35181
G1 X-5.177 Y-31.576 E16.37247
G1 X-4.415 Y-31.887 E16.39556
G1 X-3.439 Y-32.200 E16.42427
G1 X-2.987 Y-32.308 E16.43729
G1 X-2.014 Y-32.491 E16.46504
G1 X-1.348 Y-32.572 E16.48385
G1 X-0.762 Y-32.612 E16.50031
G1 X0.165 Y-32.626 E16.52629
G1 X1.200 Y-32.585 E16.55534 F2700.000
G1 X2.014 Y-32.491 E16.57830
G1 X2.621 Y-32.387 E16.59555
G1 X3.439 Y-32.200 E16.61907
G1 X4.161 Y-31.979 E16.64024
G1 X5.177 Y-31.576 E16.67088
G1 X5.889 Y-31.228 E16.69309
G1 X6.650 Y-30.748 E16.71830
G1 X7.339 Y-30.225 E16.74256
G1 X7.809 Y-29.806 E16.76020
G1 X8.565 Y-28.999 E16.79120
G1 X8.787 Y-28.723 E16.80112
G1 X9.422 Y-27.804 E16.83243
G1 X9.609 Y-27.484 E16.84282
G1 X10.060 Y-26.571 E16.87136
G1 X10.447 Y-25.541 E16.90220
G1 X18.936 Y2.479 E17.72280
G1 X19.175 Y3.376 E17.74883
G1 X19.365 Y4.324 E17.77593
G1 X21.037 Y15.731 E18.09906
G1 X21.105 Y16.432 E18.11881
G1 X21.128 Y16.885 E18.13152
G1 X21.139 Y18.213 E18.16874
G1 X21.109 Y19.048 E18.19214
G1 X21.050 Y19.703 E18.21058
G1 X20.982 Y20.207 E18.22484
G1 X20.782 Y21.182 E18.25274
G1 X20.715 Y21.421 E18.25969
G1 X20.190 Y22.777 E18.30046
G1 X20.037 Y23.078 E18.30991
G1 X19.138 Y24.443 E18.35573
G1 X19.003 Y24.605 E18.36164
G1 X17.355 Y26.069 E18.42344
G1 X17.012 Y26.291 E18.43487
G1 X16.282 Y26.705 E18.45839
G1 X3.797 Y32.854 E18.84846
G1 X3.172 Y33.114 E18.86743
G1 X2.206 Y33.426 E18.89590
G1 X1.016 Y33.653 E18.92986
G1 X0.781 Y33.678 E18.93647
G1 X-0.781 Y33.678 E18.98025
G1 X-1.016 Y33.653 E18.98687
G1 X-2.206 Y33.426 E19.02082
G1 X-3.172 Y33.114 E19.04929
G1 X-3.404 Y33.023 E19.05627
G1 X-4.368 Y32.584 E19.08597
G1 X-16.282 Y26.705 E19.45834
G1 X-17.012 Y26.291 E19.48185
G1 X-17.355 Y26.069 E19.49329
G1 X-19.003 Y24.605 E19.55509
G1 X-19.138 Y24.443 E19.56100
G1 X-20.038 Y23.078 E19.60683
G1 X-20.190 Y22.778 E19.61625
G1 X-20.715 Y21.421 E19.65703
G1 X-20.781 Y21.182 E19.66398
G1 X-20.982 Y20.207 E19.69189
G1 X-21.050 Y19.703 E19.70615
G1 X-21.109 Y19.046 E19.72462
G1 X-21.139 Y18.215 E19.74795
G1 X-21.137 Y17.231 E19.77552
G1 X-21.105 Y16.433 E19.79791
G1 X-21.037 Y15.731 E19.81767
G1 X-19.365 Y4.324 E20.14079
G1 X-19.270 Y3.806 E20.15558
G1 X-19.089 Y3.028 E20.17794
G1 X-18.936 Y2.479 E20.19393
G1 X-16.674 Y-4.989 E20.41264
G1 X-16.334 Y-4.949 F2700.000
G1 X-10.125 Y-25.443 E21.01284 F2700.000
G1 X-9.748 Y-26.443 E21.04279
G1 X-9.318 Y-27.314 E21.07002
G1 X-9.131 Y-27.634 E21.08041
G1 X-8.525 Y-28.512 E21.11029
G1 X-8.303 Y-28.787 E21.12021
G1 X-7.574 Y-29.564 E21.15008
G1 X-7.122 Y-29.968 E21.16706
G1 X-6.694 Y-30.302 E21.18229
G1 X-6.453 Y-30.474 E21.19058
G1 X-5.679 Y-30.959 E21.21619
G1 X-5.045 Y-31.265 E21.23590
G1 X-4.300 Y-31.570 E21.25848
G1 X-3.357 Y-31.873 E21.28623
G1 X-2.916 Y-31.979 E21.29894
G1 X-1.971 Y-32.157 E21.32590
G1 X-1.317 Y-32.236 E21.34436
G1 X-0.752 Y-32.275 E21.36025
G1 X0.157 Y-32.289 E21.38572
G1 X1.170 Y-32.249 E21.41413 F2700.000
G1 X1.971 Y-32.157 E21.43674
G1 X2.550 Y-32.058 E21.45319
G1 X3.357 Y-31.873 E21.47641
G1 X4.046 Y-31.662 E21.49661
G1 X5.046 Y-31.265 E21.52674
G1 X5.727 Y-30.932 E21.54801
G1 X6.453 Y-30.475 E21.57206
G1 X7.122 Y-29.968 E21.59558
G1 X7.574 Y-29.564 E21.61257
G1 X8.303 Y-28.786 E21.64243
G1 X8.525 Y-28.511 E21.65235
G1 X9.131 Y-27.634 E21.68223
G1 X9.318 Y-27.314 E21.69262
G1 X9.748 Y-26.443 E21.71986
G1 X10.125 Y-25.443 E21.74980
G1 X18.614 Y2.576 E22.57039
G1 X18.846 Y3.449 E22.59570
G1 X19.031 Y4.373 E22.62212
G1 X20.703 Y15.780 E22.94524
G1 X20.769 Y16.449 E22.96409
G1 X20.791 Y16.902 E22.97680
G1 X20.802 Y18.213 E23.01356
G1 X20.773 Y19.032 E23.03652
G1 X20.716 Y19.658 E23.05412
G1 X20.648 Y20.162 E23.06838
G1 X20.457 Y21.092 E23.09500
G1 X20.390 Y21.331 E23.10195
G1 X19.889 Y22.625 E23.14085
G1 X19.737 Y22.925 E23.15028
G1 X18.879 Y24.228 E23.19399
G1 X18.744 Y24.390 E23.19990
G1 X17.171 Y25.787 E23.25887
G1 X16.829 Y26.008 E23.27027
G1 X16.133 Y26.402 E23.29271
G1 X3.655 Y32.548 E23.68257
G1 X3.048 Y32.801 E23.70098
G1 X2.115 Y33.101 E23.72846
G1 X0.980 Y33.318 E23.76086
G1 X0.745 Y33.343 E23.76747
G1 X-0.745 Y33.343 E23.80924
G1 X-0.980 Y33.318 E23.81586
G1 X-2.115 Y33.101 E23.84826
G1 X-3.048 Y32.801 E23.87573
G1 X-3.280 Y32.709 E23.88271
G1 X-4.219 Y32.281 E23.91164
G1 X-16.133 Y26.402 E24.28400
G1 X-16.829 Y26.008 E24.30644
G1 X-17.171 Y25.787 E24.31785
G1 X-18.744 Y24.390 E24.37682
G1 X-18.879 Y24.227 E24.38273
G1 X-19.737 Y22.925 E24.42645
G1 X-19.889 Y22.626 E24.43586
G1 X-20.390 Y21.331 E24.47476
G1 X-20.457 Y21.092 E24.48171
G1 X-20.648 Y20.162 E24.50834
G1 X-20.716 Y19.657 E24.52260
G1 X-20.782 Y18.817 E24.54622
G1 X-20.802 Y18.215 E24.56312
G1 X-20.791 Y16.902 E24.59991
G1 X-20.769 Y16.449 E24.61262
G1 X-20.703 Y15.780 E24.63147
G1 X-19.031 Y4.373 E24.95459
G1 X-18.941 Y3.878 E24.96870
G1 X-18.764 Y3.117 E24.99061
G1 X-18.614 Y2.576 E25.00633
G1 X-16.351 Y-4.891 E25.22503
G1 X-16.011 Y-4.851 F2700.000
G1 X-9.802 Y-25.345 E25.82524 F2700.000
G1 X-9.437 Y-26.315 E25.85428
G1 X-9.027 Y-27.144 E25.88021
G1 X-8.840 Y-27.464 E25.89059
G1 X-8.263 Y-28.299 E25.91904
G1 X-8.041 Y-28.575 E25.92896
G1 X-7.502 Y-29.164 E25.95135
G1 X-6.996 Y-29.633 E25.97069
G1 X-6.257 Y-30.201 E25.99681
G1 X-5.566 Y-30.636 E26.01970
G1 X-4.914 Y-30.955 E26.04003
G1 X-3.932 Y-31.345 E26.06966
G1 X-3.275 Y-31.546 E26.08889
G1 X-2.479 Y-31.728 E26.11179
G1 X-1.928 Y-31.822 E26.12745
G1 X-1.139 Y-31.914 E26.14971
G1 X-0.149 Y-31.952 E26.17748
G1 X0.615 Y-31.942 E26.19890
G1 X1.531 Y-31.873 E26.22466 F2700.000
G1 X2.479 Y-31.728 E26.25153
G1 X3.275 Y-31.546 E26.27443
G1 X3.932 Y-31.345 E26.29366
G1 X4.914 Y-30.955 E26.32329
G1 X5.516 Y-30.663 E26.34205
G1 X6.256 Y-30.201 E26.36650
G1 X6.905 Y-29.710 E26.38929
G1 X7.339 Y-29.322 E26.40562
G1 X8.041 Y-28.574 E26.43436
G1 X8.263 Y-28.299 E26.44428
G1 X8.840 Y-27.464 E26.47272
G1 X9.027 Y-27.144 E26.48311
G1 X9.437 Y-26.315 E26.50904
G1 X9.802 Y-25.345 E26.53808
G1 X18.291 Y2.674 E27.35867
G1 X18.517 Y3.522 E27.38325
G1 X18.698 Y4.422 E27.40899
G1 X20.370 Y15.829 E27.73212
G1 X20.432 Y16.466 E27.75006
G1 X20.454 Y16.919 E27.76277
G1 X20.465 Y18.213 E27.79906
G1 X20.436 Y19.017 E27.82160
G1 X20.382 Y19.612 E27.83835
G1 X20.314 Y20.116 E27.85261
G1 X20.132 Y21.002 E27.87795
G1 X20.066 Y21.241 E27.88490
G1 X19.589 Y22.473 E27.92192
G1 X19.437 Y22.772 E27.93133
G1 X18.620 Y24.012 E27.97295
G1 X18.485 Y24.174 E27.97886
G1 X16.988 Y25.504 E28.03498
G1 X16.647 Y25.724 E28.04636
G1 X15.984 Y26.100 E28.06772
G1 X3.513 Y32.242 E28.45736
G1 X2.924 Y32.487 E28.47523
G1 X2.025 Y32.776 E28.50171
G1 X0.944 Y32.983 E28.53255
G1 X0.709 Y33.008 E28.53916
G1 X-0.709 Y33.008 E28.57892
G1 X-0.944 Y32.983 E28.58554
G1 X-2.025 Y32.776 E28.61638
G1 X-2.924 Y32.487 E28.64286
G1 X-3.156 Y32.396 E28.64984
G1 X-4.070 Y31.979 E28.67800
G1 X-15.984 Y26.100 E29.05036
G1 X-16.647 Y25.724 E29.07172
G1 X-16.988 Y25.504 E29.08310
