; generated by Slic3r 1.2.9 on 2017-06-28 at 10:08:00

; external perimeters extrusion width = 0.40mm
; perimeters extrusion width = 0.48mm
; infill extrusion width = 0.48mm
; solid infill extrusion width = 0.48mm
; top infill extrusion width = 0.48mm

M107
M190 S50 ; set bed temperature
M104 S210 ; set temperature
G28 ; home all axes
G1 Z5 F5000 ; lift nozzle

M109 S210 ; wait for temperature to be reached
G21 ; set units to millimeters
G90 ; use absolute coordinates
M82 ; use absolute distances for extrusion
G92 E0
G1 E-0.57000 F3300.00000
G92 E0
G1 Z1.750 F7800.000
G1 X9.629 Y-7.455 F7800.000
G1 E0.57000 F3300.00000
G1 X14.356 Y-1.350 E1.27214 F540.000
G1 X14.911 Y-0.508 E1.36384
G1 X15.099 Y-0.169 E1.39908
G1 X15.501 Y0.697 E1.48587
G1 X15.781 Y1.437 E1.55781
G1 X16.205 Y3.485 E1.74799
G1 X16.203 Y4.361 E1.82765
G1 X16.157 Y5.050 E1.89043
G1 X16.070 Y5.775 E1.95682
G1 X15.464 Y7.675 E2.13814
G1 X15.156 Y8.296 E2.20116
G1 X14.595 Y9.331 E2.30825
G1 X13.652 Y10.549 E2.44836
G1 X12.467 Y11.507 E2.58686
G1 X4.412 Y16.615 E3.45418
G1 X3.477 Y17.127 E3.55107
G1 X1.334 Y17.803 E3.75542
G1 X-5.234 Y18.696 E4.35813
G1 X-7.289 Y18.654 E4.54504
G1 X-9.401 Y18.277 E4.74017
G1 X-11.127 Y17.717 E4.90508
G1 X-12.433 Y17.085 E5.03705
G1 X-13.588 Y16.371 E5.16057
G1 X-14.024 Y16.019 E5.21149
G1 X-14.759 Y15.379 E5.30009
G1 X-16.101 Y13.773 E5.49042
G1 X-16.705 Y12.757 E5.59787
G1 X-17.101 Y11.980 E5.67718
G1 X-17.209 Y11.729 E5.70202
G1 X-17.743 Y9.310 E5.92730
G1 X-17.832 Y6.252 E6.20550
G1 X-17.501 Y3.982 E6.41404
G1 X-16.979 Y2.803 E6.53129
G1 X-10.593 Y-8.512 E7.71270
G1 X-9.759 Y-9.927 E7.86206
G1 X-9.063 Y-11.001 E7.97844
G1 X-8.388 Y-11.866 E8.07822
G1 X-8.134 Y-12.140 E8.11216
G1 X-6.939 Y-13.334 E8.26577
G1 X-4.737 Y-14.782 E8.50542
G1 X-4.521 Y-14.869 E8.52661
G1 X-3.561 Y-15.173 E8.61819
G1 X-3.011 Y-15.288 E8.66928
G1 X-2.184 Y-15.421 E8.74545
G1 X-1.796 Y-15.473 E8.78105
G1 X-0.292 Y-15.502 E8.91780
G1 X-0.020 Y-15.476 E8.94265
G1 X1.813 Y-15.034 E9.11408 F540.000
G1 X2.718 Y-14.660 E9.20312
G1 X3.816 Y-14.043 E9.31771
G1 X4.637 Y-13.466 E9.40896
G1 X5.010 Y-13.171 E9.45213
G1 X5.880 Y-12.287 E9.56492
G1 X5.983 Y-12.160 E9.57983
G1 X9.592 Y-7.503 E10.11557
G1 E9.54557 F3300.00000
G92 E0
G1 X-8.730 Y9.533 F7800.000
G1 E0.57000 F3300.00000
G1 X-9.389 Y9.910 E0.63902 F540.000
G1 X-9.964 Y9.142 E0.72623
G1 X-9.169 Y8.774 E0.80588
G1 X-7.709 Y9.775 E0.96682
G1 X-7.678 Y9.826 E0.97224
G1 X-6.904 Y10.506 E1.06594
G1 X-7.962 Y10.736 E1.16443
G1 X-8.698 Y9.584 E1.28871
G1 X-8.936 Y10.371 F7800.000
G1 X-9.505 Y10.696 E1.34827 F540.000
G1 X-9.935 Y10.328 E1.39972
G1 X-9.874 Y10.304 E1.40566
G1 X-10.708 Y9.192 E1.53203
G1 X-10.764 Y9.060 E1.54506
G1 X-10.721 Y8.565 E1.59027
G1 X-10.492 Y7.387 E1.69939
G1 X-10.188 Y7.382 E1.72701
G1 X-9.982 Y8.278 E1.81059
G1 X-9.606 Y8.002 E1.85300
G1 X-9.498 Y8.238 E1.87660
G1 X-9.109 Y8.058 E1.91561
G1 X-7.249 Y9.333 E2.12068
G1 X-7.197 Y9.416 E2.12963
G1 X-6.725 Y9.831 E2.18677
G1 X-6.508 Y9.809 E2.20658
G1 X-6.286 Y9.909 E2.22873
G1 X-5.867 Y9.902 E2.26688
G1 X-5.806 Y10.048 E2.28134
G1 X-5.353 Y9.960 E2.32325
G1 X-5.528 Y10.233 E2.35274
G1 X-4.850 Y10.831 E2.43492
G1 X-5.423 Y11.285 E2.50144
G1 X-5.889 Y11.588 E2.55201
G1 X-5.930 Y11.470 E2.56339
G1 X-6.987 Y11.557 E2.65983
G1 X-7.081 Y11.184 E2.69482
G1 X-8.063 Y11.397 E2.78617
G1 X-8.156 Y11.401 E2.79458
G1 X-8.347 Y11.295 E2.81447
G1 X-8.904 Y10.422 E2.90867
G1 X-9.140 Y10.027 F7800.000
G1 X-4.634 Y10.555 F7800.000
G1 X-3.975 Y10.371 E2.97085 F540.000
G1 X-3.715 Y10.278 E2.99595
G1 X-3.226 Y10.201 E3.04095
G1 X-3.090 Y10.134 E3.05481
G1 X-2.995 Y9.915 E3.07651
G1 X-2.817 Y9.617 E3.10811
G1 X-5.355 Y10.802 F7800.000
G1 X-6.801 Y11.018 E3.39002 F540.000
G1 E2.82002 F3300.00000
G92 E0
G1 X-5.436 Y5.333 F7800.000
G1 E0.57000 F3300.00000
G1 X-5.693 Y5.073 E0.60324 F540.000
G1 X-6.425 Y4.593 E0.68287
G1 X-7.006 Y4.087 E0.75289
G1 X-7.276 Y4.056 E0.77760
G1 X-7.276 Y3.855 E0.79590
G1 X-7.294 Y3.792 E0.80186
G1 X-7.234 Y3.267 E0.84990
G1 X-7.261 Y3.018 E0.87263
G1 X-7.258 Y2.662 E0.90501
G1 X-7.235 Y2.451 E0.92432
G1 X-7.116 Y1.965 E0.96983
G1 X-6.861 Y2.388 E1.01479
G1 X-6.265 Y3.248 E1.10988
G1 X-5.723 Y3.975 E1.19236
G1 X-5.572 Y4.226 E1.21898
G1 X-5.256 Y4.833 E1.28120
G1 X-5.137 Y5.010 E1.30066
G1 X-5.396 Y5.289 E1.33525
G1 X-5.534 Y4.981 F7800.000
G1 X-5.712 Y4.668 F7800.000
G1 X-6.705 Y3.602 E1.46773 F540.000
G1 X-6.786 Y3.283 E1.49765
G1 X-6.932 Y2.860 E1.53840
G1 E0.96840 F3300.00000
G92 E0
G1 X0.621 Y7.474 F7800.000
G1 E0.57000 F3300.00000
G1 X0.761 Y6.434 E0.66537 F540.000
G1 X1.203 Y6.217 E0.71014
G1 X1.326 Y6.014 E0.73167
G1 X1.548 Y5.908 E0.75405
G1 X2.033 Y5.143 E0.83643
G1 X2.574 Y4.187 E0.93636
G1 X2.781 Y3.630 E0.99031
G1 X2.999 Y2.764 E1.07152
G1 X2.979 Y2.362 E1.10813
G1 X3.041 Y1.627 E1.17519
G1 X3.008 Y1.235 E1.21102
G1 X2.953 Y0.980 E1.23474
G1 X3.201 Y0.846 E1.26032
G1 X3.339 Y0.986 E1.27825
G1 X3.418 Y1.191 E1.29819
G1 X3.935 Y1.677 E1.36269
G1 X4.049 Y1.832 E1.38021
G1 X4.474 Y2.156 E1.42879
G1 X4.891 Y2.434 E1.47441
G1 X5.808 Y2.743 E1.56235
G1 X6.551 Y3.138 E1.63886
G1 X6.714 Y3.266 E1.65770
G1 X7.142 Y3.350 E1.69736
G1 X7.870 Y3.786 E1.77450
G1 X7.974 Y4.090 E1.80371
G1 X7.959 Y4.285 E1.82155
G1 X7.722 Y4.744 E1.86844
G1 X6.096 Y5.093 E2.01966
G1 X5.390 Y5.096 E2.08386
G1 X5.092 Y5.289 E2.11615
G1 X4.654 Y5.348 E2.15637
G1 X4.459 Y5.463 E2.17686
G1 X4.091 Y5.573 E2.21187
G1 X3.411 Y5.906 E2.28069
G1 X2.609 Y6.765 E2.38751
G1 X1.842 Y7.377 E2.47675
G1 X0.681 Y7.469 E2.58261
G1 E2.01261 F3300.00000
G92 E0
G1 X1.383 Y-2.395 F7800.000
G1 E0.57000 F3300.00000
G1 X1.127 Y-2.230 E0.59769 F540.000
G1 X1.052 Y-2.306 E0.60744
G1 X-0.352 Y-2.378 E0.73523
G1 X-1.058 Y-3.635 E0.86637
G1 X-1.322 Y-3.699 E0.89106
G1 X-1.484 Y-3.962 E0.91915
G1 X-2.246 Y-4.302 E0.99504
G1 X-2.316 Y-4.480 E1.01240
G1 X-2.982 Y-4.969 E1.08747
G1 X-2.789 Y-5.158 E1.11202
G1 X-2.709 Y-5.429 E1.13772
G1 X-2.454 Y-5.800 E1.17864
G1 X-2.470 Y-5.978 E1.19489
G1 X-2.222 Y-6.419 E1.24084
G1 X-1.750 Y-6.838 E1.29834
G1 X-1.427 Y-7.075 E1.33473
G1 X-1.319 Y-7.231 E1.35196
G1 X-1.155 Y-7.258 E1.36710
G1 X-0.916 Y-7.264 E1.38882
G1 X-0.738 Y-7.191 E1.40628
G1 X-0.418 Y-6.965 E1.44187
G1 X-0.073 Y-6.356 E1.50552
G1 X-0.043 Y-5.718 E1.56358
G1 X0.459 Y-5.341 E1.62073
G1 X0.503 Y-5.192 E1.63488
G1 X0.498 Y-4.952 E1.65670
G1 X0.662 Y-4.419 E1.70742
G1 X0.611 Y-4.252 E1.72325
G1 X1.038 Y-3.287 E1.81921
G1 X1.361 Y-2.451 E1.90070
G1 E1.33070 F3300.00000
G92 E0
G1 X1.361 Y8.042 F7800.000
G1 E0.57000 F3300.00000
G1 X0.036 Y8.147 E0.69087 F540.000
G1 X-0.059 Y7.873 E0.71728
G1 X0.108 Y6.561 E0.83749
G1 X0.196 Y6.016 E0.88772
G1 X0.763 Y5.737 E0.94521
G1 X0.888 Y5.530 E0.96714
G1 X1.117 Y5.422 E0.99013
G1 X1.497 Y4.822 E1.05471
G1 X2.006 Y3.922 E1.14868
G1 X2.183 Y3.445 E1.19502
G1 X2.371 Y2.702 E1.26467
G1 X2.353 Y2.352 E1.29656
G1 X2.414 Y1.627 E1.36267
G1 X2.389 Y1.327 E1.39010
G1 X2.296 Y0.896 E1.43015
G1 X2.084 Y0.412 E1.47815
G1 X1.910 Y0.123 E1.50886
G1 X1.571 Y-0.591 E1.58075
G1 X1.420 Y-0.774 E1.60234
G1 X1.337 Y-1.131 E1.63566
G1 X0.778 Y-1.694 E1.70776
G1 X-0.246 Y-1.746 E1.80101
G1 X-0.689 Y-1.702 E1.84153
G1 X-1.470 Y-3.092 E1.98653
G1 X-1.719 Y-3.153 E2.00984
G1 X-1.915 Y-3.470 E2.04372
G1 X-2.735 Y-3.836 E2.12539
G1 X-2.832 Y-4.084 E2.14955
G1 X-3.891 Y-4.861 E2.26897
G1 X-3.680 Y-5.158 E2.30209
G1 X-3.342 Y-5.490 E2.34520
G1 X-3.280 Y-5.701 E2.36516
G1 X-3.097 Y-5.968 E2.39466
G1 X-3.112 Y-6.146 E2.41086
G1 X-3.061 Y-6.202 E2.41775
G1 X-2.731 Y-6.789 E2.47901
G1 X-2.613 Y-6.917 E2.49481
G1 X-2.459 Y-7.034 E2.51245
G1 X-2.148 Y-7.321 E2.55095
G1 X-1.881 Y-7.517 E2.58103
G1 X-1.682 Y-7.805 E2.61283
G1 X-1.213 Y-7.882 E2.65602
G1 X-0.800 Y-7.891 E2.69360
G1 X-0.436 Y-7.742 E2.72938
G1 X0.056 Y-7.395 E2.78414
G1 X0.544 Y-6.534 E2.87407
G1 X0.567 Y-6.041 E2.91898
G1 X0.999 Y-5.716 E2.96813
G1 X1.130 Y-5.276 E3.00992
G1 X1.125 Y-5.039 E3.03147
G1 X1.242 Y-4.659 E3.06761
G1 X1.327 Y-4.455 E3.08773
G1 X1.277 Y-4.292 E3.10328
G1 X1.616 Y-3.527 E3.17936
G1 X2.414 Y-1.460 E3.38081
G1 X2.381 Y-0.987 E3.42388
G1 X2.753 Y-0.498 E3.47976
G1 X3.876 Y0.640 E3.62510
G1 X3.950 Y0.833 E3.64396
G1 X4.373 Y1.219 E3.69598
G1 X4.499 Y1.390 E3.71528
G1 X4.837 Y1.647 E3.75391
G1 X5.169 Y1.868 E3.79020
G1 X6.056 Y2.167 E3.87531
G1 X6.894 Y2.612 E3.96157
G1 X6.982 Y2.682 E3.97178
G1 X7.369 Y2.758 E4.00768
G1 X7.977 Y3.122 E4.07209
G1 X8.031 Y3.124 E4.07705
G1 X8.371 Y3.369 E4.11513
G1 X8.412 Y3.444 E4.12285
G1 X8.608 Y4.009 E4.17727
G1 X8.572 Y4.460 E4.21840
G1 X8.189 Y5.203 E4.29439
G1 X7.953 Y5.333 E4.31885
G1 X6.205 Y5.709 E4.48146
G1 X6.080 Y5.726 E4.49291
G1 X5.573 Y5.723 E4.53906
G1 X5.314 Y5.889 E4.56706
G1 X4.862 Y5.951 E4.60850
G1 X4.711 Y6.040 E4.62443
G1 X4.319 Y6.157 E4.66161
G1 X3.789 Y6.417 E4.71530
G1 X2.999 Y7.264 E4.82066
G1 X2.919 Y7.308 E4.82895
G1 X1.718 Y8.282 E4.96954
G1 X1.367 Y9.284 E5.06613
G1 X1.336 Y9.329 E5.07104
G1 X1.242 Y9.441 E5.08436
G1 X0.373 Y10.144 E5.18599
G1 X-0.078 Y9.640 E5.24746
G1 X1.321 Y8.086 E5.43756
G1 X-0.152 Y8.789 F7800.000
G1 X-0.395 Y8.808 E5.45967 F540.000
G1 X-0.698 Y7.940 E5.54331
G1 X-0.511 Y6.472 E5.67785
G1 X-0.359 Y5.534 E5.76421
G1 X-0.135 Y5.483 E5.78509
G1 X0.324 Y5.257 E5.83160
G1 X0.451 Y5.047 E5.85392
G1 X0.685 Y4.935 E5.87753
G1 X0.961 Y4.501 E5.92431
G1 X1.437 Y3.658 E6.01231
G1 X1.586 Y3.259 E6.05104
G1 X1.742 Y2.640 E6.10912
G1 X1.727 Y2.341 E6.13629
G1 X1.787 Y1.627 E6.20146
G1 X1.769 Y1.418 E6.22048
G1 X1.699 Y1.089 E6.25111
G1 X1.528 Y0.700 E6.28972
G1 X1.359 Y0.419 E6.31961
G1 X1.040 Y-0.253 E6.38724
G1 X0.845 Y-0.490 E6.41509
G1 X0.769 Y-0.817 E6.44564
G1 X0.505 Y-1.082 E6.47965
G1 X-0.230 Y-1.120 E6.54663
G1 X-0.707 Y-1.072 E6.59022
G1 X-1.132 Y-0.552 E6.65128
G1 X-1.278 Y-1.170 E6.70909
G1 X-1.293 Y-1.502 E6.73926
G1 X-1.882 Y-2.550 E6.84855
G1 X-2.116 Y-2.607 E6.87048
G1 X-2.345 Y-2.978 E6.91015
G1 X-3.224 Y-3.370 E6.99761
G1 X-3.348 Y-3.687 E7.02856
G1 X-4.006 Y-4.170 E7.10278
G1 X-4.276 Y-3.963 E7.13371
G1 X-4.461 Y-4.223 E7.16277
G1 X-4.539 Y-4.860 E7.22117
G1 X-4.506 Y-4.952 E7.23001
G1 X-4.487 Y-5.116 E7.24502
G1 X-4.279 Y-5.375 E7.27529
G1 X-4.175 Y-5.548 E7.29359
G1 X-3.896 Y-5.823 E7.32925
G1 X-3.851 Y-5.973 E7.34349
G1 X-3.739 Y-6.137 E7.36155
G1 X-3.753 Y-6.292 E7.37576
G1 X-3.731 Y-6.394 E7.38523
G1 X-3.571 Y-6.570 E7.40686
G1 X-3.240 Y-7.160 E7.46835
G1 X-3.035 Y-7.381 E7.49578
G1 X-2.861 Y-7.513 E7.51566
G1 X-2.546 Y-7.804 E7.55466
G1 X-2.335 Y-7.959 E7.57843
G1 X-2.078 Y-8.330 E7.61947
G1 X-1.847 Y-8.411 E7.64169
G1 X-1.271 Y-8.505 E7.69475
G1 X-0.972 Y-8.512 E7.72197
G1 X-0.883 Y-8.546 E7.73063
G1 X-0.717 Y-8.533 E7.74574
G1 X-0.133 Y-8.294 E7.80313
G1 X0.503 Y-7.844 E7.87395
G1 X0.558 Y-7.777 E7.88183
G1 X1.161 Y-6.713 E7.99309
G1 X1.178 Y-6.364 E8.02484
G1 X1.539 Y-6.092 E8.06599
G1 X1.757 Y-5.360 E8.13542
G1 X1.752 Y-5.126 E8.15670
G1 X1.888 Y-4.734 E8.19444
G1 X2.011 Y-4.552 E8.21445
G1 X1.943 Y-4.331 E8.23544
G1 X2.193 Y-3.766 E8.29165
G1 X2.954 Y-1.796 E8.48364
G1 X3.019 Y-1.759 E8.49044
G1 X3.045 Y-1.530 E8.51139
G1 X3.021 Y-1.178 E8.54346
G1 X3.226 Y-0.908 E8.57432
G1 X4.412 Y0.293 E8.72781
G1 X4.482 Y0.476 E8.74559
G1 X4.717 Y0.697 E8.77488
G1 X4.811 Y0.759 E8.78515
G1 X4.949 Y0.947 E8.80634
G1 X5.200 Y1.138 E8.83502
G1 X5.447 Y1.302 E8.86198
G1 X6.304 Y1.591 E8.94427
G1 X7.129 Y2.030 E9.02921
G1 X7.164 Y2.030 E9.03237
G1 X7.250 Y2.098 E9.04236
G1 X7.597 Y2.166 E9.07449
G1 X8.162 Y2.504 E9.13440
G1 X8.245 Y2.508 E9.14196
G1 X8.850 Y2.944 E9.20977
G1 X8.985 Y3.188 E9.23513
G1 X9.181 Y3.756 E9.28975
G1 X9.245 Y3.884 E9.30272
G1 X9.184 Y4.635 E9.37127
G1 X8.657 Y5.658 E9.47589
G1 X8.175 Y5.925 E9.52601
G1 X6.313 Y6.324 E9.69915
G1 X6.121 Y6.351 E9.71680
G1 X5.755 Y6.349 E9.75011
G1 X5.536 Y6.490 E9.77382
G1 X5.071 Y6.553 E9.81648
G1 X4.963 Y6.616 E9.82785
G1 X4.548 Y6.741 E9.86721
G1 X4.168 Y6.927 E9.90576
G1 X3.388 Y7.762 E10.00965
G1 X3.270 Y7.828 E10.02193
G1 X2.249 Y8.656 E10.14142
G1 X1.930 Y9.567 E10.22927
G1 X1.683 Y9.889 E10.26613
G1 X0.658 Y10.733 E10.38688
G1 X0.412 Y10.860 E10.41204
G1 X0.076 Y10.749 E10.44422
G1 X-0.267 Y10.366 E10.49099
G1 X-0.648 Y10.492 E10.52749
G1 X-0.804 Y10.248 E10.55387
G1 X-0.953 Y10.086 E10.57390
G1 X-1.324 Y9.815 E10.61563
G1 X-0.997 Y9.727 E10.64639
G1 X-0.193 Y8.833 E10.75569
G1 X-0.106 Y8.550 F7800.000
G1 X1.009 Y6.907 F7800.000
G1 X1.590 Y6.747 E10.87198 F540.000
G1 X1.800 Y6.539 E10.92904
G1 X2.062 Y6.341 E10.99232
G1 X2.597 Y5.669 E11.15794
G1 X2.931 Y5.311 F7800.000
G1 X2.539 Y4.919 E11.21172 F540.000
G1 X2.881 Y4.316 E11.27911
G1 X3.873 Y5.308 E11.41551
G1 X4.541 Y5.032 E11.48581
G1 X3.141 Y3.632 E11.67825
G1 X3.332 Y2.878 E11.75387
G1 X5.251 Y4.796 E12.01762
G1 X6.114 Y4.715 F7800.000
G1 X3.381 Y1.982 E12.39332 F540.000
G1 X5.401 Y3.057 F7800.000
G1 X6.902 Y4.558 E12.59967 F540.000
G1 X7.240 Y3.952 E12.66716
G1 X7.581 Y4.293 E12.71402
G1 X2.924 Y0.640 F7800.000
G1 X2.601 Y0.164 E12.76638 F540.000
G1 X2.365 Y-0.143 E12.80160
G1 X1.939 Y-0.844 E12.87618
G1 X1.881 Y-1.002 E12.89149
G1 X1.850 Y-1.375 E12.92547
G1 X1.425 Y-2.050 E12.99804
G1 X0.570 Y-3.249 F7800.000
G1 X-2.070 Y-5.889 E13.37430 F540.000
G1 X-2.403 Y-5.242 E13.44759
G1 X-1.710 Y-4.549 E13.54637
G1 X0.148 Y-4.651 F7800.000
G1 X-1.675 Y-6.473 E13.80610 F540.000
G1 X-1.038 Y-6.816 E13.87898
G1 X-0.636 Y-6.414 E13.93622
G1 X-0.190 Y-3.029 F7800.000
G1 X0.099 Y-2.741 E13.97739 F540.000
M106 S255
G1 E13.40739 F3300.00000
G92 E0
G1 Z2.050 F7800.000
G1 X-0.683 Y-0.277 F7800.000
G1 E0.57000 F3300.00000
M106 S255
G1 X-0.065 Y-0.409 E0.60298 F900.000
G1 X0.325 Y-0.296 E0.62420
M106 S255
G1 X0.629 Y-0.209 E0.64071 F540.000
G1 X1.115 Y0.186 E0.67344
G1 X1.409 Y0.572 E0.69882
G1 X1.601 Y0.916 E0.71937
G1 X1.715 Y1.207 E0.73568
G1 X1.810 Y1.573 E0.75547
G1 X1.858 Y1.999 E0.77783
G1 X1.816 Y2.524 E0.80538
G1 X1.693 Y3.098 E0.83603
G1 X1.401 Y3.852 E0.87825
G1 X1.026 Y4.452 E0.91524
G1 X0.556 Y4.829 E0.94670
G1 X0.184 Y4.993 E0.96799
G1 X-0.223 Y5.073 E0.98961
G1 X-0.697 Y5.074 E1.01438
G1 X-0.915 Y5.326 E1.03179
M106 S255
G1 X-1.539 Y5.941 E1.07755 F900.000
G1 X-1.727 Y6.183 E1.09355
G1 X-2.076 Y6.526 E1.11913
G1 X-2.655 Y6.747 E1.15149
G1 X-3.097 Y6.782 E1.17469
G1 X-3.470 Y6.719 E1.19442
G1 X-3.799 Y6.599 E1.21273
G1 X-4.191 Y6.357 E1.23679
G1 X-4.604 Y5.989 E1.26568
G1 X-4.933 Y5.600 E1.29233
M106 S255
G1 X-5.079 Y5.428 E1.30408 F540.000
G1 X-5.228 Y5.202 E1.31826
G1 X-5.452 Y4.761 E1.34407
G1 X-5.522 Y4.578 E1.35432
G1 X-6.479 Y3.286 E1.43835
G1 X-6.977 Y2.471 E1.48821
G1 X-7.129 Y2.153 E1.50663
G1 X-7.281 Y1.723 E1.53044
G1 X-7.358 Y1.309 E1.55244
G1 X-7.334 Y1.112 E1.56285
M106 S255
G1 X-7.263 Y0.514 E1.59430 F900.000
G1 X-6.898 Y-0.290 E1.64039
G1 X-6.634 Y-0.646 E1.66358
G1 X-6.254 Y-1.103 E1.69464
G1 X-5.541 Y-1.845 E1.74839
G1 X-4.795 Y-2.344 E1.79527
G1 X-3.839 Y-2.660 E1.84789
G1 X-3.079 Y-2.636 E1.88763
G1 X-2.711 Y-2.524 E1.90769
M106 S255
G1 X-2.532 Y-2.469 E1.91751 F540.000
G1 X-2.217 Y-2.312 E1.93586
G1 X-1.889 Y-2.098 E1.95633
G1 X-1.436 Y-1.668 E1.98899
G1 X-0.838 Y-0.661 E2.05013
G1 X-0.705 Y-0.333 E2.06865
G1 X-0.950 Y0.273 F7800.000
M106 S255
G1 X-0.715 Y0.158 E2.08233 F900.000
G1 X-0.080 Y0.023 E2.11621
G1 X0.431 Y0.170 E2.14401
G1 X0.751 Y0.430 E2.16554
M106 S255
G1 X0.812 Y0.480 E2.16967 F540.000
G1 X1.058 Y0.803 E2.19089
G1 X1.221 Y1.095 E2.20837
G1 X1.315 Y1.336 E2.22188
G1 X1.397 Y1.650 E2.23883
G1 X1.437 Y2.006 E2.25754
G1 X1.401 Y2.464 E2.28154
G1 X1.290 Y2.978 E2.30901
G1 X1.025 Y3.664 E2.34743
G1 X0.709 Y4.170 E2.37862
G1 X0.328 Y4.472 E2.40401
M106 S255
