; generated by Slic3r 1.2.9 on 2016-11-06 at 16:42:14

; external perimeters extrusion width = 2.50mm
; perimeters extrusion width = 2.50mm
; infill extrusion width = 2.50mm
; solid infill extrusion width = 2.50mm
; top infill extrusion width = 2.50mm

G28 ; home all axes
T1;
M150;


G21 ; set units to millimeters
G90 ; use absolute coordinates
M82 ; use absolute distances for extrusion
G92 E0
G1 Z1.200 F1200.000
G1 X-6.071 Y-7.486 F1200.000
G1 X-5.498 Y-7.950 E1.61765 F1200.000
G1 X-4.542 Y-8.518 E4.05715
G1 X-3.793 Y-8.892 E5.89268
G1 X-3.418 Y-9.044 E6.78034
G1 X-2.787 Y-9.250 E8.23439
G1 X-2.045 Y-9.440 E9.91445
G1 X-1.020 Y-9.605 E12.19111
G1 X-0.059 Y-9.664 E14.30153
G1 X0.499 Y-9.646 E15.52577
G1 X1.574 Y-9.535 E17.89683 F1200.000
G1 X2.659 Y-9.288 E20.33590
G1 X3.564 Y-8.984 E22.42862
G1 X4.145 Y-8.731 E23.82046
G1 X5.123 Y-8.186 E26.27446
G1 X6.040 Y-7.530 E28.74655
G1 X6.410 Y-7.233 E29.78801
G1 X6.839 Y-6.825 E31.08528
G1 X6.978 Y-6.689 E31.51233
G1 X7.467 Y-6.118 E33.16077
G1 X7.951 Y-5.494 E34.89131
G1 X8.393 Y-4.788 E36.71860
G1 X8.803 Y-3.984 E38.69689
G1 X9.038 Y-3.403 E40.07112
G1 X9.268 Y-2.734 E41.62312
G1 X9.457 Y-1.964 E43.36309
G1 X9.623 Y-0.862 E45.80480
G1 X9.669 Y-0.168 E47.33138
G1 X9.619 Y0.950 E49.78514
G1 X9.490 Y1.808 E51.68829
G1 X9.263 Y2.757 E53.82789
G1 X8.923 Y3.698 E56.02099
G1 X8.593 Y4.432 E57.78645
G1 X8.321 Y4.926 E59.02274
G1 X7.879 Y5.598 E60.78609
G1 X7.216 Y6.427 E63.11274
G1 X6.666 Y6.998 E64.85235
G1 X6.221 Y7.382 E66.14120
G1 X5.528 Y7.933 E68.08205
G1 X4.935 Y8.314 E69.62836
G1 X4.489 Y8.563 E70.74819
G1 X3.744 Y8.905 E72.54669
G1 X2.963 Y9.191 E74.36810
G1 X1.715 Y9.516 E77.19624
G1 X1.013 Y9.613 E78.75100
G1 X0.145 Y9.667 E80.65765
G1 X-1.170 Y9.598 E83.54635
G1 X-2.031 Y9.449 E85.46297
G1 X-3.004 Y9.182 E87.67507
G1 X-3.657 Y8.949 E89.19357
G1 X-4.375 Y8.611 E90.93594
G1 X-5.234 Y8.113 E93.11237
G1 X-5.738 Y7.757 E94.46537
G1 X-6.613 Y7.051 E96.93044
G1 X-7.392 Y6.226 E99.41766
G1 X-7.573 Y6.003 E100.04883
G1 X-8.395 Y4.787 E103.26747
G1 X-8.875 Y3.831 E105.61337
G1 X-9.105 Y3.255 E106.97188
G1 X-9.440 Y2.081 E109.65079
G1 X-9.597 Y1.135 E111.75166
G1 X-9.647 Y0.636 E112.85180
G1 X-9.645 Y-0.645 E115.66171
G1 X-9.600 Y-1.062 E116.58175
G1 X-9.449 Y-1.984 E118.62984
G1 X-9.356 Y-2.411 E119.58827
G1 X-9.131 Y-3.151 E121.28405
G1 X-8.808 Y-3.981 E123.23715
G1 X-8.603 Y-4.398 E124.25495
G1 X-8.177 Y-5.152 E126.15452
G1 X-7.726 Y-5.791 E127.86902
G1 X-7.147 Y-6.493 E129.86498
G1 X-6.634 Y-7.030 E131.49351
G1 X-6.304 Y-7.297 E132.42336
G92 E0
G1 X-0.914 Y-8.227 F1200.000
G1 X8.229 Y0.916 E32.68341 F1200.000
G1 X7.486 Y3.828 E40.28055
G1 X-3.824 Y-7.482 E80.70982
G1 X-5.957 Y-5.959 E87.33387
G1 X5.960 Y5.958 E129.93146
G1 X3.831 Y7.484 E136.55329
G1 X-7.488 Y-3.835 E177.01362
G1 X-8.235 Y-0.926 E184.60499
G1 X0.925 Y8.234 E217.34817
G92 E0
G1 X-4.707 Y6.258 F1200.000
G1 X-6.280 Y4.685 E5.62268 F1200.000
G92 E0
G1 X4.638 Y-6.331 F1200.000
G1 X6.251 Y-4.718 E5.76342 F1200.000
G1 Z2.400 F1200.000
G92 E0
G1 X7.078 Y-5.314 F1200.000
G1 X7.500 Y-4.727 E1.58639 F1200.000
G1 X8.175 Y-3.447 E4.75960
G1 X8.585 Y-2.274 E7.48334
G1 X8.889 Y-0.250 E11.97166
G1 X8.705 Y1.710 E16.28904
G1 X8.540 Y2.478 E18.01191
G1 X7.882 Y4.071 E21.79034
G1 X7.496 Y4.797 E23.59173
G1 X6.427 Y6.127 E27.33623
G1 X5.323 Y7.095 E30.55479
G1 X4.334 Y7.700 E33.09637
G1 X2.982 Y8.371 E36.40566
G1 X1.862 Y8.686 E38.95842
G1 X0.273 Y8.895 E42.47156
G1 X-1.097 Y8.767 E45.48818
G1 X-2.372 Y8.569 E48.31861
G1 X-3.145 Y8.301 E50.11221
G1 X-5.104 Y7.287 E54.94866
G1 X-6.142 Y6.422 E57.91292
G1 X-7.130 Y5.294 E61.20144
G1 X-7.779 Y4.251 E63.89471
G1 X-8.125 Y3.601 E65.50930
G1 X-8.563 Y2.370 E68.37380
G1 X-8.825 Y0.981 E71.47334
G1 X-8.824 Y0.196 E73.19457
G1 X-8.851 Y-0.532 E74.79193
G1 X-8.790 Y-1.172 E76.20257
G1 X-8.708 Y-1.618 E77.19691
G1 X-8.414 Y-2.663 E79.57762
G1 X-8.050 Y-3.777 E82.14610
G1 X-7.846 Y-4.123 E83.02847
G1 X-7.562 Y-4.695 E84.42904
G1 X-7.298 Y-5.000 E85.31112
G1 X-7.184 Y-5.196 E85.80924
G1 X-6.587 Y-5.958 E87.93176
G1 X-5.432 Y-7.043 E91.40672
G1 X-4.655 Y-7.561 E93.45497
G1 X-3.368 Y-8.213 E96.61962
G1 X-2.373 Y-8.549 E98.92141
G1 X-2.001 Y-8.638 E99.75920
G1 X-0.628 Y-8.837 E102.80216
G1 X-0.380 Y-8.872 E103.35206 F1200.000
G1 X0.117 Y-8.853 E104.44145
G1 X1.191 Y-8.772 E106.80342
G1 X2.667 Y-8.424 E110.13000
G1 X3.393 Y-8.175 E111.81170
G1 X3.495 Y-8.112 E112.07564
G1 X3.932 Y-7.957 E113.09081
G1 X4.299 Y-7.774 E113.99007
G1 X5.225 Y-7.149 E116.43985
G1 X5.927 Y-6.612 E118.37736
G1 X6.246 Y-6.308 E119.34494
G1 X6.894 Y-5.551 E121.53028
G92 E0
G1 X8.091 Y-6.635 F1200.000
G1 X8.212 Y-6.502 E0.39521 F1200.000
G1 X8.777 Y-5.715 E2.51923
G1 X9.322 Y-4.762 E4.92604
G1 X9.675 Y-4.008 E6.75308
G1 X9.999 Y-3.111 E8.84414
G1 X10.287 Y-1.962 E11.43981
G1 X10.406 Y-1.189 E13.15616
G1 X10.462 Y-0.536 E14.59210
G1 X10.467 Y0.170 E16.14046
G1 X10.451 Y0.712 E17.32952
G1 X10.335 Y1.668 E19.44125
G1 X10.242 Y2.178 E20.57800
G1 X9.920 Y3.352 E23.24869
G1 X9.578 Y4.232 E25.31812
G1 X9.148 Y5.107 E27.45555
G1 X8.646 Y5.914 E29.53990
G1 X7.967 Y6.796 E31.98176
G1 X7.348 Y7.463 E33.97688
G1 X6.959 Y7.827 E35.14310
G1 X6.398 Y8.294 E36.74359
G1 X5.858 Y8.682 E38.20371
G1 X5.109 Y9.140 E40.12926
G1 X3.994 Y9.685 E42.84880
G1 X3.314 Y9.938 E44.43973
G1 X2.373 Y10.200 E46.58144
G1 X1.608 Y10.349 E48.29097
G1 X0.854 Y10.442 E49.95708
G1 X0.031 Y10.478 E51.76497
G1 X-0.958 Y10.431 E53.93405
G1 X-1.671 Y10.333 E55.51413
G1 X-2.379 Y10.202 E57.09254
G1 X-2.995 Y10.029 E58.49473
G1 X-3.863 Y9.736 E60.50341
G1 X-4.392 Y9.510 E61.76538
G1 X-5.212 Y9.089 E63.78664
G1 X-6.098 Y8.519 E66.09664
G1 X-6.776 Y7.986 E67.98923
G1 X-7.309 Y7.498 E69.57393
G1 X-7.824 Y6.960 E71.20661
G1 X-8.517 Y6.101 E73.62529
G1 X-9.068 Y5.249 E75.85089
G1 X-9.312 Y4.802 E76.96813
G1 X-9.742 Y3.850 E79.25911
G1 X-10.037 Y2.994 E81.24435
G1 X-10.232 Y2.218 E82.99775
G1 X-10.398 Y1.241 E85.17062
G1 X-10.453 Y0.641 E86.49185
G1 X-10.471 Y-0.012 E87.92402
G1 X-10.461 Y-0.431 E88.84466
G1 X-10.400 Y-1.241 E90.62384
G1 X-10.208 Y-2.340 E93.07188
G1 X-10.053 Y-2.939 E94.42850
G1 X-9.838 Y-3.593 E95.93762
G1 X-9.694 Y-3.952 E96.78530
G1 X-9.459 Y-4.501 E98.09513
G1 X-9.092 Y-5.203 E99.83170
G1 X-8.664 Y-5.880 E101.58953
G1 X-8.099 Y-6.641 E103.66724
G1 X-7.353 Y-7.457 E106.09163
G1 X-6.768 Y-7.993 E107.83090
G1 X-6.188 Y-8.448 E109.44755
G1 X-5.684 Y-8.799 E110.79541
G1 X-4.797 Y-9.312 E113.04226
G1 X-4.007 Y-9.675 E114.94827
G1 X-3.454 Y-9.881 E116.24258
G1 X-2.878 Y-10.069 E117.57042
G1 X-2.038 Y-10.273 E119.46631
G1 X-1.395 Y-10.379 E120.89462
G1 X-0.921 Y-10.433 E121.94115
G1 X0.189 Y-10.473 E124.37764
G1 X1.160 Y-10.407 E126.51108
G1 X1.311 Y-10.373 E126.84920 F1200.000
G1 X1.547 Y-10.358 E127.36947
G1 X2.347 Y-10.206 E129.15328
G1 X3.535 Y-9.859 E131.86886
G1 X4.295 Y-9.544 E133.67263
G1 X5.095 Y-9.148 E135.62995
G1 X5.699 Y-8.786 E137.17333
G1 X6.520 Y-8.197 E139.38953
G1 X7.300 Y-7.508 E141.67059
G1 X7.889 Y-6.858 E143.59637
G1 Z2.4 F1200.000
G92 E0
G1 Z2.417 X-10.634 Y-1.237 E2.10815 F1200.000
G1 Z2.434 X-10.485 Y-2.148 E4.13260
G1 Z2.448 X-10.291 Y-2.951 E5.94383
G1 Z2.456 X-10.160 Y-3.361 E6.88723
G1 Z2.465 X-9.992 Y-3.830 E7.97966
G1 Z2.478 X-9.711 Y-4.490 E9.55315
G1 Z2.493 X-9.310 Y-5.268 E11.47306
G1 Z2.505 X-8.974 Y-5.828 E12.90513
G1 Z2.515 X-8.658 Y-6.292 E14.13677
G1 Z2.534 X-8.005 Y-7.103 E16.41820
G1 Z2.552 X-7.283 Y-7.840 E18.68110
G1 Z2.566 X-6.690 Y-8.351 E20.39637
G1 Z2.585 X-5.811 Y-8.990 E22.78119
G1 Z2.593 X-5.454 Y-9.210 E23.69930
G1 Z2.607 X-4.783 Y-9.575 E25.37574
G1 Z2.624 X-3.911 Y-9.961 E27.46605
G1 Z2.640 X-3.061 Y-10.253 E29.43607
G1 Z2.658 X-2.075 Y-10.500 E31.66631
G1 Z2.663 X-1.809 Y-10.549 E32.25763
G1 Z2.678 X-0.968 Y-10.659 E34.11904
G1 Z2.690 X-0.295 Y-10.697 E35.59753
G1 Z2.701 X0.353 Y-10.695 E37.01778
G1 Z2.717 X1.231 Y-10.629 E38.94821
G1 Z2.726 X1.730 Y-10.561 E40.05317
G1 Z2.740 X2.503 Y-10.408 E41.78040
G1 Z2.760 X3.570 Y-10.079 E44.22931
G1 Z2.773 X4.243 Y-9.825 E45.80585
G1 Z2.785 X4.856 Y-9.538 E47.29119
G1 Z2.800 X5.601 Y-9.125 E49.15755
G1 Z2.811 X6.122 Y-8.778 E50.53052
G1 Z2.829 X6.895 Y-8.184 E52.66825
G1 Z2.850 X7.781 Y-7.348 E55.33918
G1 Z2.867 X8.370 Y-6.660 E57.32559
G1 Z2.884 X8.931 Y-5.890 E59.41542
G1 Z2.897 X9.312 Y-5.278 E60.99554
G1 Z2.903 X9.490 Y-4.947 E61.81984
G1 Z2.914 X9.749 Y-4.416 E63.11492
G1 Z2.923 X9.942 Y-3.959 E64.20319
G1 Z2.934 X10.171 Y-3.335 E65.66065
G1 Z2.943 X10.309 Y-2.870 E66.72460
G1 Z2.964 X10.569 Y-1.707 E69.33756
G1 Z2.982 X10.680 Y-0.731 E71.49064
G1 Z2.998 X10.706 Y0.177 E73.48324
G1 Z3.016 X10.638 Y1.154 E75.63123
G1 Z3.034 X10.484 Y2.153 E77.84751
G1 Z3.044 X10.348 Y2.724 E79.13490
G1 Z3.056 X10.169 Y3.334 E80.52976
G1 Z3.077 X9.744 Y4.432 E83.10952
G1 Z3.092 X9.338 Y5.225 E85.06368
G1 Z3.108 X8.873 Y5.977 E87.00276
G1 Z3.125 X8.327 Y6.725 E89.03454
G1 Z3.140 X7.747 Y7.383 E90.95659
G1 Z3.147 X7.470 Y7.668 E91.82772
G1 Z3.158 X7.041 Y8.067 E93.11317
G1 Z3.166 X6.680 Y8.358 E94.12881
G1 Z3.177 X6.180 Y8.739 E95.50805
G1 Z3.189 X5.643 Y9.101 E96.92787
G1 Z3.202 X4.992 Y9.472 E98.57067
G1 Z3.220 X4.105 Y9.884 E100.71631
G1 Z3.239 X3.097 Y10.242 E103.06236
G1 Z3.256 X2.182 Y10.478 E105.13436
G1 Z3.276 X1.080 Y10.649 E107.57932
G1 Z3.296 X-0.052 Y10.703 E110.06303
G1 Z3.317 X-1.221 Y10.637 E112.63116
G1 Z3.329 X-1.903 Y10.533 E114.14401
G1 Z3.345 X-2.774 Y10.333 E116.10380
G1 Z3.363 X-3.720 Y10.033 E118.28059
G1 Z3.369 X-4.065 Y9.903 E119.08949
G1 Z3.392 X-5.207 Y9.357 E121.86529
G1 Z3.406 X-5.900 Y8.935 E123.64291
G1 Z3.418 X-6.410 Y8.570 E125.01821
G1 Z3.428 X-6.863 Y8.215 E126.28133
G1 Z3.450 X-7.746 Y7.382 E128.94367
G1 Z3.465 X-8.306 Y6.758 E130.78146
G1 Z3.481 X-8.853 Y6.018 E132.79912
G1 Z3.489 X-9.087 Y5.662 E133.73262
G1 Z3.506 X-9.569 Y4.806 E135.88676
G1 Z3.527 X-10.025 Y3.741 E138.42823
G1 Z3.542 X-10.297 Y2.921 E140.32203
G1 Z3.556 X-10.471 Y2.185 E141.98025
G1 Z3.566 X-10.583 Y1.595 E143.29842
G1 Z3.584 X-10.687 Y0.643 E145.39820
G1 Z3.600 X-10.701 Y-0.278 E147.41702
G1 Z3.6 F1200.000
G92 E0
G1 Z3.617 X-11.024 Y-1.503 E2.21900 F1200.000
G1 Z3.636 X-10.823 Y-2.557 E4.57214
G1 Z3.654 X-10.540 Y-3.561 E6.85984
G1 Z3.669 X-10.210 Y-4.418 E8.87437
G1 Z3.687 X-9.770 Y-5.328 E11.08970
G1 Z3.709 X-9.096 Y-6.409 E13.88467
G1 Z3.717 X-8.818 Y-6.779 E14.89867
G1 Z3.729 X-8.369 Y-7.323 E16.44449
G1 Z3.748 X-7.591 Y-8.135 E18.91194
G1 Z3.757 X-7.206 Y-8.482 E20.04838
G1 Z3.773 X-6.482 Y-9.040 E22.05159
G1 Z3.790 X-5.615 Y-9.606 E24.32187
G1 Z3.812 X-4.483 Y-10.185 E27.11060
G1 Z3.822 X-3.948 Y-10.396 E28.37210
G1 Z3.840 X-2.941 Y-10.728 E30.69746
G1 Z3.857 X-1.975 Y-10.947 E32.86820
G1 Z3.873 X-1.054 Y-11.078 E34.90777
G1 Z3.883 X-0.480 Y-11.113 E36.16970
G1 Z3.898 X0.354 Y-11.113 E37.99922
G1 Z3.915 X1.383 Y-11.037 E40.26034
G1 Z3.934 X2.446 Y-10.845 E42.63004
G1 Z3.942 X2.882 Y-10.741 E43.61232
G1 Z3.952 X3.486 Y-10.557 E44.99673
G1 Z3.969 X4.418 Y-10.213 E47.17669
G1 Z3.984 X5.174 Y-9.847 E49.01807
G1 Z3.996 X5.787 Y-9.501 E50.56118
G1 Z4.012 X6.585 Y-8.965 E52.66827
G1 Z4.030 X7.359 Y-8.342 E54.84749
G1 Z4.046 X8.061 Y-7.662 E56.99165
G1 Z4.056 X8.450 Y-7.237 E58.25319
G1 Z4.067 X8.854 Y-6.735 E59.66746
G1 Z4.082 X9.340 Y-6.054 E61.50112
G1 Z4.101 X9.892 Y-5.097 E63.92423
G1 Z4.120 X10.346 Y-4.085 E66.35758
G1 Z4.138 X10.678 Y-3.094 E68.64785
G1 Z4.148 X10.843 Y-2.494 E70.01265
G1 Z4.156 X10.927 Y-2.077 E70.94496
G1 Z4.166 X11.030 Y-1.463 E72.31163
G1 Z4.176 X11.087 Y-0.870 E73.61616
G1 Z4.192 X11.128 Y0.003 E75.53393
G1 Z4.197 X11.123 Y0.294 E76.17243
G1 Z4.209 X11.078 Y1.040 E77.80984
G1 Z4.222 X10.981 Y1.796 E79.48223
G1 Z4.238 X10.790 Y2.702 E81.51208
G1 Z4.257 X10.476 Y3.736 E83.88198
G1 Z4.276 X10.052 Y4.775 E86.34330
G1 Z4.296 X9.493 Y5.810 E88.92180
G1 Z4.314 X8.919 Y6.659 E91.16997
G1 Z4.332 X8.243 Y7.465 E93.47742
G1 Z4.345 X7.738 Y7.995 E95.08158
G1 Z4.354 X7.347 Y8.351 E96.24210
G1 Z4.363 X6.944 Y8.690 E97.39684
G1 Z4.378 X6.248 Y9.208 E99.29847
G1 Z4.397 X5.300 Y9.787 E101.73427
G1 Z4.410 X4.592 Y10.138 E103.46746
G1 Z4.435 X3.267 Y10.639 E106.57305
G1 Z4.451 X2.368 Y10.870 E108.60794
G1 Z4.460 X1.818 Y10.979 E109.83691
G1 Z4.468 X1.353 Y11.043 E110.86850
G1 Z4.484 X0.411 Y11.116 E112.93929
G1 Z4.506 X-0.864 Y11.094 E115.73453
G1 Z4.523 X-1.821 Y10.973 E117.85053
G1 Z4.542 X-2.929 Y10.733 E120.33592
G1 Z4.565 X-4.186 Y10.306 E123.24709
G1 Z4.572 X-4.540 Y10.161 E124.08575
G1 Z4.580 X-4.949 Y9.960 E125.08602
G1 Z4.591 X-5.565 Y9.639 E126.60866
G1 Z4.603 X-6.154 Y9.271 E128.13121
G1 Z4.613 X-6.598 Y8.957 E129.32493
G1 Z4.631 X-7.420 Y8.293 E131.64092
G1 Z4.644 X-7.951 Y7.772 E133.27428
G1 Z4.655 X-8.404 Y7.292 E134.72029
G1 Z4.676 X-9.151 Y6.331 E137.38891
G1 Z4.690 X-9.601 Y5.633 E139.21060
G1 Z4.698 X-9.808 Y5.256 E140.15230
G1 Z4.714 X-10.217 Y4.413 E142.20808
G1 Z4.728 X-10.522 Y3.605 E144.10271
G1 Z4.740 X-10.716 Y2.970 E145.55824
G1 Z4.754 X-10.914 Y2.163 E147.37992
G1 Z4.769 X-11.046 Y1.334 E149.22169
G1 Z4.782 X-11.109 Y0.549 E150.94830
G1 Z4.800 X-11.118 Y-0.495 E153.23698
G1 Z4.8 F1200.000
G92 E0
G1 Z4.818 X-11.446 Y-0.985 E2.39436 F1200.000
G1 Z4.832 X-11.344 Y-1.816 E4.23080
G1 Z4.845 X-11.191 Y-2.584 E5.94701
G1 Z4.852 X-11.092 Y-2.991 E6.86578
G1 Z4.864 X-10.877 Y-3.688 E8.46633
G1 Z4.884 X-10.441 Y-4.779 E11.04104
G1 Z4.894 X-10.174 Y-5.340 E12.40361
G1 Z4.913 X-9.579 Y-6.345 E14.96401
G1 Z4.931 X-8.960 Y-7.190 E17.26272
G1 Z4.946 X-8.371 Y-7.863 E19.22398
G1 Z4.953 X-8.081 Y-8.165 E20.14017
G1 Z4.967 X-7.453 Y-8.743 E22.01192
G1 Z4.986 X-6.525 Y-9.454 E24.57578
G1 Z5.005 X-5.590 Y-10.032 E26.98598
G1 Z5.018 X-4.894 Y-10.392 E28.70450
G1 Z5.029 X-4.286 Y-10.657 E30.15864
G1 Z5.037 X-3.838 Y-10.826 E31.20939
G1 Z5.052 X-2.953 Y-11.102 E33.24175
G1 Z5.070 X-1.912 Y-11.327 E35.57686
G1 Z5.086 X-0.938 Y-11.448 E37.72958
G1 Z5.108 X0.347 Y-11.484 E40.54937
G1 Z5.119 X1.007 Y-11.436 E41.99976
G1 Z5.129 X1.636 Y-11.363 E43.38899
G1 Z5.146 X2.635 Y-11.176 E45.61563
G1 Z5.165 X3.751 Y-10.851 E48.16659
G1 Z5.180 X4.584 Y-10.530 E50.12289
G1 Z5.196 X5.424 Y-10.122 E52.17073
G1 Z5.214 X6.382 Y-9.552 E54.61538
G1 Z5.225 X6.909 Y-9.180 E56.02992
G1 Z5.237 X7.468 Y-8.733 E57.59823
G1 Z5.253 X8.189 Y-8.046 E59.78166
G1 Z5.264 X8.637 Y-7.574 E61.21106
G1 Z5.281 X9.284 Y-6.765 E63.48036
G1 Z5.289 X9.547 Y-6.395 E64.47780
G1 Z5.310 X10.181 Y-5.327 E67.20118
G1 Z5.329 X10.661 Y-4.276 E69.73345
G1 Z5.343 X10.947 Y-3.499 E71.54914
G1 Z5.348 X11.044 Y-3.164 E72.31554
G1 Z5.359 X11.197 Y-2.550 E73.70145
G1 Z5.370 X11.336 Y-1.881 E75.20130
G1 Z5.390 X11.464 Y-0.727 E77.74540
G1 Z5.405 X11.489 Y0.210 E79.80218
G1 Z5.421 X11.433 Y1.146 E81.85780
G1 Z5.440 X11.257 Y2.276 E84.36633
G1 Z5.455 X11.042 Y3.168 E86.37755
G1 Z5.470 X10.752 Y4.045 E88.40417
G1 Z5.477 X10.607 Y4.407 E89.25887
G1 Z5.500 X10.011 Y5.648 E92.27614
G1 Z5.515 X9.539 Y6.408 E94.23880
G1 Z5.533 X8.897 Y7.275 E96.60547
G1 Z5.548 X8.262 Y7.981 E98.68621
G1 Z5.566 X7.487 Y8.709 E101.01847
G1 Z5.572 X7.220 Y8.936 E101.78695
G1 Z5.586 X6.527 Y9.450 E103.67789
G1 Z5.604 X5.608 Y10.028 E106.05966
G1 Z5.625 X4.490 Y10.575 E108.78862
G1 Z5.639 X3.709 Y10.869 E110.61870
G1 Z5.646 X3.327 Y10.990 E111.49798
G1 Z5.662 X2.375 Y11.240 E113.65609
G1 Z5.673 X1.703 Y11.362 E115.15331
G1 Z5.679 X1.348 Y11.406 E115.93798
G1 Z5.693 X0.511 Y11.475 E117.77950
G1 Z5.701 X0.063 Y11.487 E118.76279
G1 Z5.711 X-0.584 Y11.479 E120.18187
G1 Z5.718 X-0.991 Y11.446 E121.07680
G1 Z5.739 X-2.210 Y11.268 E123.77815
G1 Z5.749 X-2.840 Y11.130 E125.19282
G1 Z5.759 X-3.371 Y10.982 E126.40124
G1 Z5.773 X-4.165 Y10.704 E128.24548
G1 Z5.789 X-5.080 Y10.307 E130.43342
G1 Z5.809 X-6.140 Y9.709 E133.10236
