; generated by Slic3r 1.2.9 on 2016-11-06 at 16:19:46

; external perimeters extrusion width = 2.50mm
; perimeters extrusion width = 2.50mm
; infill extrusion width = 2.50mm
; solid infill extrusion width = 2.50mm
; top infill extrusion width = 2.50mm

G28 ; home all axes
T1;
M150;


G21 ; set units to millimeters
G90 ; use absolute coordinates
M82 ; use absolute distances for extrusion
G92 E0
G1 Z1.200 F1200.000
G1 X-21.875 Y-18.579 F1200.000
G1 X-19.832 Y-21.166 E7.22776 F1200.000
G1 X-16.682 Y-23.644 E16.01639
G1 X-14.591 Y-25.146 E21.66173
G1 X-12.495 Y-26.199 E26.80651
G1 X-12.198 Y-26.323 E27.51071
G1 X-11.733 Y-26.598 E28.69627
G1 X-5.469 Y-28.514 E43.05912
G1 X-2.834 Y-28.812 E48.87521
G1 X0.743 Y-29.108 E56.74578 F1200.000
G1 X3.628 Y-28.670 E63.14384
G1 X6.045 Y-28.393 E68.47780
G1 X8.526 Y-27.688 E74.13401
G1 X11.803 Y-26.502 E81.77508
G1 X13.728 Y-25.632 E86.40787
G1 X14.160 Y-25.341 E87.54863
G1 X15.586 Y-24.475 E91.20892
G1 X18.557 Y-22.399 E99.15564
G1 X19.093 Y-21.909 E100.74857
G1 X24.263 Y-15.958 E118.03468
G1 X25.453 Y-13.856 E123.33044
G1 X25.920 Y-13.090 E125.29955
G1 X26.674 Y-11.558 E129.04148
G1 X27.279 Y-9.946 E132.81787
G1 X28.163 Y-6.397 E140.83713
G1 X28.509 Y-5.111 E143.75903
G1 X29.088 Y1.223 E157.70493
G1 X28.419 Y6.144 E168.59439
G1 X27.234 Y9.408 E176.20926
G1 X26.062 Y12.966 E184.42382
G1 X24.806 Y15.173 E189.99174
G1 X23.203 Y17.422 E196.04862
G1 X21.319 Y19.764 E202.63958
G1 X18.205 Y22.417 E211.61001
G1 X16.315 Y24.076 E217.12392
G1 X15.405 Y24.700 E219.54274
G1 X12.206 Y26.288 E227.37572
G1 X10.405 Y27.105 E231.71212
G1 X7.878 Y27.872 E237.50370
G1 X4.853 Y28.626 E244.33940
G1 X0.679 Y29.055 E253.54014
G1 X0.512 Y28.986 E253.93520
G1 X-2.638 Y28.669 E260.87925
G1 X-4.497 Y28.669 E264.95404
G1 X-5.200 Y28.701 E266.49702
G1 X-6.785 Y28.408 E270.03286
G1 X-6.994 Y28.173 E270.72116
G1 X-7.471 Y28.045 E271.80454
G1 X-9.841 Y27.285 E277.26246
G1 X-11.310 Y26.790 E280.66153
G1 X-12.731 Y26.119 E284.10724
G1 X-13.898 Y25.501 E287.00239
G1 X-15.239 Y24.699 E290.42914
G1 X-18.870 Y22.001 E300.34852
G1 X-20.989 Y20.057 E306.65453
G1 X-22.920 Y17.708 E313.32171
G1 X-24.154 Y16.131 E317.71258
G1 X-25.486 Y13.685 E323.82068
G1 X-26.673 Y11.588 E329.10502
G1 X-26.994 Y10.653 E331.27261
G1 X-28.079 Y6.849 E339.94709
G1 X-28.765 Y4.275 E345.78643
G1 X-28.901 Y1.001 E352.97197
G1 X-29.158 Y-1.398 E358.26289
G1 X-29.076 Y-2.166 E359.95793
G1 X-28.869 Y-3.106 E362.06883
G1 X-28.787 Y-3.891 E363.79840
G1 X-26.878 Y-11.016 E379.97294
G1 X-25.746 Y-13.542 E386.04203
G1 X-25.046 Y-14.847 E389.29058
G1 X-22.070 Y-18.351 E399.37155
G1 X-26.463 Y-22.487 F1200.000
G1 X-24.023 Y-25.078 E407.17695 F1200.000
G1 X-19.790 Y-28.574 E419.21577
G1 X-16.025 Y-30.771 E428.77307
G1 X-14.570 Y-31.484 E432.32628
G1 X-13.170 Y-32.001 E435.59938
G1 X-12.612 Y-32.311 E437.00047
G1 X-10.564 Y-32.994 E441.73411
G1 X-7.594 Y-33.834 E448.50141
G1 X-3.324 Y-34.491 E457.97400
G1 X-1.686 Y-34.704 E461.59657
G1 X-0.845 Y-34.702 E463.44127
G1 X-0.257 Y-34.656 E464.73416 F1200.000
G1 X2.673 Y-34.573 E471.16096
G1 X3.938 Y-34.517 E473.93859
G1 X4.398 Y-34.407 E474.97523
G1 X6.908 Y-34.011 E480.54798
G1 X7.538 Y-33.843 E481.97814
G1 X9.088 Y-33.491 E485.46323
G1 X10.756 Y-33.037 E489.25257
G1 X16.471 Y-30.543 E502.92646
G1 X17.378 Y-29.960 E505.29058
G1 X18.882 Y-29.187 E508.99938
G1 X19.697 Y-28.352 E511.55832
G1 X23.223 Y-25.837 E521.05441
G1 X23.986 Y-25.040 E523.47456
G1 X27.347 Y-21.371 E534.38532
G1 X28.554 Y-19.781 E538.76346
G1 X30.232 Y-16.972 E545.93827
G1 X31.135 Y-15.362 E549.98464
G1 X32.435 Y-12.176 E557.53205
G1 X33.114 Y-10.452 E561.59514
G1 X33.401 Y-9.560 E563.64926
G1 X33.969 Y-6.824 E569.77593
G1 X34.596 Y-2.419 E579.53292
G1 X34.680 Y-1.493 E581.57235
G1 X34.510 Y3.434 E592.38194
G1 X34.432 Y4.122 E593.90097
G1 X33.842 Y7.866 E602.21167
G1 X32.982 Y10.854 E609.02896
G1 X32.576 Y12.002 E611.70075
G1 X32.106 Y13.143 E614.40600
G1 X31.060 Y15.183 E619.43195
G1 X30.477 Y16.588 E622.76782
G1 X29.853 Y17.661 E625.48955
G1 X28.381 Y20.005 E631.55902
G1 X27.578 Y21.124 E634.58051
G1 X26.866 Y22.033 E637.11132
G1 X25.252 Y23.823 E642.39703
G1 X23.656 Y25.466 E647.41965
G1 X23.154 Y25.898 E648.87183
G1 X20.639 Y27.788 E655.77068
G1 X18.035 Y29.651 E662.79216
G1 X17.687 Y29.919 E663.75476
G1 X16.370 Y30.608 E667.01507
G1 X11.296 Y32.739 E679.08120
G1 X8.502 Y33.705 E685.56425
G1 X5.994 Y34.188 E691.16422
G1 X3.116 Y34.499 E697.51199
G1 X1.507 Y34.652 E701.05553
G1 X0.571 Y34.717 E703.11412
G1 X-0.643 Y34.726 E705.77592
G1 X-4.911 Y34.360 E715.16866
G1 X-7.820 Y33.730 E721.69640
G1 X-10.104 Y33.189 E726.84267
G1 X-11.933 Y32.597 E731.05939
G1 X-15.354 Y31.196 E739.16435
G1 X-17.554 Y29.902 E744.76115
G1 X-19.283 Y28.800 E749.25735
G1 X-21.854 Y27.011 E756.12607
G1 X-22.995 Y25.988 E759.48566
G1 X-24.348 Y24.703 E763.57767
G1 X-25.585 Y23.482 E767.38905
G1 X-25.779 Y23.275 E768.01170
G1 X-27.125 Y21.652 E772.63501
G1 X-28.560 Y19.755 E777.84933
G1 X-28.727 Y19.564 E778.40749
G1 X-29.466 Y18.440 E781.35757
G1 X-30.734 Y16.158 E787.08131
G1 X-31.464 Y14.750 E790.55896
G1 X-33.423 Y9.553 E802.73783
G1 X-34.617 Y2.702 E817.98676
G1 X-34.620 Y1.997 E819.53310
G1 X-34.709 Y-0.986 E826.07797
G1 X-34.707 Y-1.540 E827.29094
G1 X-33.912 Y-7.365 E840.18367
G1 X-33.452 Y-9.447 E844.85965
G1 X-31.417 Y-14.874 E857.56872
G1 X-31.156 Y-15.357 E858.77155
G1 X-30.038 Y-17.261 E863.61335
G1 X-28.493 Y-19.798 E870.12804
G1 X-28.434 Y-19.941 E870.46596
G1 X-28.238 Y-20.229 E871.23028
G1 X-26.829 Y-22.098 E876.36440
G1 X-26.669 Y-22.268 E876.87606
G92 E0
G1 X23.099 Y-23.260 F1200.000
G1 X21.409 Y-24.950 E5.28573 F1200.000
G1 X18.716 Y-24.445 E11.34267
G1 X12.812 Y-30.350 E29.80542
G1 X11.736 Y-28.228 E35.06541
G1 X7.731 Y-32.233 E47.58761
G1 X7.034 Y-29.732 E53.32725
G1 X3.770 Y-32.997 E63.53554
G1 X3.353 Y-30.216 E69.75359
G1 X0.355 Y-33.214 E79.12844
G1 X-0.048 Y-30.420 E85.37048
G1 X-2.821 Y-33.192 E94.03926
G1 X-5.607 Y-32.780 E100.26587
G1 X-2.989 Y-30.163 E108.45090
G1 X-5.791 Y-29.767 E114.70677
G1 X-8.307 Y-32.283 E122.57418
G1 X-10.787 Y-31.566 E128.28279
G1 X-8.239 Y-29.018 E136.24976
G1 X-10.688 Y-28.269 E141.91098
G1 X-13.090 Y-30.671 E149.42408
G1 X-15.334 Y-29.718 E154.81495
G1 X-12.972 Y-27.355 E162.20184
G1 X-15.100 Y-26.285 E167.46728
G1 X-17.370 Y-28.556 E174.56651
G1 X-19.362 Y-27.350 E179.71454
G1 X-16.961 Y-24.949 E187.22299
G1 X-18.765 Y-23.555 E192.26310
G1 X-21.113 Y-25.904 E199.60647
G1 X-22.865 Y-24.458 E204.62822
G1 X-20.554 Y-22.147 E211.85222
G1 X-21.995 Y-20.390 E216.87578
G1 X-24.454 Y-22.850 E224.56682
G1 X-25.988 Y-21.186 E229.56998
G1 X-23.430 Y-18.627 E237.57104
G1 X-24.898 Y-16.898 E242.58668
G1 X-27.333 Y-19.333 E250.20074
G1 X-28.544 Y-17.346 E255.34526
G1 X-26.312 Y-15.114 E262.32384
G1 X-27.376 Y-12.981 E267.59516
G1 X-29.734 Y-15.339 E274.96970
G1 X-30.714 Y-13.122 E280.33019
G1 X-28.308 Y-10.716 E287.85303
G1 X-28.984 Y-8.194 E293.62548
G1 X-31.586 Y-10.796 E301.76160
G1 X-32.342 Y-8.355 E307.41227
G1 X-29.660 Y-5.672 E315.80036
G1 X-30.245 Y-3.059 E321.71939
G1 X-32.789 Y-5.604 E329.67495
G1 X-33.173 Y-2.790 E335.95299
G1 X-30.492 Y-0.109 E344.33783
G1 X-33.244 Y0.337 E350.50193
G1 X-30.235 Y3.345 E359.90897
G1 X-32.889 Y3.889 E365.89803
G1 X-29.593 Y7.186 E376.20551
G1 X-32.216 Y7.760 E382.14264
G1 X-28.332 Y11.644 E394.28512
G1 X-30.545 Y12.628 E399.64008
G1 X-24.298 Y18.875 E419.17285
G1 X-24.935 Y21.436 E425.00698
G1 X-22.311 Y24.060 E433.21198
G1 X-19.161 Y24.012 E440.17591
G1 X-12.612 Y30.562 E460.65538
G1 X-11.613 Y28.362 E465.99534
G1 X-7.821 Y32.155 E477.85310
G1 X-6.853 Y29.925 E483.22700
G1 X-3.779 Y32.999 E492.83806
G1 X-3.501 Y30.079 E499.32307
G1 X-0.282 Y33.298 E509.38883
G1 X0.103 Y30.486 E515.66580
G1 X2.775 Y33.158 E524.02105
G1 X5.668 Y32.854 E530.45354
G1 X3.002 Y30.188 E538.78945
G1 X5.761 Y29.749 E544.96636
G1 X8.386 Y32.374 E553.17381
G1 X10.774 Y31.564 E558.74786
G1 X8.304 Y29.094 E566.47036
G1 X10.740 Y28.333 E572.11396
G1 X13.042 Y30.635 E579.31260
G1 X15.294 Y29.690 E584.71281
G1 X12.928 Y27.323 E592.11257
G1 X15.065 Y26.262 E597.38729
G1 X17.403 Y28.600 E604.69701
G1 X19.267 Y27.266 E609.76431
G1 X17.048 Y25.048 E616.69961
G1 X18.751 Y23.553 E621.70919
G1 X21.107 Y25.910 E629.07734
G1 X22.886 Y24.491 E634.10794
G1 X20.475 Y22.080 E641.64689
G1 X22.202 Y20.609 E646.66200
G1 X24.470 Y22.877 E653.75381
G1 X25.979 Y21.189 E658.76072
G1 X23.627 Y18.837 E666.11461
G1 X24.998 Y17.010 E671.16438
G1 X27.339 Y19.351 E678.48513
G1 X28.572 Y17.387 E683.61342
G1 X26.276 Y15.090 E690.79292
G1 X27.399 Y13.015 E696.00896
G1 X29.655 Y15.271 E703.06234
G1 X30.712 Y13.131 E708.34040
G1 X28.191 Y10.610 E716.22154
G1 X29.017 Y8.238 E721.77476
G1 X31.627 Y10.849 E729.93795
G1 X32.340 Y8.364 E735.65350
G1 X29.822 Y5.846 E743.52641
G1 X30.205 Y3.031 E749.80726
G1 X32.835 Y5.662 E758.03161
G1 X33.138 Y2.766 E764.46735
G1 X30.444 Y0.073 E772.88874
G1 X33.245 Y-0.324 E779.14239
G1 X30.123 Y-3.446 E788.90366
G1 X32.891 Y-3.875 E795.09755
G1 X29.548 Y-7.219 E805.55313
G1 X32.231 Y-7.733 E811.59405
G1 X28.382 Y-11.582 E823.62960
G1 X30.469 Y-12.693 E828.85630
G1 X23.357 Y-19.804 E851.09142
G1 Z2.400 F1200.000
G92 E0
G1 X28.336 Y-24.015 F1200.000
G1 X29.395 Y-22.678 E4.36657 F1200.000
G1 X30.537 Y-21.182 E9.18352
G1 X30.722 Y-20.834 E10.19209
G1 X31.879 Y-19.081 E15.57031
G1 X32.177 Y-18.568 E17.08717
G1 X33.851 Y-15.324 E26.43364
G1 X34.771 Y-13.083 E32.63576
G1 X35.047 Y-12.280 E34.80960
G1 X35.965 Y-9.336 E42.70295
G1 X36.224 Y-8.326 E45.37243
G1 X36.415 Y-7.366 E47.87929
G1 X36.978 Y-3.803 E57.11267
G1 X37.023 Y-2.757 E59.79235
G1 X37.113 Y-1.648 E62.64140
G1 X37.149 Y-0.624 E65.26442
G1 X37.045 Y2.220 E72.54946
G1 X36.957 Y3.654 E76.22881
G1 X36.669 Y6.082 E82.48879
G1 X36.614 Y6.398 E83.30840
G1 X35.976 Y9.277 E90.85852
G1 X35.359 Y11.365 E96.43117
G1 X34.347 Y14.231 E104.21316
G1 X33.147 Y16.814 E111.50352
G1 X32.484 Y18.094 E115.19441
G1 X32.139 Y18.582 E116.72526
G1 X31.096 Y20.302 E121.87302
G1 X30.403 Y21.348 E125.08492
G1 X29.632 Y22.452 E128.53437
G1 X27.930 Y24.496 E135.34310
G1 X27.533 Y24.925 E136.84029
G1 X25.210 Y27.294 E145.33171
G1 X23.189 Y28.985 E152.07887
G1 X21.828 Y30.068 E156.53133
G1 X20.650 Y30.869 E160.17779
G1 X19.225 Y31.802 E164.53799
G1 X17.979 Y32.524 E168.22457
G1 X16.998 Y33.066 E171.09281
G1 X13.876 Y34.469 E179.85739
G1 X13.168 Y34.737 E181.79459
G1 X11.366 Y35.318 E186.64161
G1 X9.699 Y35.799 E191.08327
G1 X8.919 Y35.976 E193.13088
G1 X7.030 Y36.497 E198.14696
G1 X3.748 Y36.985 E206.64082
G1 X2.927 Y37.059 E208.75208
G1 X2.282 Y37.079 E210.40431
G1 X1.360 Y37.150 E212.77020
G1 X-2.970 Y37.061 E223.85753
G1 X-5.192 Y36.790 E229.58776
G1 X-7.844 Y36.343 E236.47305
G1 X-10.549 Y35.611 E243.64731
G1 X-11.444 Y35.350 E246.03396
G1 X-13.697 Y34.568 E252.13977
G1 X-16.460 Y33.341 E259.87805
G1 X-20.122 Y31.179 E270.76398
G1 X-21.612 Y30.198 E275.33231
G1 X-22.098 Y29.844 E276.87066
G1 X-25.415 Y27.135 E287.83407
G1 X-27.794 Y24.613 E296.70955
G1 X-29.159 Y23.010 E302.09997
G1 X-31.024 Y20.328 E310.46212
G1 X-32.219 Y18.511 E316.03072
G1 X-32.946 Y17.209 E319.84766
G1 X-33.703 Y15.669 E324.24045
G1 X-34.231 Y14.458 E327.62369
G1 X-34.772 Y13.048 E331.48892
G1 X-34.986 Y12.360 E333.33384
G1 X-35.465 Y10.972 E337.09142
G1 X-35.687 Y10.241 E339.04879
G1 X-35.809 Y9.715 E340.43149
G1 X-36.084 Y8.936 E342.54604
G1 X-36.701 Y5.692 E350.99952
G1 X-36.859 Y4.719 E353.52267
G1 X-37.103 Y2.059 E360.36082
G1 X-37.101 Y-2.060 E370.90491
G1 X-36.999 Y-3.042 E373.43118
G1 X-36.940 Y-4.040 E375.99223
G1 X-36.867 Y-4.684 E377.65164
G1 X-36.412 Y-7.349 E384.57298
G1 X-35.915 Y-9.588 E390.44354
G1 X-34.817 Y-13.024 E399.67801
G1 X-34.090 Y-14.756 E404.48622
G1 X-32.606 Y-17.837 E413.24208
G1 X-32.077 Y-18.782 E416.01294
G1 X-31.289 Y-20.041 E419.81613
G1 X-29.895 Y-22.096 E426.17135
G1 X-27.519 Y-24.952 E435.68376
G1 X-25.835 Y-26.726 E441.94616
G1 X-22.049 Y-29.929 E454.64066
G1 X-19.897 Y-31.301 E461.17376
G1 X-17.479 Y-32.725 E468.35712
G1 X-16.409 Y-33.271 E471.43411
G1 X-15.351 Y-33.778 E474.43600
G1 X-13.809 Y-34.475 E478.76738
G1 X-13.107 Y-34.742 E480.69203
G1 X-9.330 Y-35.974 E490.86150
G1 X-8.812 Y-36.096 E492.22403
G1 X-3.644 Y-36.994 E505.65264
G1 X-1.247 Y-37.140 E511.79977
G1 X0.503 Y-37.157 E516.27931
G1 X1.284 Y-37.125 E518.28099
G1 X2.401 Y-37.044 E521.14941 F1200.000
G1 X4.549 Y-36.828 E526.67457
G1 X6.761 Y-36.537 E532.38728
G1 X7.025 Y-36.464 E533.08720
G1 X7.985 Y-36.262 E535.59984
G1 X10.180 Y-35.705 E541.39583
G1 X12.606 Y-34.859 E547.97393
G1 X13.681 Y-34.518 E550.86134
G1 X15.910 Y-33.602 E557.03038
G1 X16.872 Y-33.109 E559.79842
G1 X18.793 Y-32.056 E565.40493
G1 X19.753 Y-31.489 E568.25988
G1 X22.635 Y-29.406 E577.36421
G1 X24.946 Y-27.558 E584.93902
G1 X27.135 Y-25.380 E592.84392
G1 X27.621 Y-24.860 E594.66583
G1 X28.142 Y-24.244 E596.73197
G92 E0
G1 X12.829 Y-14.396 F1200.000
G1 X11.613 Y-15.416 E4.42567 F1200.000
G1 X3.857 Y-19.135 F1200.000
G1 X18.273 Y-7.038 E56.89771 F1200.000
G1 X19.217 Y-3.456 E67.22669
G1 X-0.120 Y-19.682 E137.61017
G1 X-3.121 Y-19.411 E146.01273
G1 X19.584 Y-0.358 E228.65562
G1 X19.597 Y2.443 E236.46548
G1 X-5.692 Y-18.777 E328.51162
G1 X-8.131 Y-18.034 E335.62181
G1 X19.129 Y4.840 E434.84201
G1 X18.362 Y6.986 E441.19777
G1 X-10.227 Y-17.003 E545.25777
G1 X-11.988 Y-15.691 E551.38100
G1 X17.642 Y9.172 E659.22826
G1 X16.532 Y11.030 E665.26402
G1 X-13.620 Y-14.270 E775.00985
G1 X-14.959 Y-12.604 E780.97026
G1 X15.238 Y12.735 E890.88014
G1 X13.701 Y14.235 E896.86866
G1 X-16.343 Y-10.975 E1006.22082
G1 X-17.631 Y-9.266 E1012.18795
G1 X12.055 Y15.644 E1120.23723
G1 X10.308 Y16.968 E1126.34872
G1 X-18.400 Y-7.121 E1230.83917
G1 X-19.010 Y-4.843 E1237.41425
G1 X8.210 Y17.998 E1336.48976
G1 X5.872 Y18.825 E1343.40661
G1 X-19.621 Y-2.565 E1436.19157
G1 X-19.624 Y0.221 E1443.96160
G1 X3.265 Y19.428 E1527.27412
G1 X0.012 Y19.488 E1536.34670
G1 X-19.300 Y3.284 E1606.63590
G1 X-18.267 Y6.940 E1617.23011
G1 X-3.592 Y19.255 E1670.64461
G1 X-11.906 Y15.068 F1200.000
G1 X-13.452 Y13.771 E1676.27206 F1200.000
G92 E0
G1 X-7.707 Y35.009 F1200.000
G1 X7.699 Y19.602 E48.43825 F1200.000
G1 X3.428 Y20.658 E58.22056
G1 X-10.254 Y34.341 E101.23713
G1 X-12.691 Y33.562 E106.92309
G1 X0.125 Y20.746 E147.21521
G1 X-2.888 Y20.544 E153.92977
G1 X-14.970 Y32.626 E191.91284
G1 X-17.093 Y31.533 E197.22030
G1 X-5.557 Y19.998 E233.48673
G1 X-7.978 Y19.204 E239.15116
G1 X-19.114 Y30.340 E274.16208
G1 X-21.071 Y29.081 E279.33384
G1 X-10.093 Y18.104 E313.84660
G1 X-11.972 Y16.768 E318.97234
G1 X-22.857 Y27.652 E353.19333
G1 X-24.611 Y26.191 E358.26824
G1 X-13.790 Y15.370 E392.28827
G1 X-15.396 Y13.761 E397.34241
G1 X-26.185 Y24.550 E431.26052
G1 X-27.699 Y22.849 E436.32311
G1 X-16.837 Y11.987 E470.47406
G1 X-18.054 Y9.989 E475.67486
G1 X-29.066 Y21.001 E510.29435
G1 X-30.370 Y19.089 E515.43780
G1 X-19.206 Y7.926 E550.53581
G1 X-19.920 Y5.424 E556.31845
G1 X-31.591 Y17.095 E593.00937
G1 X-32.648 Y14.937 E598.35142
G1 X-20.613 Y2.902 E636.18813
G1 X-20.802 Y-0.124 E642.92851
G1 X-33.552 Y12.626 E683.01209
G1 X-34.346 Y10.204 E688.67672
G1 X-20.620 Y-3.522 E731.83008
G1 X-19.443 Y-7.914 E741.93834
G1 X-34.980 Y7.623 E790.78585
G1 X-35.468 Y4.896 E796.94529
G1 X4.853 Y-35.424 E923.71057
G1 X7.629 Y-34.985 E929.95867
G1 X-7.930 Y-19.426 E978.87451
G1 X-3.527 Y-20.614 E989.01143
G1 X10.201 Y-34.342 E1032.17180
G1 X12.587 Y-33.513 E1037.78779
G1 X0.009 Y-20.935 E1077.33340
G1 X2.822 Y-20.533 E1083.65132
G1 X14.927 Y-32.638 E1121.70912
G1 X17.083 Y-31.579 E1127.04924
G1 X5.492 Y-19.988 E1163.49185
G1 X7.864 Y-19.145 E1169.08884
G1 X19.138 Y-30.419 E1204.53272
