; generated by Slic3r 1.2.9 on 2017-07-11 at 12:03:17

; external perimeters extrusion width = 0.38mm
; perimeters extrusion width = 0.38mm
; infill extrusion width = 0.38mm
; solid infill extrusion width = 0.38mm
; top infill extrusion width = 0.36mm

M107
M190 S50 ; set bed temperature
M104 S210 ; set temperature
G28 ; home all axes
G1 Z5 F5000 ; lift nozzle

M109 S210 ; wait for temperature to be reached
G21 ; set units to millimeters
G90 ; use absolute coordinates
M82 ; use absolute distances for extrusion
G92 E0
G1 E-0.57000 F3300.00000
G92 E0
G1 Z1.400 F2700.000
G1 X9.309 Y4.303 F2700.000
G1 E0.57000 F3300.00000
M204 S1000
G1 X8.713 Y5.592 E0.60980 F600.940
G1 X8.011 Y6.558 E0.64326
G1 X5.631 Y8.763 E0.73418
G1 X5.037 Y9.129 E0.75375
G1 X2.659 Y10.126 E0.82602
G1 X1.291 Y10.346 E0.86484
G1 X0.595 Y10.399 E0.88442
G1 X-2.626 Y10.014 E0.97534
G1 X-3.762 Y9.646 E1.00880
G1 X-6.594 Y8.063 E1.09973
G1 X-7.126 Y7.611 E1.11930
G1 X-8.809 Y5.658 E1.19157
G1 X-9.440 Y4.425 E1.23039
G1 X-9.706 Y3.779 E1.24997
G1 X-10.336 Y0.597 E1.34089
G1 X-10.336 Y-0.597 E1.37435
G1 X-9.706 Y-3.779 E1.46528
G1 X-9.440 Y-4.425 E1.48485
G1 X-8.103 Y-6.629 E1.55712
G1 X-7.126 Y-7.611 E1.59594
G1 X-6.594 Y-8.063 E1.61552
G1 X-3.762 Y-9.645 E1.70643
G1 X-2.627 Y-10.014 E1.73989
G1 X0.595 Y-10.399 E1.83082
G1 X1.291 Y-10.346 E1.85040
G1 X3.801 Y-9.755 E1.92266 F600.940
G1 X5.037 Y-9.129 E1.96150
G1 X5.632 Y-8.763 E1.98108
G1 X8.011 Y-6.558 E2.07200
G1 X8.713 Y-5.592 E2.10546
G1 X10.074 Y-2.648 E2.19638
G1 X10.239 Y-1.969 E2.21595
G1 X10.452 Y0.600 E2.28822
G1 X10.239 Y1.969 E2.32704
G1 X10.074 Y2.648 E2.34661
G1 X9.334 Y4.249 E2.39606
G1 X9.008 Y4.165 F2700.000
G1 X8.440 Y5.394 E2.43403 F600.940
G1 X7.738 Y6.360 E2.46749
G1 X5.455 Y8.476 E2.55474
G1 X4.860 Y8.842 E2.57431
G1 X2.528 Y9.811 E2.64510
G1 X1.266 Y10.010 E2.68091
G1 X0.569 Y10.063 E2.70048
G1 X-2.522 Y9.694 E2.78774
G1 X-3.657 Y9.325 E2.82120
G1 X-6.375 Y7.807 E2.90846
G1 X-6.907 Y7.354 E2.92804
G1 X-8.550 Y5.436 E2.99882
G1 X-9.129 Y4.297 E3.03464
G1 X-9.395 Y3.651 E3.05421
G1 X-9.999 Y0.597 E3.14147
G1 X-9.999 Y-0.597 E3.17493
G1 X-9.395 Y-3.651 E3.26219
G1 X-9.129 Y-4.297 E3.28177
G1 X-7.812 Y-6.452 E3.35255
G1 X-6.907 Y-7.354 E3.38836
G1 X-6.375 Y-7.807 E3.40794
G1 X-3.658 Y-9.325 E3.49518
G1 X-2.522 Y-9.694 E3.52865
G1 X0.569 Y-10.063 E3.61591
G1 X1.265 Y-10.010 E3.63548
G1 X3.722 Y-9.423 E3.70627 F600.940
G1 X4.860 Y-8.842 E3.74210
G1 X5.455 Y-8.476 E3.76167
G1 X7.738 Y-6.360 E3.84892
G1 X8.440 Y-5.394 E3.88238
G1 X9.746 Y-2.568 E3.96964
G1 X9.911 Y-1.890 E3.98921
G1 X10.112 Y0.628 E4.06000
G1 X9.911 Y1.890 E4.09581
G1 X9.746 Y2.568 E4.11538
G1 X9.034 Y4.110 E4.16299
G1 X8.708 Y4.026 F2700.000
G1 X8.167 Y5.196 E4.19913 F600.940
G1 X7.466 Y6.162 E4.23259
G1 X5.278 Y8.189 E4.31617
G1 X4.683 Y8.555 E4.33575
G1 X1.240 Y9.674 E4.43723
G1 X0.544 Y9.727 E4.45680
G1 X-2.418 Y9.373 E4.54039
G1 X-3.553 Y9.004 E4.57385
G1 X-6.157 Y7.550 E4.65744
G1 X-6.689 Y7.098 E4.67702
G1 X-8.817 Y4.168 E4.77849
G1 X-9.083 Y3.523 E4.79807
G1 X-9.662 Y0.597 E4.88166
G1 X-9.662 Y-0.597 E4.91512
G1 X-9.083 Y-3.523 E4.99872
G1 X-8.817 Y-4.168 E5.01829
G1 X-6.689 Y-7.097 E5.11977
G1 X-6.157 Y-7.550 E5.13934
G1 X-3.554 Y-9.004 E5.22292
G1 X-2.418 Y-9.373 E5.25638
G1 X0.543 Y-9.727 E5.33998
G1 X1.240 Y-9.674 E5.35955
G1 X4.683 Y-8.555 E5.46104 F600.940
G1 X5.278 Y-8.189 E5.48062
G1 X7.466 Y-6.162 E5.56420
G1 X8.167 Y-5.196 E5.59767
G1 X9.419 Y-2.489 E5.68126
G1 X9.583 Y-1.810 E5.70083
G1 X9.583 Y1.810 E5.80230
G1 X9.419 Y2.489 E5.82187
G1 X8.733 Y3.971 E5.86766
G1 X8.408 Y3.887 F2700.000
G1 X7.895 Y4.998 E5.90196 F600.940
G1 X7.193 Y5.964 E5.93542
G1 X5.101 Y7.902 E6.01534
G1 X4.506 Y8.268 E6.03491
G1 X1.214 Y9.338 E6.13194
G1 X0.518 Y9.391 E6.15151
G1 X-2.314 Y9.053 E6.23144
G1 X-3.449 Y8.684 E6.26490
G1 X-5.939 Y7.293 E6.34482
G1 X-6.471 Y6.841 E6.36440
G1 X-8.505 Y4.040 E6.46142
G1 X-8.771 Y3.394 E6.48100
G1 X-9.325 Y0.597 E6.56092
G1 X-9.325 Y-0.597 E6.59439
G1 X-8.771 Y-3.394 E6.67431
G1 X-8.505 Y-4.040 E6.69389
G1 X-6.471 Y-6.841 E6.79091
G1 X-5.939 Y-7.293 E6.81048
G1 X-3.449 Y-8.684 E6.89040
G1 X-2.314 Y-9.053 E6.92386
G1 X0.518 Y-9.391 E7.00379
G1 X1.214 Y-9.338 E7.02337
G1 X4.507 Y-8.268 E7.12040 F600.940
G1 X5.101 Y-7.902 E7.13998
G1 X7.193 Y-5.964 E7.21990
G1 X7.895 Y-4.998 E7.25336
G1 X9.091 Y-2.409 E7.33329
G1 X9.256 Y-1.731 E7.35286
G1 X9.256 Y1.731 E7.44988
G1 X9.091 Y2.409 E7.46945
G1 X8.433 Y3.833 E7.51340
G1 X8.108 Y3.748 F2700.000
G1 X7.622 Y4.800 E7.54587 F600.940
G1 X6.920 Y5.766 E7.57933
G1 X4.924 Y7.615 E7.65558
G1 X4.330 Y7.981 E7.67516
G1 X1.188 Y9.001 E7.76773
G1 X0.492 Y9.055 E7.78730
G1 X-2.209 Y8.732 E7.86356
G1 X-3.345 Y8.363 E7.89702
G1 X-5.720 Y7.036 E7.97328
G1 X-6.252 Y6.584 E7.99286
G1 X-8.194 Y3.912 E8.08543
G1 X-8.460 Y3.266 E8.10501
G1 X-8.987 Y0.597 E8.18127
G1 X-8.987 Y-0.597 E8.21473
G1 X-8.460 Y-3.266 E8.29099
G1 X-8.194 Y-3.912 E8.31056
G1 X-6.252 Y-6.584 E8.40314
G1 X-5.720 Y-7.036 E8.42271
G1 X-3.345 Y-8.363 E8.49896
G1 X-2.210 Y-8.732 E8.53242
G1 X0.492 Y-9.055 E8.60869
G1 X1.188 Y-9.002 E8.62826
G1 X4.330 Y-7.981 E8.72085 F600.940
G1 X4.925 Y-7.615 E8.74042
G1 X6.920 Y-5.766 E8.81668
G1 X7.622 Y-4.800 E8.85014
G1 X8.764 Y-2.330 E8.92640
G1 X8.928 Y-1.651 E8.94597
G1 X8.928 Y1.651 E9.03854
G1 X8.764 Y2.330 E9.05811
G1 X8.133 Y3.694 E9.10023
G1 X7.808 Y3.610 F2700.000
G1 X7.349 Y4.602 E9.13086 F600.940
G1 X6.647 Y5.568 E9.16432
G1 X4.748 Y7.328 E9.23691
G1 X4.153 Y7.694 E9.25648
G1 X1.163 Y8.665 E9.34461
G1 X0.466 Y8.719 E9.36418
G1 X-2.105 Y8.412 E9.43677
G1 X-3.241 Y8.043 E9.47024
G1 X-5.502 Y6.780 E9.54283
G1 X-6.034 Y6.327 E9.56240
G1 X-7.882 Y3.784 E9.65053
G1 X-8.148 Y3.138 E9.67010
G1 X-8.650 Y0.597 E9.74270
G1 X-8.650 Y-0.597 E9.77616
G1 X-8.148 Y-3.138 E9.84875
G1 X-7.882 Y-3.784 E9.86833
G1 X-6.034 Y-6.327 E9.95645
G1 X-5.502 Y-6.780 E9.97602
G1 X-3.241 Y-8.042 E10.04861
G1 X-2.106 Y-8.411 E10.08207
G1 X0.466 Y-8.719 E10.15467
G1 X1.162 Y-8.665 E10.17424
G1 X4.153 Y-7.694 E10.26238 F600.940
G1 X4.748 Y-7.328 E10.28195
G1 X6.648 Y-5.567 E10.35454
G1 X7.349 Y-4.602 E10.38800
G1 X8.436 Y-2.251 E10.46059
G1 X8.601 Y-1.572 E10.48016
G1 X8.601 Y1.572 E10.56828
G1 X8.436 Y2.251 E10.58786
G1 X7.833 Y3.555 E10.62814
G1 X7.508 Y3.471 F2700.000
G1 X7.076 Y4.404 E10.65694 F600.940
G1 X6.375 Y5.369 E10.69040
G1 X4.571 Y7.041 E10.75932
G1 X3.976 Y7.407 E10.77890
G1 X1.137 Y8.329 E10.86257
G1 X0.441 Y8.383 E10.88214
G1 X-2.001 Y8.091 E10.95107
G1 X-3.137 Y7.722 E10.98453
G1 X-5.284 Y6.523 E11.05346
G1 X-5.816 Y6.070 E11.07303
G1 X-7.570 Y3.655 E11.15671
G1 X-7.836 Y3.009 E11.17628
G1 X-8.313 Y0.597 E11.24521
G1 X-8.313 Y-0.597 E11.27867
G1 X-7.836 Y-3.009 E11.34760
G1 X-7.570 Y-3.655 E11.36717
G1 X-5.816 Y-6.070 E11.45084
G1 X-5.284 Y-6.523 E11.47042
G1 X-3.137 Y-7.722 E11.53933
G1 X-2.002 Y-8.091 E11.57280
G1 X0.440 Y-8.383 E11.64173
G1 X1.137 Y-8.329 E11.66130
G1 X3.976 Y-7.407 E11.74499 F600.940
G1 X4.571 Y-7.040 E11.76456
G1 X6.375 Y-5.369 E11.83348
G1 X7.077 Y-4.403 E11.86694
G1 X8.108 Y-2.171 E11.93587
G1 X8.273 Y-1.493 E11.95544
G1 X8.273 Y1.493 E12.03911
G1 X8.108 Y2.171 E12.05868
G1 X7.533 Y3.416 E12.09713
G1 E11.52713 F3300.00000
G92 E0
G1 X0.486 Y-1.495 F2700.000
G1 E0.57000 F3300.00000
G1 X0.883 Y-1.250 E0.58307 F600.940
G1 X1.462 Y-0.453 E0.61069
G1 X1.572 Y-0.000 E0.62376
G1 X1.462 Y0.453 E0.63683
G1 X0.883 Y1.250 E0.66445
G1 X0.486 Y1.495 E0.67752
G1 X0.021 Y1.530 E0.69059
G1 X-0.916 Y1.226 E0.71821
G1 X-1.272 Y0.924 E0.73128
G1 X-1.449 Y0.493 E0.74435
G1 X-1.449 Y-0.493 E0.77197
G1 X-1.272 Y-0.924 E0.78504
G1 X-0.916 Y-1.226 E0.79811
G1 X0.021 Y-1.531 E0.82573
G1 X0.426 Y-1.500 E0.83712
G1 X0.662 Y-1.782 F2700.000
G1 X1.116 Y-1.502 E0.85206 F600.940
G1 X1.774 Y-0.597 E0.88341
G1 X1.919 Y-0.000 E0.90064
G1 X1.774 Y0.597 E0.91787
G1 X1.116 Y1.502 E0.94922
G1 X0.593 Y1.825 E0.96645
G1 X-0.020 Y1.872 E0.98368
G1 X-1.084 Y1.526 E1.01504
G1 X-1.552 Y1.128 E1.03227
G1 X-1.786 Y0.559 E1.04950
G1