; generated by Slic3r 1.2.9 on 2017-07-11 at 12:16:52

; external perimeters extrusion width = 0.38mm
; perimeters extrusion width = 0.38mm
; infill extrusion width = 0.38mm
; solid infill extrusion width = 0.38mm
; top infill extrusion width = 0.36mm

; external perimeters extrusion width = 0.38mm
; perimeters extrusion width = 0.38mm
; infill extrusion width = 0.38mm
; solid infill extrusion width = 0.38mm
; top infill extrusion width = 0.36mm

M107
M190 S50 ; set bed temperature
M104 S210 ; set temperature
G28 ; home all axes
G1 Z5 F5000 ; lift nozzle

M109 S210 ; wait for temperature to be reached
G21 ; set units to millimeters
G90 ; use absolute coordinates
M82 ; use absolute distances for extrusion
G92 E0
G1 E-0.57000 F3300.00000
G92 E0
G1 Z0.400 F2700.000
G1 X28.300 Y0.000 F2700.000
G1 E0.57000 F3300.00000
M204 S1000
G1 X28.293 Y1.811 E0.62076 F1601.855
G1 X28.223 Y2.687 E0.64538
G1 X27.730 Y5.839 E0.73481
G1 X27.580 Y6.590 E0.75628
G1 X27.467 Y7.025 E0.76887
G1 X26.477 Y10.101 E0.85943
G1 X26.171 Y10.915 E0.88381
G1 X25.863 Y11.582 E0.90441
G1 X24.566 Y14.126 E0.98445
G1 X24.200 Y14.780 E1.00546
G1 X23.955 Y15.165 E1.01823
G1 X22.058 Y17.790 E1.10902
G1 X21.535 Y18.448 E1.13256
G1 X21.025 Y18.999 E1.15361
G1 X19.001 Y21.024 E1.23387
G1 X18.393 Y21.582 E1.25698
G1 X17.836 Y22.022 E1.27687
G1 X15.486 Y23.732 E1.35834
G1 X14.791 Y24.193 E1.38172
G1 X14.121 Y24.569 E1.40324
G1 X11.575 Y25.866 E1.48334
G1 X10.905 Y26.175 E1.50403
G1 X10.500 Y26.336 E1.51623
G1 X7.385 Y27.359 E1.60813
G1 X6.563 Y27.586 E1.63203
G1 X5.894 Y27.719 E1.65114
G1 X3.020 Y28.176 E1.73271
G1 X2.151 Y28.274 E1.75724
G1 X1.429 Y28.302 E1.77749
G1 X-1.429 Y28.302 E1.85757
G1 X-2.195 Y28.271 E1.87907
G1 X-3.024 Y28.176 E1.90247
G1 X-5.844 Y27.729 E1.98249
G1 X-6.579 Y27.582 E2.00349
G1 X-7.330 Y27.375 E2.02533
G1 X-10.102 Y26.476 E2.10701
G1 X-10.801 Y26.219 E2.12788
G1 X-11.573 Y25.867 E2.15168
G1 X-14.123 Y24.568 E2.23189
G1 X-14.757 Y24.214 E2.25223
G1 X-15.484 Y23.734 E2.27664
G1 X-17.835 Y22.023 E2.35813
G1 X-18.360 Y21.610 E2.37685
G1 X-18.962 Y21.060 E2.39972
G1 X-21.285 Y18.729 E2.49196
G1 X-21.590 Y18.383 E2.50489
G1 X-22.060 Y17.788 E2.52613
G1 X-23.768 Y15.433 E2.60768
G1 X-24.155 Y14.853 E2.62721
G1 X-24.571 Y14.117 E2.65090
G1 X-26.048 Y11.197 E2.74263
G1 X-26.226 Y10.783 E2.75527
G1 X-26.459 Y10.150 E2.77415
G1 X-27.372 Y7.338 E2.85705
G1 X-27.566 Y6.649 E2.87711
G1 X-27.732 Y5.827 E2.90059
G1 X-28.184 Y2.956 E2.98205
G1 X-28.266 Y2.267 E3.00152
G1 X-28.295 Y1.760 E3.01573
G1 X-28.292 Y-1.848 E3.11687
G1 X-28.233 Y-2.599 E3.13798
G1 X-28.177 Y-3.013 E3.14968
G1 X-27.730 Y-5.838 E3.22985
G1 X-27.566 Y-6.649 E3.25304
G1 X-27.357 Y-7.392 E3.27468
G1 X-26.351 Y-10.461 E3.36519
G1 X-26.186 Y-10.879 E3.37779
G1 X-25.887 Y-11.530 E3.39788
G1 X-24.544 Y-14.166 E3.48080
G1 X-24.155 Y-14.853 E3.50292
G1 X-23.737 Y-15.478 E3.52400
G1 X-22.058 Y-17.790 E3.60407
G1 X-21.525 Y-18.460 E3.62809
G1 X-21.060 Y-18.963 E3.64728
G1 X-19.010 Y-21.016 E3.72860
G1 X-18.359 Y-21.610 E3.75329
G1 X-17.830 Y-22.027 E3.77217
G1 X-15.489 Y-23.730 E3.85332
G1 X-14.757 Y-24.214 E3.87791
G1 X-14.160 Y-24.547 E3.89707
G1 X-11.574 Y-25.866 E3.97844
G1 X-10.890 Y-26.182 E3.99955
G1 X-10.109 Y-26.474 E4.02291
G1 X-7.388 Y-27.358 E4.10311
G1 X-6.673 Y-27.560 E4.12393
G1 X-5.888 Y-27.720 E4.14640
G1 X-2.963 Y-28.183 E4.22939
G1 X-2.294 Y-28.263 E4.24828
G1 X-1.485 Y-28.300 E4.27099
G1 X1.755 Y-28.296 E4.36179
G1 X2.255 Y-28.267 E4.37582 F1601.855
G1 X2.965 Y-28.183 E4.39587
G1 X5.882 Y-27.721 E4.47865
G1 X6.662 Y-27.563 E4.50094
G1 X7.390 Y-27.358 E4.52214
G1 X10.108 Y-26.474 E4.60225
G1 X10.812 Y-26.214 E4.62328
G1 X11.579 Y-25.865 E4.64691
G1 X14.112 Y-24.574 E4.72661
G1 X14.791 Y-24.193 E4.74841
G1 X15.453 Y-23.755 E4.77066
G1 X17.828 Y-22.028 E4.85298
G1 X18.393 Y-21.582 E4.87316
G1 X18.768 Y-21.248 E4.88721
G1 X21.251 Y-18.764 E4.98566
G1 X21.598 Y-18.374 E5.00030
G1 X22.056 Y-17.792 E5.02106
G1 X23.739 Y-15.476 E5.10130
G1 X24.149 Y-14.863 E5.12197
G1 X24.567 Y-14.125 E5.14573
G1 X25.867 Y-11.574 E5.22599
G1 X26.171 Y-10.915 E5.24632
G1 X26.336 Y-10.501 E5.25882
G1 X27.358 Y-7.388 E5.35066
G1 X27.555 Y-6.691 E5.37095
G1 X27.672 Y-6.163 E5.38611
G1 X28.233 Y-2.603 E5.48714
G1 X28.293 Y-1.810 E5.50941
G1 X28.300 Y-0.060 E5.55847
G1 X27.963 Y0.000 F2700.000
G1 X27.957 Y1.798 E5.60886 F1601.855
G1 X27.888 Y2.647 E5.63274
G1 X27.397 Y5.786 E5.72180
G1 X27.252 Y6.511 E5.74250
G1 X27.143 Y6.934 E5.75475
G1 X26.156 Y9.997 E5.84494
G1 X25.860 Y10.786 E5.86856
G1 X25.563 Y11.429 E5.88843
G1 X24.266 Y13.973 E5.96847
G1 X23.912 Y14.604 E5.98873
G1 X23.674 Y14.978 E6.00114
G1 X21.785 Y17.592 E6.09156
G1 X21.278 Y18.229 E6.11437
G1 X20.787 Y18.761 E6.13467
G1 X18.762 Y20.786 E6.21493
G1 X18.174 Y21.326 E6.23731
G1 X17.638 Y21.749 E6.25645
G1 X15.288 Y23.460 E6.33792
G1 X14.614 Y23.906 E6.36057
G1 X13.968 Y24.269 E6.38133
G1 X11.422 Y25.566 E6.46143
G1 X10.776 Y25.864 E6.48138
G1 X10.384 Y26.020 E6.49321
G1 X7.281 Y27.038 E6.58473
G1 X6.485 Y27.258 E6.60789
G1 X5.841 Y27.386 E6.62627
G1 X2.968 Y27.843 E6.70783
G1 X2.125 Y27.938 E6.73160
G1 X1.429 Y27.965 E6.75113
G1 X-1.429 Y27.965 E6.83121
G1 X-2.168 Y27.935 E6.85194
G1 X-2.972 Y27.843 E6.87462
G1 X-5.791 Y27.396 E6.95464
G1 X-6.500 Y27.255 E6.97490
G1 X-7.226 Y27.054 E6.99600
G1 X-9.998 Y26.155 E7.07769
G1 X-10.672 Y25.907 E7.09781
G1 X-11.420 Y25.567 E7.12086
G1 X-13.970 Y24.267 E7.20107
G1 X-14.581 Y23.926 E7.22069
G1 X-15.285 Y23.461 E7.24433
G1 X-17.636 Y21.751 E7.32582
G1 X-18.141 Y21.353 E7.34383
G1 X-18.724 Y20.822 E7.36594
G1 X-21.037 Y18.500 E7.45780
G1 X-21.334 Y18.164 E7.47037
G1 X-21.787 Y17.590 E7.49086
G1 X-23.495 Y15.235 E7.57241
G1 X-23.867 Y14.677 E7.59120
G1 X-24.271 Y13.965 E7.61415
G1 X-25.742 Y11.056 E7.70551
G1 X-25.914 Y10.655 E7.71775
G1 X-26.138 Y10.046 E7.73592
G1 X-27.052 Y7.233 E7.81881
G1 X-27.238 Y6.571 E7.83811
G1 X-27.399 Y5.775 E7.86087
G1 X-27.851 Y2.904 E7.94233
G1 X-27.929 Y2.240 E7.96105
G1 X-27.959 Y1.747 E7.97490
G1 X-27.955 Y-1.835 E8.07530
G1 X-27.898 Y-2.559 E8.09567
G1 X-27.845 Y-2.960 E8.10700
G1 X-27.397 Y-5.785 E8.18717
G1 X-27.238 Y-6.571 E8.20964
G1 X-27.036 Y-7.288 E8.23051
G1 X-26.035 Y-10.344 E8.32065
G1 X-25.875 Y-10.751 E8.33290
G1 X-25.587 Y-11.377 E8.35223
G1 X-24.243 Y-14.013 E8.43515
G1 X-23.867 Y-14.677 E8.45654
G1 X-23.465 Y-15.280 E8.47687
G1 X-21.786 Y-17.592 E8.55694
G1 X-21.268 Y-18.241 E8.58020
G1 X-20.821 Y-18.724 E8.59866
G1 X-18.771 Y-20.778 E8.67998
G1 X-18.141 Y-21.353 E8.70391
G1 X-17.632 Y-21.754 E8.72207
G1 X-15.291 Y-23.458 E8.80323
G1 X-14.581 Y-23.926 E8.82705
G1 X-14.007 Y-24.247 E8.84549
G1 X-11.421 Y-25.566 E8.92686
G1 X-10.761 Y-25.870 E8.94721
G1 X-10.005 Y-26.153 E8.96984
G1 X-7.284 Y-27.037 E9.05004
G1 X-6.594 Y-27.232 E9.07013
G1 X-5.835 Y-27.387 E9.09185
G1 X-2.911 Y-27.850 E9.17484
G1 X-2.267 Y-27.927 E9.19300
G1 X-1.485 Y-27.963 E9.21496
G1 X1.742 Y-27.959 E9.30538
G1 X2.229 Y-27.930 E9.31906 F1601.855
G1 X2.912 Y-27.850 E9.33835
G1 X5.829 Y-27.388 E9.42113
G1 X6.583 Y-27.235 E9.44269
G1 X7.285 Y-27.037 E9.46314
G1 X10.003 Y-26.154 E9.54324
G1 X10.682 Y-25.903 E9.56353
G1 X11.426 Y-25.564 E9.58643
G1 X13.959 Y-24.274 E9.66612
G1 X14.614 Y-23.906 E9.68716
G1 X15.254 Y-23.482 E9.70869
G1 X17.630 Y-21.755 E9.79100
G1 X18.174 Y-21.326 E9.81042
G1 X18.539 Y-21.001 E9.82413
G1 X21.004 Y-18.536 E9.92184
G1 X21.342 Y-18.155 E9.93610
G1 X21.784 Y-17.594 E9.95612
G1 X23.466 Y-15.278 E10.03636
G1 X23.862 Y-14.687 E10.05630
G1 X24.266 Y-13.972 E10.07931
G1 X25.566 Y-11.421 E10.15956
G1 X25.860 Y-10.786 E10.17918
G1 X26.020 Y-10.384 E10.19128
G1 X27.038 Y-7.284 E10.28276
G1 X27.228 Y-6.612 E10.30232
G1 X27.342 Y-6.098 E10.31709
G1 X27.898 Y-2.563 E10.41737
G1 X27.957 Y-1.797 E10.43890
G1 X27.963 Y-0.060 E10.48760
G1 X27.626 Y0.000 F2700.000
G1 X27.620 Y1.785 E10.53762 F1601.855
G1 X27.563 Y2.523 E10.55837
G1 X27.064 Y5.734 E10.64944
G1 X26.925 Y6.431 E10.66938
G1 X26.818 Y6.842 E10.68128
G1 X25.835 Y9.893 E10.77110
G1 X25.549 Y10.656 E10.79395
G1 X25.263 Y11.276 E10.81310
G1 X23.966 Y13.820 E10.89314
G1 X23.625 Y14.428 E10.91266
G1 X23.394 Y14.790 E10.92471
G1 X21.512 Y17.394 E11.01476
G1 X21.022 Y18.010 E11.03682
G1 X20.549 Y18.523 E11.05638
G1 X18.524 Y20.548 E11.13664
G1 X17.954 Y21.070 E11.15830
G1 X17.440 Y21.477 E11.17668
G1 X15.089 Y23.187 E11.25815
G1 X14.438 Y23.619 E11.28007
G1 X13.815 Y23.968 E11.30007
G1 X11.269 Y25.266 E11.38017
G1 X10.647 Y25.553 E11.39938
G1 X10.267 Y25.704 E11.41084
G1 X7.177 Y26.718 E11.50199
G1 X6.406 Y26.931 E11.52439
G1 X5.789 Y27.053 E11.54205
G1 X2.915 Y27.511 E11.62361
G1 X2.099 Y27.602 E11.64661
G1 X1.429 Y27.628 E11.66541
G1 X-1.429 Y27.628 E11.74550
G1 X-2.140 Y27.599 E11.76547
G1 X-2.919 Y27.511 E11.78743
G1 X-5.738 Y27.063 E11.86744
G1 X-6.421 Y26.927 E11.88696
G1 X-7.122 Y26.733 E11.90733
G1 X-9.894 Y25.835 E11.98902
G1 X-10.543 Y25.596 E12.00840
G1 X-11.267 Y25.266 E12.03070
G1 X-13.817 Y23.967 E12.11091
G1 X-14.406 Y23.638 E12.12981
G1 X-15.087 Y23.189 E12.15268
G1 X-17.438 Y21.478 E12.23417
G1 X-17.923 Y21.097 E12.25147
G1 X-18.485 Y20.583 E12.27281
G1 X-20.790 Y18.271 E12.36430
G1 X-21.078 Y17.945 E12.37651
G1 X-21.514 Y17.392 E12.39624
G1 X-23.222 Y15.037 E12.47779
G1 X-23.580 Y14.501 E12.49584
G1 X-23.970 Y13.812 E12.51805
G1 X-25.435 Y10.915 E12.60904
G1 X-25.603 Y10.526 E12.62089
G1 X-25.817 Y9.942 E12.63834
G1 X-26.731 Y7.129 E12.72123
G1 X-26.910 Y6.493 E12.73977
G1 X-27.066 Y5.722 E12.76180
G1 X-27.518 Y2.851 E12.84326
G1 X-27.593 Y2.214 E12.86124
G1 X-27.622 Y1.734 E12.87472
G1 X-27.618 Y-1.822 E12.97438
G1 X-27.563 Y-2.520 E12.99401
G1 X-27.512 Y-2.907 E13.00497
G1 X-27.064 Y-5.732 E13.08514
G1 X-26.910 Y-6.493 E13.10688
G1 X-26.716 Y-7.183 E13.12699
G1 X-25.719 Y-10.227 E13.21677
G1 X-25.563 Y-10.622 E13.22867
G1 X-25.286 Y-11.224 E13.24723
G1 X-23.943 Y-13.860 E13.33015
G1 X-23.580 Y-14.501 E13.35080
G1 X-23.192 Y-15.082 E13.37038
G1 X-21.513 Y-17.394 E13.45046
G1 X-21.012 Y-18.022 E13.47297
G1 X-20.583 Y-18.486 E13.49071
G1 X-18.533 Y-20.539 E13.57203
G1 X-17.923 Y-21.097 E13.59518
G1 X-17.434 Y-21.482 E13.61263
G1 X-15.092 Y-23.185 E13.69378
G1 X-14.406 Y-23.638 E13.71684
G1 X-13.854 Y-23.947 E13.73456
G1 X-11.268 Y-25.266 E13.81593
G1 X-10.633 Y-25.559 E13.83553
G1 X-9.901 Y-25.832 E13.85743
G1 X-7.180 Y-26.717 E13.93762
G1 X-6.515 Y-26.904 E13.95698
G1 X-5.782 Y-27.054 E13.97795
G1 X-2.858 Y-27.517 E14.06094
G1 X-2.240 Y-27.591 E14.07838
G1 X-1.484 Y-27.626 E14.09958
G1 X1.728 Y-27.622 E14.18963
G1 X2.203 Y-27.594 E14.20295 F1601.855
G1 X2.860 Y-27.517 E14.22148
G1 X5.777 Y-27.056 E14.30426
G1 X6.505 Y-26.907 E14.32508
G1 X7.181 Y-26.716 E14.34478
G1 X9.899 Y-25.833 E14.42489
G1 X10.553 Y-25.592 E14.44443
G1 X11.273 Y-25.264 E14.46659
G1 X13.806 Y-23.973 E14.54628
G1 X14.437 Y-23.619 E14.56656
G1 X15.056 Y-23.209 E14.58737
G1 X17.432 Y-21.483 E14.66968
G1 X17.954 Y-21.070 E14.68834
G1 X18.310 Y-20.753 E14.70170
G1 X20.756 Y-18.307 E14.79866
G1 X21.085 Y-17.936 E14.81254
G1 X21.511 Y-17.396 E14.83183
G1 X23.194 Y-15.080 E14.91208
G1 X23.574 Y-14.510 E14.93127
G1 X23.966 Y-13.819 E14.95354
G1 X25.266 Y-11.268 E15.03379
G1 X25.549 Y-10.656 E15.05268
G1 X25.703 Y-10.268 E15.06440
G1 X26.717 Y-7.179 E15.15550
G1 X26.900 Y-6.533 E15.17435
G1 X27.011 Y-6.032 E15.18872
G1 X27.563 Y-2.523 E15.28826
G1 X27.620 Y-1.784 E15.30905
G1 X27.626 Y-0.060 E15.35738
G1 X27.289 Y0.000 F2700.000
G1 X27.283 Y1.771 E15.40702 F1601.855
G1 X27.228 Y2.483 E15.42704
G1 X26.731 Y5.681 E15.51774
G1 X26.597 Y6.352 E15.53692
G1 X26.494 Y6.751 E15.54846
G1 X25.515 Y9.789 E15.63792
G1 X25.238 Y10.526 E15.66000
G1 X24.962 Y11.123 E15.67842
G1 X23.665 Y13.667 E15.75846
G1 X23.338 Y14.251 E15.77724
G1 X23.114 Y14.603 E15.78892
G1 X21.239 Y17.196 E15.87861
G1 X20.766 Y17.792 E15.89993
G1 X20.310 Y18.284 E15.91874
G1 X18.286 Y20.309 E15.99900
G1 X17.735 Y20.814 E16.01994
G1 X17.241 Y21.204 E16.03756
G1 X14.891 Y22.915 E16.11904
G1 X14.261 Y23.332 E16.14023
G1 X13.662 Y23.668 E16.15946
G1 X11.116 Y24.965 E16.23956
G1 X10.517 Y25.242 E16.25804
G1 X10.150 Y25.388 E16.26911
G1 X7.073 Y26.397 E16.35990
G1 X6.328 Y26.603 E16.38155
G1 X5.736 Y26.721 E16.39848
G1 X2.862 Y27.178 E16.48004
G1 X2.074 Y27.266 E16.50227
G1 X1.429 Y27.291 E16.52036
G1 X-1.429 Y27.291 E16.60044
G1 X-2.113 Y27.263 E16.61965
G1 X-2.866 Y27.178 E16.64088
G1 X-5.685 Y26.730 E16.72090
G1 X-6.342 Y26.599 E16.73966
G1 X-7.018 Y26.413 E16.75931
G1 X-9.790 Y25.514 E16.84100
G1 X-10.414 Y25.284 E16.85964
G1 X-11.114 Y24.966 E16.88119
G1 X-13.664 Y23.667 E16.96140
G1 X-14.230 Y23.350 E16.97958
G1 X-14.889 Y22.916 E17.00168
G1 X-17.240 Y21.206 E17.08317
G1 X-17.705 Y20.840 E17.09975
G1 X-18.247 Y20.345 E17.12033
G1 X-20.542 Y18.042 E17.21146
G1 X-20.822 Y17.726 E17.22330
G1 X-21.241 Y17.194 E17.24228
G1 X-22.950 Y14.839 E17.32382
G1 X-23.292 Y14.325 E17.34113
G1 X-23.670 Y13.659 E17.36260
G1 X-24.988 Y11.067 E17.44411
G1 X-25.251 Y10.494 E17.46178
G1 X-25.497 Y9.838 E17.48141
G1 X-26.411 Y7.025 E17.56430
G1 X-26.582 Y6.415 E17.58208
G1 X-26.733 Y5.670 E17.60337
G1 X-27.185 Y2.799 E17.68483
G1 X-27.257 Y2.188 E17.70208
G1 X-27.285 Y1.721 E17.71520
G1 X-27.281 Y-1.809 E17.81411
G1 X-27.229 Y-2.480 E17.83300
G1 X-27.179 Y-2.855 E17.84359
G1 X-26.731 Y-5.680 E17.92376
G1 X-26.582 Y-6.415 E17.94478
G1 X-26.395 Y-7.079 E17.96411
G1 X-25.402 Y-10.111 E18.05353
G1 X-25.251 Y-10.494 E18.06508
G1 X-24.986 Y-11.071 E18.08288
G1 X-23.643 Y-13.707 E18.16580
G1 X-23.292 Y-14.325 E18.18572
G1 X-22.919 Y-14.884 E18.20455
G1 X-21.240 Y-17.195 E18.28462
G1 X-20.756 Y-17.803 E18.30639
G1 X-20.344 Y-18.248 E18.32340
G1 X-18.294 Y-20.301 E18.40472
G1 X-17.704 Y-20.840 E18.42710
G1 X-17.235 Y-21.209 E18.44384
G1 X-14.894 Y-22.912 E18.52499
G1 X-14.230 Y-23.350 E18.54728
G1 X-13.701 Y-23.647 E18.56428
G1 X-11.115 Y-24.966 E18.64565
G1 X-10.504 Y-25.247 E18.66450
G1 X-9.797 Y-25.512 E18.68566
G1 X-7.076 Y-26.396 E18.76585
G1 X-6.436 Y-26.577 E18.78447
G1 X-5.730 Y-26.721 E18.80470
G1 X-2.805 Y-27.185 E18.88768
G1 X-2.213 Y-27.255 E18.90441
G1 X-1.484 Y-27.289 E18.92485
G1 X1.715 Y-27.285 E19.01452
G1 X2.177 Y-27.258 E19.02750 F1601.855
G1 X2.807 Y-27.184 E19.04526
G1 X5.724 Y-26.723 E19.12804
G1 X6.426 Y-26.579 E19.14813
G1 X7.077 Y-26.396 E19.16708
G1 X9.795 Y-25.512 E19.24719
G1 X10.424 Y-25.280 E19.26598
G1 X11.120 Y-24.964 E19.28741
G1 X13.653 Y-23.673 E19.36710
G1 X14.261 Y-23.332 E19.38661
G1 X14.858 Y-22.937 E19.40670
G1 X17.234 Y-21.210 E19.48901
G1 X17.735 Y-20.814 E19.50691
G1 X18.081 Y-20.506 E19.51991
G1 X20.509 Y-18.078 E19.61614
G1 X20.829 Y-17.718 E19.62964
G1 X21.238 Y-17.198 E19.64819
G1 X22.921 Y-14.882 E19.72844
G1 X23.287 Y-14.334 E19.74690
G1 X23.666 Y-13.666 E19.76842
G1 X24.966 Y-11.115 E19.84867
G1 X25.238 Y-10.526 E19.86684
G1 X25.387 Y-10.151 E19.87817
G1 X26.396 Y-7.075 E19.96890
G1 X26.573 Y-6.453 E19.98702
G1 X26.680 Y-5.966 E20.00101
G1 X27.228 Y-2.484 E20.09981
G1 X27.283 Y-1.771 E20.11985
G1 X27.289 Y-0.060 E20.16781
G1 X26.952 Y0.000 F2700.000
G1 X26.946 Y1.758 E20.21708 F1601.855
G1 X26.894 Y2.444 E20.23635
G1 X26.398 Y5.628 E20.32668
G1 X26.269 Y6.273 E20.34510
G1 X26.169 Y6.659 E20.35629
G1 X25.194 Y9.685 E20.44539
G1 X24.927 Y10.397 E20.46670
G1 X24.662 Y10.970 E20.48440
G1 X23.365 Y13.514 E20.56444
G1 X23.050 Y14.075 E20.58246
G1 X22.834 Y14.416 E20.59379
G1 X20.966 Y16.998 E20.68311
G1 X20.509 Y17.573 E20.70369
G1 X20.072 Y18.046 E20.72175
G1 X18.047 Y20.071 E20.80201
G1 X17.515 Y20.558 E20.82222
G1 X17.043 Y20.932 E20.83910
G1 X14.693 Y22.642 E20.92057
G1 X14.084 Y23.045 E20.94103
