; generated by Slic3r 1.2.9 on 2016-11-07 at 11:50:00

; external perimeters extrusion width = 0.38mm
; perimeters extrusion width = 0.38mm
; infill extrusion width = 0.38mm
; solid infill extrusion width = 0.38mm
; top infill extrusion width = 0.38mm

M104 S210 ; set temperature
G28 ; home all axes
G1 Z5 F5000 ; lift nozzle

M109 S210 ; wait for temperature to be reached
G21 ; set units to millimeters
G90 ; use absolute coordinates
M82 ; use absolute distances for extrusion
G92 E0
G1 Z0.250 F2700.000
G1 X-0.013 Y28.359 F2700.000
G1 X-50.013 Y28.336 E1.40141 F2700.000
G1 X-52.560 Y27.937 E1.47368
G1 X-54.865 Y26.781 E1.54595
G1 X-56.708 Y24.978 E1.61821
G1 X-57.913 Y22.699 E1.69048
G1 X-58.369 Y19.973 E1.76794
G1 X-58.350 Y-20.027 E2.88908
G1 X-57.951 Y-22.575 E2.96134
G1 X-56.795 Y-24.879 E3.03361
G1 X-54.992 Y-26.722 E3.10587
G1 X-52.713 Y-27.927 E3.17814
G1 X-49.987 Y-28.383 E3.25560
G1 X-49.516 Y-28.383 E3.26879
G1 X50.013 Y-28.336 E6.05843 F2700.000
G1 X52.560 Y-27.938 E6.13070
G1 X54.865 Y-26.782 E6.20296
G1 X56.708 Y-24.978 E6.27523
G1 X57.913 Y-22.699 E6.34749
G1 X58.369 Y-19.973 E6.42496
G1 X58.350 Y20.027 E7.54609
G1 X57.951 Y22.574 E7.61836
G1 X56.795 Y24.879 E7.69062
G1 X54.992 Y26.722 E7.76289
G1 X52.713 Y27.927 E7.83515
G1 X49.987 Y28.383 E7.91262
G1 X0.047 Y28.359 E9.31235
G1 X0.047 Y28.022 F2700.000
G1 X-50.013 Y27.999 E10.71545 F2700.000
G1 X-52.507 Y27.600 E10.78623
G1 X-54.753 Y26.446 E10.85702
G1 X-56.529 Y24.651 E10.92780
G1 X-57.659 Y22.392 E10.99859
G1 X-58.032 Y19.973 E11.06720
G1 X-58.013 Y-20.027 E12.18833
G1 X-57.614 Y-22.521 E12.25912
G1 X-56.460 Y-24.767 E12.32990
G1 X-54.665 Y-26.543 E12.40069
G1 X-52.406 Y-27.673 E12.47147
G1 X-49.987 Y-28.046 E12.54008
G1 X-49.517 Y-28.046 E12.55327
G1 X50.013 Y-27.999 E15.34291 F2700.000
G1 X52.507 Y-27.601 E15.41370
G1 X54.753 Y-26.446 E15.48448
G1 X56.529 Y-24.651 E15.55527
G1 X57.659 Y-22.393 E15.62605
G1 X58.032 Y-19.973 E15.69466
G1 X58.013 Y20.027 E16.81580
G1 X57.615 Y22.521 E16.88658
G1 X56.460 Y24.767 E16.95737
G1 X54.665 Y26.543 E17.02815
G1 X52.407 Y27.673 E17.09893
G1 X49.987 Y28.046 E17.16755
G1 X0.107 Y28.022 E18.56560
G1 X0.107 Y27.685 F2700.000
G1 X-50.013 Y27.662 E19.97038 F2700.000
G1 X-52.452 Y27.263 E20.03965
G1 X-54.639 Y26.111 E20.10892
G1 X-56.346 Y24.325 E20.17819
G1 X-57.399 Y22.089 E20.24746
G1 X-57.695 Y19.973 E20.30734
G1 X-57.676 Y-20.027 E21.42847
G1 X-57.278 Y-22.466 E21.49774
G1 X-56.125 Y-24.653 E21.56701
G1 X-54.339 Y-26.360 E21.63629
G1 X-52.103 Y-27.413 E21.70556
G1 X-49.987 Y-27.709 E21.76543
G1 X-49.517 Y-27.709 E21.77861
G1 X50.013 Y-27.662 E24.56826 F2700.000
G1 X52.452 Y-27.264 E24.63753
G1 X54.639 Y-26.112 E24.70680
G1 X56.346 Y-24.325 E24.77607
G1 X57.399 Y-22.089 E24.84535
G1 X57.695 Y-19.973 E24.90522
G1 X57.676 Y20.027 E26.02635
G1 X57.278 Y22.466 E26.09562
G1 X56.125 Y24.652 E26.16489
G1 X54.339 Y26.360 E26.23417
G1 X52.103 Y27.413 E26.30344
G1 X49.987 Y27.709 E26.36331
G1 X0.167 Y27.685 E27.75968
G1 X0.167 Y27.348 F2700.000
G1 X-50.013 Y27.325 E29.16614 F2700.000
G1 X-52.396 Y26.927 E29.23386
G1 X-54.521 Y25.777 E29.30159
G1 X-56.159 Y24.000 E29.36932
G1 X-57.131 Y21.788 E29.43704
G1 X-57.358 Y19.973 E29.48829
G1 X-57.339 Y-20.027 E30.60943
G1 X-56.941 Y-22.410 E30.67715
G1 X-55.791 Y-24.535 E30.74488
G1 X-54.014 Y-26.173 E30.81260
G1 X-51.802 Y-27.145 E30.88033
G1 X-49.987 Y-27.372 E30.93158
G1 X-49.517 Y-27.371 E30.94476
G1 X50.013 Y-27.325 E33.73441 F2700.000
G1 X52.396 Y-26.927 E33.80213
G1 X54.521 Y-25.777 E33.86986
G1 X56.159 Y-24.000 E33.93758
G1 X57.131 Y-21.788 E34.00531
G1 X57.358 Y-19.973 E34.05656
G1 X57.339 Y20.027 E35.17769
G1 X56.941 Y22.410 E35.24542
G1 X55.791 Y24.535 E35.31314
G1 X54.014 Y26.172 E35.38087
G1 X51.802 Y27.145 E35.44859
G1 X49.987 Y27.371 E35.49984
G1 X0.227 Y27.348 E36.89453
G1 X0.227 Y27.011 F2700.000
G1 X-50.013 Y26.988 E38.30267 F2700.000
G1 X-52.339 Y26.590 E38.36882
G1 X-54.401 Y25.442 E38.43496
G1 X-55.965 Y23.676 E38.50110
G1 X-56.855 Y21.490 E38.56725
G1 X-57.021 Y19.973 E38.61001
G1 X-57.002 Y-20.027 E39.73114
G1 X-56.604 Y-22.353 E39.79728
G1 X-55.456 Y-24.415 E39.86342
G1 X-53.690 Y-25.979 E39.92957
G1 X-51.504 Y-26.869 E39.99571
G1 X-49.987 Y-27.035 E40.03847
G1 X-49.517 Y-27.034 E40.05165
G1 X50.013 Y-26.988 E42.84130 F2700.000
G1 X52.339 Y-26.590 E42.90744
G1 X54.401 Y-25.442 E42.97358
G1 X55.965 Y-23.676 E43.03973
G1 X56.855 Y-21.490 E43.10587
G1 X57.021 Y-19.974 E43.14863
G1 X57.002 Y20.026 E44.26976
G1 X56.604 Y22.352 E44.33590
G1 X55.456 Y24.415 E44.40205
G1 X53.690 Y25.979 E44.46819
G1 X51.504 Y26.869 E44.53433
G1 X49.987 Y27.034 E44.57709
G1 X0.287 Y27.011 E45.97010
G1 X0.288 Y26.674 F2700.000
G1 X-50.012 Y26.651 E47.37992 F2700.000
G1 X-52.280 Y26.253 E47.44444
G1 X-54.277 Y25.108 E47.50897
G1 X-55.767 Y23.353 E47.57349
G1 X-56.571 Y21.196 E47.63801
G1 X-56.683 Y19.974 E47.67242
G1 X-56.665 Y-20.027 E48.79355
G1 X-56.267 Y-22.294 E48.85807
G1 X-55.122 Y-24.291 E48.92259
G1 X-53.367 Y-25.781 E48.98712
G1 X-51.210 Y-26.585 E49.05164
G1 X-49.988 Y-26.698 E49.08604
G1 X-49.517 Y-26.697 E49.09923
G1 X50.012 Y-26.651 E51.88887 F2700.000
G1 X52.280 Y-26.253 E51.95340
G1 X54.277 Y-25.108 E52.01792
G1 X55.767 Y-23.353 E52.08244
G1 X56.571 Y-21.196 E52.14696
G1 X56.683 Y-19.974 E52.18137
G1 X56.665 Y20.026 E53.30250
G1 X56.267 Y22.294 E53.36702
G1 X55.122 Y24.291 E53.43154
G1 X53.367 Y25.780 E53.49607
G1 X51.210 Y26.585 E53.56059
G1 X49.988 Y26.697 E53.59500
G1 X0.348 Y26.674 E54.98632
G1 X0.348 Y26.337 F2700.000
G1 X-50.012 Y26.314 E56.39783 F2700.000
G1 X-52.219 Y25.916 E56.46068
G1 X-54.150 Y24.774 E56.52354
G1 X-55.561 Y23.032 E56.58640
G1 X-56.346 Y19.974 E56.67489
G1 X-56.328 Y-20.026 E57.79602
G1 X-55.930 Y-22.233 E57.85888
G1 X-54.788 Y-24.164 E57.92174
G1 X-53.046 Y-25.576 E57.98460
G1 X-49.988 Y-26.360 E58.07308
G1 X-49.517 Y-26.360 E58.08626
G1 X50.012 Y-26.314 E60.87591 F2700.000
G1 X52.219 Y-25.916 E60.93877
G1 X54.150 Y-24.774 E61.00163
G1 X55.561 Y-23.032 E61.06448
G1 X56.346 Y-19.974 E61.15297
G1 X56.328 Y20.026 E62.27410
G1 X55.930 Y22.233 E62.33696
G1 X54.788 Y24.164 E62.39982
G1 X53.046 Y25.575 E62.46268
G1 X49.988 Y26.360 E62.55116
G1 X0.408 Y26.337 E63.94080
G92 E0
G1 X0.417 Y7.190 F2700.000
G1 X-32.193 Y7.175 E0.91400 F2700.000
G1 X-32.193 Y5.587 E0.95852
G1 X-32.187 Y-7.205 E1.31705 F2700.000
G1 X32.193 Y-7.175 E3.12151
G1 X32.187 Y7.205 E3.52456
G1 X0.477 Y7.190 E4.41333
G1 X0.471 Y19.810 F2700.000
G1 X-49.819 Y19.787 E5.82288 F2700.000
G1 X-49.801 Y-19.833 E6.93336
G1 X-49.520 Y-19.833 E6.94121
G1 X49.819 Y-19.787 E9.72553 F2700.000
G1 X49.801 Y19.833 E10.83601
G1 X0.531 Y19.810 E12.21697
G1 X32.003 Y7.400 F2700.000
G1 X44.239 Y19.635 E12.70302 F2700.000
G1 X43.761 Y19.635 E12.71644
G1 X31.525 Y7.400 E13.20250
G1 X31.047 Y7.399 E13.21592
G1 X43.283 Y19.635 E13.70197
G1 X42.805 Y19.635 E13.71540
G1 X30.569 Y7.399 E14.20145
G1 X30.091 Y7.399 E14.21487
G1 X42.327 Y19.635 E14.70092
G1 X41.849 Y19.634 E14.71435
G1 X29.613 Y7.399 E15.20040
G1 X29.136 Y7.398 E15.21382
G1 X41.371 Y19.634 E15.69988
G1 X40.893 Y19.634 E15.71330
G1 X28.658 Y7.398 E16.19935
G1 X28.180 Y7.398 E16.21278
G1 X40.415 Y19.634 E16.69883
G1 X39.937 Y19.633 E16.71225
G1 X27.702 Y7.398 E17.19830
G1 X27.224 Y7.398 E17.21173
G1 X39.459 Y19.633 E17.69778
G1 X38.981 Y19.633 E17.71121
G1 X26.746 Y7.397 E18.19726
G1 X26.268 Y7.397 E18.21068
G1 X38.503 Y19.633 E18.69673
G1 X38.025 Y19.633 E18.71016
G1 X25.790 Y7.397 E19.19621
G1 X25.312 Y7.397 E19.20963
G1 X37.548 Y19.632 E19.69568
G1 X37.070 Y19.632 E19.70911
G1 X24.834 Y7.396 E20.19516
G1 X24.356 Y7.396 E20.20859
G1 X36.592 Y19.632 E20.69464
G1 X36.114 Y19.632 E20.70806
G1 X23.878 Y7.396 E21.19411
G1 X23.400 Y7.396 E21.20754
G1 X35.636 Y19.631 E21.69359
G1 X35.158 Y19.631 E21.70701
G1 X22.922 Y7.396 E22.19306
G1 X22.444 Y7.395 E22.20649
G1 X34.680 Y19.631 E22.69254
G1 X34.202 Y19.631 E22.70597
G1 X21.966 Y7.395 E23.19202
G1 X21.488 Y7.395 E23.20544
G1 X33.724 Y19.631 E23.69149
G1 X33.246 Y19.630 E23.70492
G1 X21.010 Y7.395 E24.19097
G1 X20.532 Y7.394 E24.20439
G1 X32.768 Y19.630 E24.69044
G1 X32.290 Y19.630 E24.70387
G1 X20.054 Y7.394 E25.18992
G1 X19.576 Y7.394 E25.20335
G1 X31.812 Y19.630 E25.68940
G1 X31.334 Y19.629 E25.70282
G1 X19.098 Y7.394 E26.18887
G1 X18.620 Y7.394 E26.20230
G1 X30.856 Y19.629 E26.68835
G1 X30.378 Y19.629 E26.70177
G1 X18.142 Y7.393 E27.18782
G1 X17.664 Y7.393 E27.20125
G1 X29.900 Y19.629 E27.68730
G1 X29.422 Y19.629 E27.70073
G1 X17.187 Y7.393 E28.18678
G1 X16.709 Y7.393 E28.20020
G1 X28.944 Y19.628 E28.68625
G1 X28.466 Y19.628 E28.69968
G1 X16.231 Y7.392 E29.18573
G1 X15.753 Y7.392 E29.19915
G1 X27.988 Y19.628 E29.68520
G1 X27.510 Y19.628 E29.69863
G1 X15.275 Y7.392 E30.18468
G1 X14.797 Y7.392 E30.19811
G1 X27.032 Y19.627 E30.68416
G1 X26.554 Y19.627 E30.69758
G1 X14.319 Y7.392 E31.18363
G1 X13.841 Y7.391 E31.19706
G1 X26.076 Y19.627 E31.68311
G1 X25.598 Y19.627 E31.69653
G1 X13.363 Y7.391 E32.18258
G1 X12.885 Y7.391 E32.19601
G1 X25.121 Y19.627 E32.68206
G1 X24.643 Y19.626 E32.69549
G1 X12.407 Y7.391 E33.18154
G1 X11.929 Y7.390 E33.19496
G1 X24.165 Y19.626 E33.68101
G1 X23.687 Y19.626 E33.69444
G1 X11.451 Y7.390 E34.18049
G1 X10.973 Y7.390 E34.19391
G1 X23.209 Y19.626 E34.67996
G1 X22.731 Y19.625 E34.69339
G1 X10.495 Y7.390 E35.17944
G1 X10.017 Y7.390 E35.19287
G1 X22.253 Y19.625 E35.67892
G1 X21.775 Y19.625 E35.69234
G1 X9.539 Y7.389 E36.17839
G1 X9.061 Y7.389 E36.19182
G1 X21.297 Y19.625 E36.67787
G1 X20.819 Y19.625 E36.69129
G1 X8.583 Y7.389 E37.17734
G1 X8.105 Y7.389 E37.19077
G1 X20.341 Y19.624 E37.67682
G1 X19.863 Y19.624 E37.69025
G1 X7.627 Y7.388 E38.17630
G1 X7.149 Y7.388 E38.18972
G1 X19.385 Y19.624 E38.67577
G1 X18.907 Y19.624 E38.68920
G1 X6.671 Y7.388 E39.17525
G1 X6.193 Y7.388 E39.18867
G1 X18.429 Y19.623 E39.67472
G1 X17.951 Y19.623 E39.68815
G1 X5.715 Y7.388 E40.17420
G1 X5.238 Y7.387 E40.18763
G1 X17.473 Y19.623 E40.67368
G1 X16.995 Y19.623 E40.68710
G1 X4.760 Y7.387 E41.17315
G1 X4.282 Y7.387 E41.18658
G1 X16.517 Y19.623 E41.67263
G1 X16.039 Y19.622 E41.68605
G1 X3.804 Y7.387 E42.17210
G1 X3.326 Y7.386 E42.18553
G1 X15.561 Y19.622 E42.67158
G1 X15.083 Y19.622 E42.68500
G1 X2.848 Y7.386 E43.17106
G1 X2.370 Y7.386 E43.18448
G1 X14.605 Y19.622 E43.67053
G1 X14.127 Y19.621 E43.68396
G1 X1.892 Y7.386 E44.17001
G1 X1.414 Y7.386 E44.18343
G1 X13.649 Y19.621 E44.66948
G1 X13.172 Y19.621 E44.68291
G1 X0.936 Y7.385 E45.16896
G1 X0.458 Y7.385 E45.18238
G1 X12.694 Y19.621 E45.66844
G1 X12.216 Y19.621 E45.68186
G1 X-0.020 Y7.385 E46.16791
G1 X-0.498 Y7.385 E46.18134
G1 X11.738 Y19.620 E46.66739
G1 X11.260 Y19.620 E46.68081
G1 X-0.976 Y7.384 E47.16686
G1 X-1.454 Y7.384 E47.18029
G1 X10.782 Y19.620 E47.66634
G1 X10.304 Y19.620 E47.67976
G1 X-1.932 Y7.384 E48.16581
G1 X-2.410 Y7.384 E48.17924
G1 X9.826 Y19.619 E48.66529
G1 X9.348 Y19.619 E48.67872
G1 X-2.888 Y7.384 E49.16477
G1 X-3.366 Y7.383 E49.17819
G1 X8.870 Y19.619 E49.66424
G1 X8.392 Y19.619 E49.67767
G1 X-3.844 Y7.383 E50.16372
G1 X-4.322 Y7.383 E50.17714
G1 X7.914 Y19.619 E50.66319
G1 X7.436 Y19.618 E50.67662
G1 X-4.800 Y7.383 E51.16267
G1 X-5.278 Y7.382 E51.17610
G1 X6.958 Y19.618 E51.66215
G1 X6.480 Y19.618 E51.67557
G1 X-5.756 Y7.382 E52.16162
G1 X-6.234 Y7.382 E52.17505
G1 X6.002 Y19.618 E52.66110
G1 X5.524 Y19.617 E52.67452
G1 X-6.712 Y7.382 E53.16057
G1 X-7.189 Y7.382 E53.17400
G1 X5.046 Y19.617 E53.66005
G1 X4.568 Y19.617 E53.67348
G1 X-7.667 Y7.381 E54.15953
G1 X-8.145 Y7.381 E54.17295
G1 X4.090 Y19.617 E54.65900
G1 X3.612 Y19.617 E54.67243
G1 X-8.623 Y7.381 E55.15848
G1 X-9.101 Y7.381 E55.17190
G1 X3.134 Y19.616 E55.65795
G1 X2.656 Y19.616 E55.67138
G1 X-9.579 Y7.380 E56.15743
G1 X-10.057 Y7.380 E56.17085
G1 X2.178 Y19.616 E56.65691
G1 X1.700 Y19.616 E56.67033
G1 X-10.535 Y7.380 E57.15638
G1 X-11.013 Y7.380 E57.16981
G1 X1.223 Y19.615 E57.65586
G1 X0.745 Y19.615 E57.66928
G1 X-11.491 Y7.380 E58.15533
G1 X-11.969 Y7.379 E58.16876
G1 X0.267 Y19.615 E58.65481
G1 X-0.211 Y19.615 E58.66823
G1 X-12.447 Y7.379 E59.15428
G1 X-12.925 Y7.379 E59.16771
G1 X-0.689 Y19.615 E59.65376
G1 X-1.167 Y19.614 E59.66719
G1 X-13.403 Y7.379 E60.15324
G1 X-13.881 Y7.378 E60.16666
G1 X-1.645 Y19.614 E60.65271
G1 X-2.123 Y19.614 E60.66614
G1 X-14.359 Y7.378 E61.15219
G1 X-14.837 Y7.378 E61.16561
G1 X-2.601 Y19.614 E61.65166
G1 X-3.079 Y19.613 E61.66509
G1 X-15.315 Y7.378 E62.15114
G1 X-15.793 Y7.378 E62.16457
G1 X-3.557 Y19.613 E62.65062
G1 X-4.035 Y19.613 E62.66404
G1 X-16.271 Y7.377 E63.15009
G1 X-16.749 Y7.377 E63.16352
G1 X-4.513 Y19.613 E63.64957
G1 X-4.991 Y19.613 E63.66299
G1 X-17.227 Y7.377 E64.14904
G1 X-17.705 Y7.377 E64.16247
G1 X-5.469 Y19.612 E64.64852
G1 X-5.947 Y19.612 E64.66195
G1 X-18.183 Y7.376 E65.14800
G1 X-18.661 Y7.376 E65.16142
G1 X-6.425 Y19.612 E65.64747
G1 X-6.903 Y19.612 E65.66090
G1 X-19.138 Y7.376 E66.14695
G1 X-19.616 Y7.376 E66.16037
G1 X-7.381 Y19.611 E66.64642
G1 X-7.859 Y19.611 E66.65985
G1 X-20.094 Y7.376 E67.14590
G1 X-20.572 Y7.375 E67.15932
G1 X-8.337 Y19.611 E67.64538
G1 X-8.815 Y19.611 E67.65880
G1 X-21.050 Y7.375 E68.14485
G1 X-21.528 Y7.375 E68.15828
G1 X-9.293 Y19.611 E68.64433
G1 X-9.771 Y19.610 E68.65775
G1 X-22.006 Y7.375 E69.14380
G1 X-22.484 Y7.374 E69.15723
G1 X-10.249 Y19.610 E69.64328
G1 X-10.727 Y19.610 E69.65670
G1 X-22.962 Y7.374 E70.14275
G1 X-23.440 Y7.374 E70.15618
G1 X-11.204 Y19.610 E70.64223
G1 X-11.682 Y19.609 E70.65566
G1 X-23.918 Y7.374 E71.14171
G1 X-24.396 Y7.374 E71.15513
G1 X-12.160 Y19.609 E71.64118
G1 X-12.638 Y19.609 E71.65461
G1 X-24.874 Y7.373 E72.14066
G1 X-25.352 Y7.373 E72.15408
G1 X-13.116 Y19.609 E72.64013
G1 X-13.594 Y19.609 E72.65356
G1 X-25.830 Y7.373 E73.13961
G1 X-26.308 Y7.373 E73.15303
G1 X-14.072 Y19.608 E73.63909
G1 X-14.550 Y19.608 E73.65251
G1 X-26.786 Y7.372 E74.13856
G1 X-27.264 Y7.372 E74.15199
G1 X-15.028 Y19.608 E74.63804
G1 X-15.506 Y19.608 E74.65146
G1 X-27.742 Y7.372 E75.13751
G1 X-28.220 Y7.372 E75.15094
G1 X-15.984 Y19.607 E75.63699
G1 X-16.462 Y19.607 E75.65041
G1 X-28.698 Y7.372 E76.13646
G1 X-29.176 Y7.371 E76.14989
G1 X-16.940 Y19.607 E76.63594
G1 X-17.418 Y19.607 E76.64937
G1 X-29.654 Y7.371 E77.13542
G1 X-30.132 Y7.371 E77.14884
G1 X-17.896 Y19.607 E77.63489
G1 X-18.374 Y19.606 E77.64832
G1 X-30.610 Y7.371 E78.13437
G1 X-31.088 Y7.370 E78.14779
G1 X-18.852 Y19.606 E78.63384
G1 X-19.330 Y19.606 E78.64727
G1 X-31.565 Y7.370 E79.13332
G1 X-32.043 Y7.370 E79.14674
G1 X-19.808 Y19.606 E79.63280
G1 X-20.286 Y19.605 E79.64622
G1 X-49.611 Y-9.719 E80.81112
G1 X-49.611 Y-9.242 E80.82453
G1 X-20.764 Y19.605 E81.97046
G1 X-21.242 Y19.605 E81.98388
G1 X-49.611 Y-8.764 E83.11083
G1 X-49.611 Y-8.287 E83.12424
G1 X-21.720 Y19.605 E84.23221
G1 X-22.198 Y19.605 E84.24564
G1 X-49.611 Y-7.809 E85.33463
G1 X-49.612 Y-7.332 E85.34804
G1 X-22.676 Y19.604 E86.41805
G1 X-23.153 Y19.604 E86.43148
G1 X-49.612 Y-6.854 E87.48251
G1 X-49.612 Y-6.377 E87.49592
G1 X-23.631 Y19.604 E88.52798
G1 X-24.109 Y19.604 E88.54141
G1 X-49.612 Y-5.899 E89.55449
G1 X-49.613 Y-5.422 E89.56790
G1 X-24.587 Y19.603 E90.56200
G1 X-25.065 Y19.603 E90.57543
G1 X-49.613 Y-4.944 E91.55055
G1 X-49.613 Y-4.467 E91.56396
G1 X-25.543 Y19.603 E92.52011
G1 X-26.021 Y19.603 E92.53353
G1 X-49.613 Y-3.989 E93.47070
G1 X-49.613 Y-3.512 E93.48412
G1 X-26.499 Y19.603 E94.40231
G1 X-26.977 Y19.602 E94.41573
G1 X-49.614 Y-3.034 E95.31494
G1 X-49.614 Y-2.557 E95.32836
G1 X-27.455 Y19.602 E96.20859
G1 X-27.933 Y19.602 E96.22202
G1 X-49.614 Y-2.079 E97.08328
G1 X-49.614 Y-1.602 E97.09669
G1 X-28.411 Y19.602 E97.93897
G1 X-28.889 Y19.601 E97.95239
G1 X-49.615 Y-1.124 E98.77570
