; generated by Slic3r 1.2.9 on 2017-07-04 at 09:08:31

; external perimeters extrusion width = 0.40mm
; perimeters extrusion width = 0.48mm
; infill extrusion width = 0.48mm
; solid infill extrusion width = 0.48mm
; top infill extrusion width = 0.48mm

M107
M190 S50 ; set bed temperature
M104 S210 ; set temperature
G28 ; home all axes
G1 Z5 F5000 ; lift nozzle

M109 S210 ; wait for temperature to be reached
G21 ; set units to millimeters
G90 ; use absolute coordinates
M82 ; use absolute distances for extrusion
G92 E0
G1 E-0.57000 F3300.00000
G92 E0
G1 Z1.750 F7800.000
G1 X-16.537 Y0.000 F7800.000
G1 E0.57000 F3300.00000
G1 X-16.537 Y-9.912 E1.47134 F1021.666
G1 X-16.140 Y-12.171 E1.67988
G1 X-14.997 Y-14.159 E1.88842
G1 X-13.244 Y-15.639 E2.09697
G1 X-11.092 Y-16.431 E2.30551
G1 X-9.912 Y-16.537 E2.41322
G1 X9.913 Y-16.537 E4.21589
G1 X12.171 Y-16.140 E4.42444
G1 X14.159 Y-14.997 E4.63298 F1021.666
G1 X15.639 Y-13.244 E4.84152
G1 X16.431 Y-11.092 E5.05006
G1 X16.537 Y-9.912 E5.15777
G1 X16.537 Y9.913 E6.96045
G1 X16.140 Y12.171 E7.16899
G1 X14.997 Y14.159 E7.37754
G1 X13.244 Y15.639 E7.58608
G1 X11.092 Y16.431 E7.79462
G1 X9.913 Y16.537 E7.90233
G1 X-9.912 Y16.537 E9.70501
G1 X-12.171 Y16.140 E9.91355
G1 X-14.159 Y14.997 E10.12209
G1 X-15.639 Y13.244 E10.33064
G1 X-16.431 Y11.092 E10.53918
G1 X-16.537 Y9.913 E10.64689
G1 X-16.537 Y0.060 E11.54277
G1 E10.97277 F3300.00000
G92 E0
G1 X-8.313 Y-8.313 F7800.000
G1 E0.57000 F3300.00000
G1 X8.313 Y-8.313 E2.08174 F1021.666
G1 X8.313 Y8.313 E3.59349
G1 X-8.313 Y8.313 E5.10523
G1 X-8.313 Y-8.253 E6.61152
G1 X-8.938 Y-8.938 F7800.000
G1 X8.938 Y-8.938 E8.23691 F1021.666
G1 X8.938 Y8.938 E9.86229
G1 X-8.938 Y8.938 E11.48768
G1 X-8.938 Y-8.878 E13.10761
G1 X-9.562 Y-9.562 F7800.000
G1 X9.563 Y-9.562 E14.84663 F1021.666
G1 X9.563 Y9.563 E16.58566
G1 X-9.562 Y9.563 E18.32469
G1 X-9.562 Y-9.502 E20.05826
G1 X-9.216 Y-9.362 F7800.000
G1 X-7.629 Y7.934 F7800.000
G1 X-7.934 Y7.629 E20.09774 F1021.666
G1 X-7.934 Y6.740 E20.17912
G1 X-6.740 Y7.934 E20.33369
G1 X-5.850 Y7.934 E20.41507
G1 X-7.934 Y5.850 E20.68472
G1 X-7.934 Y4.961 E20.76610
G1 X-4.961 Y7.934 E21.15084
G1 X-4.072 Y7.934 E21.23222
G1 X-7.934 Y4.072 E21.73204
G1 X-7.934 Y3.182 E21.81342
G1 X-3.182 Y7.934 E22.42833
G1 X-2.293 Y7.934 E22.50971
G1 X-7.934 Y2.293 E23.23971
G1 X-7.934 Y1.404 E23.32109
G1 X-1.404 Y7.934 E24.16617
G1 X-0.514 Y7.934 E24.24755
G1 X-7.934 Y0.514 E25.20772
G1 X-7.934 Y-0.375 E25.28910
G1 X0.375 Y7.934 E26.36435
G1 X1.264 Y7.934 E26.44573
G1 X-7.934 Y-1.264 E27.63607
G1 X-7.934 Y-2.154 E27.71745
G1 X2.154 Y7.934 E29.02288
G1 X3.043 Y7.934 E29.10426
G1 X-7.934 Y-3.043 E30.52477
G1 X-7.934 Y-3.932 E30.60615
G1 X3.932 Y7.934 E32.14175
G1 X4.822 Y7.934 E32.22313
G1 X-7.934 Y-4.821 E33.87381
G1 X-7.934 Y-5.711 E33.95519
G1 X5.711 Y7.934 E35.72096
G1 X6.600 Y7.934 E35.80234
G1 X-7.934 Y-6.600 E37.68320
G1 X-7.934 Y-7.489 E37.76457
G1 X7.489 Y7.934 E39.76052
G1 X7.934 Y7.489 E39.81806
G1 X-7.489 Y-7.934 E41.81401
G1 X-6.600 Y-7.934 E41.89538
G1 X7.934 Y6.600 E43.77624
G1 X7.934 Y5.711 E43.85762
G1 X-5.711 Y-7.934 E45.62340
G1 X-4.822 Y-7.934 E45.70477
G1 X7.934 Y4.822 E47.35546
G1 X7.934 Y3.932 E47.43684
G1 X-3.932 Y-7.934 E48.97244
G1 X-3.043 Y-7.934 E49.05382
G1 X7.934 Y3.043 E50.47434
G1 X7.934 Y2.154 E50.55571
G1 X-2.154 Y-7.934 E51.86114
G1 X-1.264 Y-7.934 E51.94252
G1 X7.934 Y1.264 E53.13287
G1 X7.934 Y0.375 E53.21424
G1 X-0.375 Y-7.934 E54.28950
G1 X0.514 Y-7.934 E54.37088
G1 X7.934 Y-0.514 E55.33105
G1 X7.934 Y-1.404 E55.41243
G1 X1.404 Y-7.934 E56.25752
G1 X2.293 Y-7.934 E56.33890
G1 X7.934 Y-2.293 E57.06890
G1 X7.934 Y-3.182 E57.15027
G1 X3.182 Y-7.934 E57.76519
G1 X4.072 Y-7.934 E57.84657
G1 X7.934 Y-4.072 E58.34640
G1 X7.934 Y-4.961 E58.42777
G1 X4.961 Y-7.934 E58.81252
G1 X5.850 Y-7.934 E58.89389
G1 X7.934 Y-5.850 E59.16355
G1 X7.934 Y-6.740 E59.24493
G1 X6.740 Y-7.934 E59.39950
G1 X7.629 Y-7.934 E59.48088
G1 X7.934 Y-7.629 E59.52036
M106 S255
G1 E58.95036 F3300.00000
G92 E0
G1 Z2.050 F7800.000
G1 X-8.754 Y-8.754 F7800.000
G1 E0.57000 F3300.00000
G1 X8.754 Y-8.754 E1.48469 F3259.109
G1 X8.754 Y8.754 E2.39938
G1 X-8.754 Y8.754 E3.31407
G1 X-8.754 Y-8.694 E4.22562
G1 X-9.173 Y-9.173 F7800.000
G1 X9.173 Y-9.173 E5.18408 F3259.109
G1 X9.173 Y9.173 E6.14254
G1 X-9.173 Y9.173 E7.10099
G1 X-9.173 Y-9.113 E8.05632
G1 X-9.550 Y-9.550 F7800.000
G1 X9.550 Y-9.550 E8.85585 F1629.555
G1 X9.550 Y9.550 E9.65538
G1 X-9.550 Y9.550 E10.45491
G1 X-9.550 Y-9.490 E11.25193
G1 X-9.204 Y-9.350 F7800.000
G1 X-8.289 Y-8.507 F7800.000
G1 X-8.507 Y-8.289 E11.26822 F1086.370
G1 X-8.507 Y-7.689 E11.29995
G1 X-7.689 Y-8.507 E11.36112
G1 X-7.089 Y-8.507 E11.39285
G1 X-8.507 Y-7.089 E11.49889
G1 X-8.507 Y-6.489 E11.53063
G1 X-6.489 Y-8.507 E11.68155
G1 X-5.890 Y-8.507 E11.71328
G1 X-8.507 Y-5.890 E11.90908
G1 X-8.507 Y-5.290 E11.94082
G1 X-5.290 Y-8.507 E12.18150
G1 X-4.690 Y-8.507 E12.21323
G1 X-8.507 Y-4.690 E12.49879
G1 X-8.507 Y-4.090 E12.53052
G1 X-4.090 Y-8.507 E12.86095
G1 X-3.490 Y-8.507 E12.89269
G1 X-8.507 Y-3.490 E13.26800
G1 X-8.507 Y-2.890 E13.29973
G1 X-2.890 Y-8.507 E13.71992
G1 X-2.291 Y-8.507 E13.75166
G1 X-8.507 Y-2.291 E14.21673
G1 X-8.507 Y-1.691 E14.24846
G1 X-1.691 Y-8.507 E14.75841
G1 X-1.091 Y-8.507 E14.79014
G1 X-8.507 Y-1.091 E15.34496
G1 X-8.507 Y-0.491 E15.37670
G1 X-0.491 Y-8.507 E15.97640
G1 X0.109 Y-8.507 E16.00813
G1 X-8.507 Y0.109 E16.65272
G1 X-8.507 Y0.709 E16.68445
G1 X0.709 Y-8.507 E17.37391
G1 X1.309 Y-8.507 E17.40564
G1 X-8.507 Y1.309 E18.13998
G1 X-8.507 Y1.908 E18.17171
G1 X1.908 Y-8.507 E18.95093
G1 X2.508 Y-8.507 E18.98266
G1 X-8.507 Y2.508 E19.80675
G1 X-8.507 Y3.108 E19.83849
G1 X3.108 Y-8.507 E20.70746
G1 X3.708 Y-8.507 E20.73919
G1 X-8.507 Y3.708 E21.65304
G1 X-8.507 Y4.308 E21.68477
G1 X4.308 Y-8.507 E22.64350
G1 X4.908 Y-8.507 E22.67523
G1 X-8.507 Y4.908 E23.67884
G1 X-8.507 Y5.507 E23.71057
G1 X5.507 Y-8.507 E24.75905
G1 X6.107 Y-8.507 E24.79079
G1 X-8.507 Y6.107 E25.88415
G1 X-8.507 Y6.707 E25.91588
G1 X6.707 Y-8.507 E27.05412
G1 X7.307 Y-8.507 E27.08585
G1 X-8.507 Y7.307 E28.26897
G1 X-8.507 Y7.907 E28.30070
G1 X7.907 Y-8.507 E29.52870
G1 X8.487 Y-8.487 E29.55939
G1 X-8.487 Y8.487 E30.82927
G1 X-7.907 Y8.507 E30.85997
G1 X8.507 Y-7.907 E32.08796
G1 X8.507 Y-7.307 E32.11970
G1 X-7.307 Y8.507 E33.30281
G1 X-6.707 Y8.507 E33.33455
G1 X8.507 Y-6.707 E34.47278
G1 X8.507 Y-6.107 E34.50452
G1 X-6.107 Y8.507 E35.59788
G1 X-5.507 Y8.507 E35.62961
G1 X8.507 Y-5.507 E36.67810
G1 X8.507 Y-4.908 E36.70983
G1 X-4.908 Y8.507 E37.71343
G1 X-4.308 Y8.507 E37.74517
G1 X8.507 Y-4.308 E38.70389
G1 X8.507 Y-3.708 E38.73563
G1 X-3.708 Y8.507 E39.64948
G1 X-3.108 Y8.507 E39.68121
G1 X8.507 Y-3.108 E40.55018
G1 X8.507 Y-2.508 E40.58191
G1 X-2.508 Y8.507 E41.40601
G1 X-1.908 Y8.507 E41.43774
G1 X8.507 Y-1.908 E42.21696
G1 X8.507 Y-1.309 E42.24869
G1 X-1.309 Y8.507 E42.98303
G1 X-0.709 Y8.507 E43.01476
G1 X8.507 Y-0.709 E43.70422
G1 X8.507 Y-0.109 E43.73595
G1 X-0.109 Y8.507 E44.38053
G1 X0.491 Y8.507 E44.41227
G1 X8.507 Y0.491 E45.01197
G1 X8.507 Y1.091 E45.04370
G1 X1.091 Y8.507 E45.59853
G1 X1.691 Y8.507 E45.63026
G1 X8.507 Y1.691 E46.14021
G1 X8.507 Y2.291 E46.17194
G1 X2.291 Y8.507 E46.63701
G1 X2.890 Y8.507 E46.66874
G1 X8.507 Y2.890 E47.08893
G1 X8.507 Y3.490 E47.12067
G1 X3.490 Y8.507 E47.49598
G1 X4.090 Y8.507 E47.52771
G1 X8.507 Y4.090 E47.85815
G1 X8.507 Y4.690 E47.88988
G1 X4.690 Y8.507 E48.17544
G1 X5.290 Y8.507 E48.20717
G1 X8.507 Y5.290 E48.44785
G1 X8.507 Y5.890 E48.47959
G1 X5.890 Y8.507 E48.67539
G1 X6.489 Y8.507 E48.70712
G1 X8.507 Y6.489 E48.85804
G1 X8.507 Y7.089 E48.88978
G1 X7.089 Y8.507 E48.99582
G1 X7.689 Y8.507 E49.02755
G1 X8.507 Y7.689 E49.08872
G1 X8.507 Y8.289 E49.12045
G1 X8.289 Y8.507 E49.13674
G1 E48.56674 F3300.00000
G92 E0
G1 Z2.350 F7800.000
G1 X-8.604 Y-8.604 F7800.000
G1 E0.57000 F3300.00000
G1 X8.604 Y-8.604 E1.46901 F3153.733
G1 X8.604 Y8.604 E2.36803
G1 X-8.604 Y8.604 E3.26704
G1 X-8.604 Y-8.544 E4.16292
G1 X-9.023 Y-9.023 F7800.000
G1 X9.023 Y-9.023 E5.10571 F3153.733
G1 X9.023 Y9.023 E6.04849
G1 X-9.023 Y9.023 E6.99127
G1 X-9.023 Y-8.963 E7.93092
G1 X-9.400 Y-9.400 F7800.000
G1 X9.400 Y-9.400 E8.71790 F1576.867
G1 X9.400 Y9.400 E9.50487
G1 X-9.400 Y9.400 E10.29184
G1 X-9.400 Y-9.340 E11.07630
G1 X-9.054 Y-9.200 F7800.000
G1 X-8.139 Y8.357 F7800.000
G1 X-8.357 Y8.139 E11.09259 F1051.244
G1 X-8.357 Y7.539 E11.12432
G1 X-7.539 Y8.357 E11.18549
G1 X-6.939 Y8.357 E11.21722
G1 X-8.357 Y6.939 E11.32326
G1 X-8.357 Y6.339 E11.35500
G1 X-6.339 Y8.357 E11.50592
G1 X-5.740 Y8.357 E11.53765
G1 X-8.357 Y5.740 E11.73345
G1 X-8.357 Y5.140 E11.76518
G1 X-5.140 Y8.357 E12.00586
G1 X-4.540 Y8.357 E12.03759
G1 X-8.357 Y4.540 E12.32314
G1 X-8.357 Y3.940 E12.35488
G1 X-3.940 Y8.357 E12.68531
G1 X-3.340 Y8.357 E12.71704
G1 X-8.357 Y3.340 E13.09235
G1 X-8.357 Y2.740 E13.12408
G1 X-2.740 Y8.357 E13.54427
G1 X-2.141 Y8.357 E13.57600
G1 X-8.357 Y2.141 E14.04107
G1 X-8.357 Y1.541 E14.07280
G1 X-1.541 Y8.357 E14.58274
G1 X-0.941 Y8.357 E14.61447
G1 X-8.357 Y0.941 E15.16929
G1 X-8.357 Y0.341 E15.20103
G1 X-0.341 Y8.357 E15.80072
G1 X0.259 Y8.357 E15.83245
G1 X-8.357 Y-0.259 E16.47703
G1 X-8.357 Y-0.859 E16.50876
G1 X0.859 Y8.357 E17.19821
G1 X1.459 Y8.357 E17.22995
G1 X-8.357 Y-1.458 E17.96427
G1 X-8.357 Y-2.058 E17.99601
G1 X2.058 Y8.357 E18.77521
G1 X2.658 Y8.357 E18.80695
G1 X-8.357 Y-2.658 E19.63103
G1 X-8.357 Y-3.258 E19.66276
G1 X3.258 Y8.357 E20.53172
G1 X3.858 Y8.357 E20.56346
G1 X-8.357 Y-3.858 E21.47730
G1 X-8.357 Y-4.458 E21.50903
G1 X4.458 Y8.357 E22.46775
G1 X5.058 Y8.357 E22.49948
G1 X-8.357 Y-5.058 E23.50307
G1 X-8.357 Y-5.657 E23.53481
G1 X5.657 Y8.357 E24.58328
G1 X6.257 Y8.357 E24.61501
G1 X-8.357 Y-6.257 E25.70836
G1 X-8.357 Y-6.857 E25.74009
G1 X6.857 Y8.357 E26.87832
G1 X7.457 Y8.357 E26.91005
G1 X-8.357 Y-7.457 E28.09316
G1 X-8.357 Y-8.057 E28.12489
G1 X8.057 Y8.357 E29.35287
G1 X8.357 Y8.057 E29.37531
G1 X-8.057 Y-8.357 E30.60329
G1 X-7.457 Y-8.357 E30.63502
G1 X8.357 Y7.457 E31.81813
G1 X8.357 Y6.857 E31.84986
G1 X-6.857 Y-8.357 E32.98809
G1 X-6.257 Y-8.357 E33.01982
G1 X8.357 Y6.257 E34.11317
G1 X8.357 Y5.657 E34.14490
G1 X-5.657 Y-8.357 E35.19337
G1 X-5.058 Y-8.357 E35.22511
G1 X8.357 Y5.058 E36.22870
G1 X8.357 Y4.458 E36.26043
G1 X-4.458 Y-8.357 E37.21915
G1 X-3.858 Y-8.357 E37.25088
G1 X8.357 Y3.858 E38.16472
G1 X8.357 Y3.258 E38.19646
G1 X-3.258 Y-8.357 E39.06542
G1 X-2.658 Y-8.357 E39.09715
G1 X8.357 Y2.658 E39.92123
G1 X8.357 Y2.058 E39.95297
G1 X-2.058 Y-8.357 E40.73217
G1 X-1.458 Y-8.357 E40.76391
G1 X8.357 Y1.459 E41.49824
G1 X8.357 Y0.859 E41.52997
G1 X-0.859 Y-8.357 E42.21942
G1 X-0.259 Y-8.357 E42.25115
G1 X8.357 Y0.259 E42.89573
G1 X8.357 Y-0.341 E42.92746
G1 X0.341 Y-8.357 E43.52716
G1 X0.941 Y-8.357 E43.55889
G1 X8.357 Y-0.941 E44.11371
G1 X8.357 Y-1.541 E44.14544
G1 X1.541 Y-8.357 E44.65538
G1 X2.141 Y-8.357 E44.68712
G1 X8.357 Y-2.141 E45.15218
G1 X8.357 Y-2.740 E45.18391
G1 X2.740 Y-8.357 E45.60410
G1 X3.340 Y-8.357 E45.63583
G1 X8.357 Y-3.340 E46.01114
G1 X8.357 Y-3.940 E46.04288
G1 X3.940 Y-8.357 E46.37331
G1 X4.540 Y-8.357 E46.40504
G1 X8.357 Y-4.540 E46.69059
G1 X8.357 Y-5.140 E46.72233
G1 X5.140 Y-8.357 E46.96300
G1 X5.740 Y-8.357 E46.99474
G1 X8.357 Y-5.740 E47.19053
G1 X8.357 Y-6.339 E47.22227
G1 X6.339 Y-8.357 E47.37319
G1 X6.939 Y-8.357 E47.40492
G1 X8.357 Y-6.939 E47.51097
G1 X8.357 Y-7.539 E47.54270
G1 X7.539 Y-8.357 E47.60387
G1 X8.139 Y-8.357 E47.63560
G1 X8.357 Y-8.139 E47.65189
G1 E47.08189 F3300.00000
G92 E0
G1 Z2.650 F7800.000
G1 X-8.454 Y-8.454 F7800.000
G1 E0.57000 F3300.00000
G1 X8.454 Y-8.454 E1.45334 F572.977
G1 X8.454 Y8.454 E2.33668
G1 X-8.454 Y8.454 E3.22002
G1 X-8.454 Y-8.394 E4.10023
G1 X-8.873 Y-8.873 F7800.000
G1 X8.873 Y-8.873 E5.02734 F572.977
G1 X8.873 Y8.873 E5.95445
G1 X-8.873 Y8.873 E6.88155
G1 X-8.873 Y-8.813 E7.80553
G1 X-9.250 Y-9.250 F7800.000
G1 X9.250 Y-9.250 E8.57994 F540.000
G1 X9.250 Y9.250 E9.35436
G1 X-9.250 Y9.250 E10.12877
G1 X-9.250 Y-9.190 E10.90067
G1 X-8.904 Y-9.050 F7800.000
G1 X-5.632 Y-7.189 F7800.000
G1 X-7.513 Y-5.308 E11.03966 F763.970
G1 X-8.098 Y-5.465 E11.07127
G1 X-8.098 Y-8.098 E11.20883
G1 X-5.876 Y-8.098 E11.32492
G1 X-5.632 Y-7.189 E11.37406
G1 X0.579 Y-7.476 F7800.000
G1 X-1.290 Y-7.977 E11.47514 F763.970
G1 X-3.171 Y-6.096 E11.61412
G1 X-2.670 Y-4.227 E11.71520
G1 X-4.551 Y-2.346 E11.85418
G1 X-6.420 Y-2.847 E11.95526
G1 X-8.098 Y-1.169 E12.07921
G1 X-8.098 Y-1.762 E12.11016
G1 X-6.716 Y-3.143 E12.21223
G1 X-7.217 Y-5.012 E12.31331
G1 X-5.336 Y-6.893 E12.45229
G1 X-3.467 Y-6.392 E12.55337
G1 X-1.762 Y-8.098 E12.67938
G1 X1.200 Y-8.098 E12.83412
G1 X0.579 Y-7.476 E12.88003
G1 X5.422 Y-6.396 F7800.000
G1 X3.541 Y-4.515 E13.01901 F763.970
G1 X1.672 Y-5.015 E13.12009
G1 X-0.209 Y-3.134 E13.25907
G1 X0.292 Y-1.265 E13.36015
G1 X-1.589 Y0.616 E13.49914
G1 X-3.458 Y0.115 E13.60022
G1 X-5.339 Y1.996 E13.73920
G1 X-4.839 Y3.865 E13.84028
G1 X-6.720 Y5.746 E13.97926
G1 X-8.098 Y5.377 E14.05380
G1 X-8.098 Y1.793 E14.24105
G1 X-7.504 Y1.199 E14.28490
G1 X-5.635 Y1.700 E14.38598
G1 X-3.754 Y-0.181 E14.52496
G1 X-4.255 Y-2.050 E14.62604
G1 X-2.374 Y-3.931 E14.76503
G1 X-0.505 Y-3.430 E14.86611
G1 X1.376 Y-5.311 E15.00509
G1 X0.875 Y-7.180 E15.10617
G1 X1.793 Y-8.098 E15.17396
G1 X4.966 Y-8.098 E15.33974
G1 X5.422 Y-6.396 E15.43181
G1 X8.098 Y-5.517 F7800.000
G1 X7.883 Y-5.303 E15.44768 F763.970
G1 X8.098 Y-4.501 E15.49105
G1 X8.098 Y-3.148 E15.56173
G1 X6.503 Y-1.553 E15.67959
G1 X4.634 Y-2.053 E15.78067
G1 X2.753 Y-0.172 E15.91965
G1 X3.254 Y1.696 E16.02073
G1 X1.372 Y3.578 E16.15972
G1 X-0.496 Y3.077 E16.26080
G1 X-2.377 Y4.958 E16.39978
G1 X-1.877 Y6.827 E16.50086
G1 X-3.148 Y8.098 E16.59478
G1 X-6.110 Y8.098 E16.74953
G1 X-5.923 Y7.911 E16.76334
G1 X-6.423 Y6.042 E16.86442
G1 X-4.542 Y4.161 E17.00341
G1 X-2.674 Y4.662 E17.10449
G1 X-0.792 Y2.781 E17.24347
G1 X-1.293 Y0.912 E17.34455
G1 X0.588 Y-0.969 E17.48353
G1 X2.457 Y-0.468 E17.58461
G1 X4.338 Y-2.350 E17.72360
G1 X3.837 Y-4.218 E17.82468
G1 X5.718 Y-6.099 E17.96366
G1 X7.587 Y-5.599 E18.06474
G1 X8.098 Y-6.110 E18.10250
G1 X8.098 Y-5.517 E18.13345
G1 X8.098 Y1.043 F7800.000
G1 X7.596 Y0.909 E18.16060 F763.970
G1 X5.715 Y2.790 E18.29958
G1 X6.215 Y4.658 E18.40066
G1 X4.334 Y6.539 E18.53965
G1 X2.466 Y6.039 E18.64073
G1 X0.585 Y7.920 E18.77971
G1 X0.632 Y8.098 E18.78934
G1 X-2.555 Y8.098 E18.95588
G1 X-1.580 Y7.123 E19.02792
G1 X0.288 Y7.624 E19.12900
G1 X2.169 Y5.743 E19.26798
G1 X1.669 Y3.874 E19.36906
G1 X3.550 Y1.993 E19.50804
G1 X5.419 Y2.493 E19.60912
G1 X7.300 Y0.612 E19.74811
G1 X6.799 Y-1.256 E19.84919
G1 X8.098 Y-2.555 E19.94516
G1 X8.098 Y1.043 E20.13316
G1 X8.098 Y5.380 F7800.000
G1 X8.098 Y8.098 E20.27518 F763.970
G1 X4.969 Y8.098 E20.43866
G1 X4.631 Y6.836 E20.50692
G1 X6.512 Y4.955 E20.64591
G1 X8.098 Y5.380 E20.73170
G1 X-7.800 Y0.903 F7800.000
G1 X-8.098 Y1.200 E20.75367 F763.970
G1 X-8.098 Y-0.207 E20.82716
G1 X-7.800 Y0.903 E20.88717
G1 E20.31717 F3300.00000
G92 E0
G1 Z2.950 F7800.000
G1 X-8.304 Y-8.304 F7800.000
G1 E0.57000 F3300.00000
G1 X8.304 Y-8.304 E1.43767 F553.583
G1 X8.304 Y8.304 E2.30533
G1 X-8.304 Y8.304 E3.17300
G1 X-8.304 Y-8.244 E4.03753
G1 X-8.723 Y-8.723 F7800.000
G1 X8.723 Y-8.723 E4.94897 F553.583
G1 X8.723 Y8.723 E5.86040
G1 X-8.723 Y8.723 E6.77183
G1 X-8.723 Y-8.663 E7.68013
G1 X-9.100 Y-9.100 F7800.000
G1 X9.100 Y-9.100 E8.44199 F540.000
G1 X9.100 Y9.100 E9.20384
G1 X-9.100 Y9.100 E9.96570
G1 X-9.100 Y-9.040 E10.72504
G1 X-8.753 Y-8.900 F7800.000
G1 X-5.741 Y-6.785 F7800.000
G1 X-7.109 Y-5.417 E10.82612 F738.110
