; generated by Slic3r 1.2.9 on 2017-06-22 at 10:53:57

; external perimeters extrusion width = 0.38mm
; perimeters extrusion width = 0.38mm
; infill extrusion width = 0.38mm
; solid infill extrusion width = 0.38mm
; top infill extrusion width = 0.36mm

M107
M190 S50 ; set bed temperature
M104 S210 ; set temperature
G28 ; home all axes
G1 Z5 F5000 ; lift nozzle

M109 S210 ; wait for temperature to be reached
G21 ; set units to millimeters
G90 ; use absolute coordinates
M82 ; use absolute distances for extrusion
G92 E0
G1 E-0.57000 F3300.00000
G92 E0
G1 Z1.400 F2700.000
G1 X0.000 Y13.360 F2700.000
G1 E0.57000 F3300.00000
M204 S1000
G1 X-50.000 Y13.360 E1.97141 F2700.000
G1 X-52.547 Y12.962 E2.04368
G1 X-54.853 Y11.807 E2.11595
G1 X-56.696 Y10.004 E2.18821
G1 X-57.903 Y7.726 E2.26048
G1 X-58.360 Y5.000 E2.33794
G1 X-58.360 Y-5.000 E2.61823
G1 X-57.962 Y-7.547 E2.69049
G1 X-56.807 Y-9.853 E2.76276
G1 X-55.004 Y-11.696 E2.83502
G1 X-52.726 Y-12.903 E2.90729
G1 X-50.000 Y-13.360 E2.98475
G1 X50.000 Y-13.360 E5.78758
G1 X52.547 Y-12.962 E5.85985
G1 X54.853 Y-11.807 E5.93211 F2700.000
G1 X56.696 Y-10.004 E6.00438
G1 X57.903 Y-7.726 E6.07664
G1 X58.360 Y-5.000 E6.15411
G1 X58.360 Y5.000 E6.43439
G1 X57.962 Y7.547 E6.50666
G1 X56.807 Y9.853 E6.57892
G1 X55.004 Y11.696 E6.65119
G1 X52.726 Y12.903 E6.72346
G1 X50.000 Y13.360 E6.80092
G1 X0.060 Y13.360 E8.20065
G1 X0.000 Y13.022 F2700.000
G1 X-50.000 Y13.022 E9.60207 F2700.000
G1 X-52.494 Y12.625 E9.67285
G1 X-54.741 Y11.472 E9.74364
G1 X-56.518 Y9.677 E9.81442
G1 X-57.649 Y7.419 E9.88521
G1 X-58.022 Y5.000 E9.95382
G1 X-58.022 Y-5.000 E10.23410
G1 X-57.625 Y-7.494 E10.30489
G1 X-56.472 Y-9.741 E10.37567
G1 X-54.677 Y-11.518 E10.44646
G1 X-52.419 Y-12.649 E10.51724
G1 X-50.000 Y-13.022 E10.58586
G1 X50.000 Y-13.022 E13.38868
G1 X52.494 Y-12.625 E13.45947
G1 X54.741 Y-11.472 E13.53025 F2700.000
G1 X56.518 Y-9.677 E13.60104
G1 X57.649 Y-7.419 E13.67182
G1 X58.022 Y-5.000 E13.74044
G1 X58.022 Y5.000 E14.02072
G1 X57.625 Y7.494 E14.09150
G1 X56.472 Y9.741 E14.16229
G1 X54.677 Y11.518 E14.23307
G1 X52.419 Y12.649 E14.30386
G1 X50.000 Y13.022 E14.37247
G1 X0.060 Y13.022 E15.77220
G1 X0.000 Y12.685 F2700.000
G1 X-50.000 Y12.685 E17.17362 F2700.000
G1 X-52.439 Y12.288 E17.24289
G1 X-54.626 Y11.137 E17.31216
G1 X-56.335 Y9.351 E17.38143
G1 X-57.389 Y7.115 E17.45071
G1 X-57.685 Y5.000 E17.51058
G1 X-57.685 Y-5.000 E17.79086
G1 X-57.288 Y-7.439 E17.86013
G1 X-56.137 Y-9.626 E17.92941
G1 X-54.351 Y-11.335 E17.99868
G1 X-52.115 Y-12.389 E18.06795
G1 X-50.000 Y-12.685 E18.12782
G1 X50.000 Y-12.685 E20.93065
G1 X52.439 Y-12.288 E20.99992
G1 X54.626 Y-11.137 E21.06919 F2700.000
G1 X56.335 Y-9.351 E21.13847
G1 X57.389 Y-7.115 E21.20774
G1 X57.685 Y-5.000 E21.26761
G1 X57.685 Y5.000 E21.54789
G1 X57.288 Y7.439 E21.61717
G1 X56.137 Y9.626 E21.68644
G1 X54.351 Y11.335 E21.75571
G1 X52.115 Y12.389 E21.82498
G1 X50.000 Y12.685 E21.88485
G1 X0.060 Y12.685 E23.28459
G1 X0.000 Y12.348 F2700.000
G1 X-50.000 Y12.348 E24.68600 F2700.000
G1 X-52.383 Y11.951 E24.75373
G1 X-54.509 Y10.802 E24.82145
G1 X-56.147 Y9.026 E24.88918
G1 X-57.121 Y6.814 E24.95690
G1 X-57.348 Y5.000 E25.00815
G1 X-57.348 Y-5.000 E25.28844
G1 X-56.951 Y-7.383 E25.35616
G1 X-55.802 Y-9.509 E25.42389
G1 X-54.026 Y-11.147 E25.49161
G1 X-51.814 Y-12.121 E25.55934
G1 X-50.000 Y-12.348 E25.61059
G1 X50.000 Y-12.348 E28.41342
G1 X52.383 Y-11.951 E28.48114
G1 X54.509 Y-10.802 E28.54887 F2700.000
G1 X56.147 Y-9.026 E28.61660
G1 X57.121 Y-6.814 E28.68432
G1 X57.348 Y-5.000 E28.73557
G1 X57.348 Y5.000 E29.01586
G1 X56.951 Y7.383 E29.08358
G1 X55.802 Y9.509 E29.15131
G1 X54.026 Y11.147 E29.21903
G1 X51.814 Y12.121 E29.28676
G1 X50.000 Y12.348 E29.33801
G1 X0.060 Y12.348 E30.73774
G1 X0.000 Y12.011 F2700.000
G1 X-50.000 Y12.011 E32.13916 F2700.000
G1 X-52.326 Y11.614 E32.20530
G1 X-54.389 Y10.468 E32.27144
G1 X-55.954 Y8.702 E32.33759
G1 X-56.845 Y6.517 E32.40373
G1 X-57.011 Y5.000 E32.44649
G1 X-57.011 Y-5.000 E32.72677
G1 X-56.614 Y-7.326 E32.79291
G1 X-55.468 Y-9.389 E32.85906
G1 X-53.702 Y-10.954 E32.92520
G1 X-51.517 Y-11.845 E32.99134
G1 X-50.000 Y-12.011 E33.03410
G1 X50.000 Y-12.011 E35.83693
G1 X52.326 Y-11.614 E35.90307
G1 X54.389 Y-10.468 E35.96922 F2700.000
G1 X55.954 Y-8.702 E36.03536
G1 X56.845 Y-6.517 E36.10150
G1 X57.011 Y-5.000 E36.14426
G1 X57.011 Y5.000 E36.42455
G1 X56.614 Y7.326 E36.49069
G1 X55.468 Y9.389 E36.55683
G1 X53.702 Y10.954 E36.62298
G1 X51.517 Y11.845 E36.68912
G1 X50.000 Y12.011 E36.73188
G1 X0.060 Y12.011 E38.13161
G1 X0.000 Y11.674 F2700.000
G1 X-50.000 Y11.674 E39.53302 F2700.000
G1 X-52.268 Y11.277 E39.59755
G1 X-54.265 Y10.133 E39.66207
G1 X-55.756 Y8.379 E39.72659
G1 X-56.561 Y6.222 E39.79111
G1 X-56.674 Y5.000 E39.82552
G1 X-56.674 Y-5.000 E40.10580
G1 X-56.277 Y-7.268 E40.17033
G1 X-55.133 Y-9.265 E40.23485
G1 X-53.379 Y-10.756 E40.29937
G1 X-51.222 Y-11.561 E40.36389
G1 X-50.000 Y-11.674 E40.39830
G1 X50.000 Y-11.674 E43.20113
G1 X52.268 Y-11.277 E43.26565
G1 X54.265 Y-10.133 E43.33017 F2700.000
G1 X55.756 Y-8.379 E43.39469
G1 X56.561 Y-6.222 E43.45921
G1 X56.674 Y-5.000 E43.49362
G1 X56.674 Y5.000 E43.77391
G1 X56.277 Y7.268 E43.83843
G1 X55.133 Y9.265 E43.90295
G1 X53.379 Y10.756 E43.96747
G1 X51.222 Y11.561 E44.03199
G1 X50.000 Y11.674 E44.06640
G1 X0.060 Y11.674 E45.46613
G1 X0.000 Y11.337 F2700.000
G1 X-50.000 Y11.337 E46.86755 F2700.000
G1 X-52.207 Y10.940 E46.93041
G1 X-54.138 Y9.799 E46.99327
G1 X-55.551 Y8.057 E47.05613
G1 X-56.337 Y5.000 E47.14461
G1 X-56.337 Y-5.000 E47.42489
G1 X-55.940 Y-7.207 E47.48775
G1 X-54.799 Y-9.138 E47.55061
G1 X-53.057 Y-10.551 E47.61347
G1 X-50.000 Y-11.337 E47.70195
G1 X50.000 Y-11.337 E50.50478
G1 X52.207 Y-10.940 E50.56764
G1 X54.138 Y-9.799 E50.63050 F2700.000
G1 X55.551 Y-8.057 E50.69336
G1 X56.337 Y-5.000 E50.78184
G1 X56.337 Y5.000 E51.06213
G1 X55.940 Y7.207 E51.12498
G1 X54.799 Y9.138 E51.18784
G1 X53.057 Y10.551 E51.25070
G1 X50.000 Y11.337 E51.33919
G1 X0.060 Y11.337 E52.73892
G1 E52.16892 F3300.00000
G92 E0
G1 X-49.473 Y4.473 F2700.000
G1 E0.57000 F3300.00000
G1 X-49.473 Y-4.473 E0.82074 F2700.000
G1 X49.473 Y-4.473 E3.59402
G1 X49.473 Y4.473 E3.84476
G1 X-49.413 Y4.473 E6.61636
G1 X-49.810 Y4.810 F2700.000
G1 X-49.810 Y-4.810 E6.88599 F2700.000
G1 X49.810 Y-4.810 E9.67817
G1 X49.810 Y4.810 E9.94780
G1 X-49.750 Y4.810 E12.73829
G1 X-49.610 Y4.464 F2700.000
G1 X-49.278 Y3.616 F2700.000
G1 X-48.616 Y4.278 E12.76462 F2700.000
G1 X-48.138 Y4.278 E12.77810
G1 X-49.278 Y3.138 E12.82348
G1 X-49.278 Y2.659 E12.83695
G1 X-47.659 Y4.278 E12.90138
G1 X-47.180 Y4.278 E12.91486
G1 X-49.278 Y2.180 E12.99834
G1 X-49.278 Y1.702 E13.01182
G1 X-46.702 Y4.278 E13.11436
G1 X-46.223 Y4.278 E13.12783
G1 X-49.278 Y1.223 E13.24942
G1 X-49.278 Y0.744 E13.26289
G1 X-45.744 Y4.278 E13.40354
G1 X-45.266 Y4.278 E13.41701
G1 X-49.278 Y0.266 E13.57671
G1 X-49.278 Y-0.213 E13.59018
G1 X-44.787 Y4.278 E13.76893
G1 X-44.308 Y4.278 E13.78240
G1 X-49.278 Y-0.692 E13.98021
G1 X-49.278 Y-1.170 E13.99368
G1 X-43.830 Y4.278 E14.21054
G1 X-43.351 Y4.278 E14.22401
G1 X-49.278 Y-1.649 E14.45992
G1 X-49.278 Y-2.128 E14.47339
G1 X-42.872 Y4.278 E14.72835
G1 X-42.394 Y4.278 E14.74182
G1 X-49.278 Y-2.606 E15.01584
G1 X-49.278 Y-3.085 E15.02931
G1 X-41.915 Y4.278 E15.32238
G1 X-41.436 Y4.278 E15.33585
G1 X-49.278 Y-3.564 E15.64797
G1 X-49.278 Y-4.042 E15.66144
G1 X-40.958 Y4.278 E15.99262
G1 X-40.479 Y4.278 E16.00609
G1 X-49.035 Y-4.278 E16.34663
G1 X-48.556 Y-4.278 E16.36010
G1 X-40.000 Y4.278 E16.70065
G1 X-39.521 Y4.278 E16.71412
G1 X-48.077 Y-4.278 E17.05467
G1 X-47.599 Y-4.278 E17.06814
G1 X-39.043 Y4.278 E17.40868
G1 X-38.564 Y4.278 E17.42215
G1 X-47.120 Y-4.278 E17.76270
G1 X-46.641 Y-4.278 E17.77617
G1 X-38.085 Y4.278 E18.11672
G1 X-37.607 Y4.278 E18.13019
G1 X-46.163 Y-4.278 E18.47073
G1 X-45.684 Y-4.278 E18.48421
G1 X-37.128 Y4.278 E18.82475
G1 X-36.649 Y4.278 E18.83822
G1 X-45.205 Y-4.278 E19.17877
G1 X-44.727 Y-4.278 E19.19224
G1 X-36.171 Y4.278 E19.53278
G1 X-35.692 Y4.278 E19.54626
G1 X-44.248 Y-4.278 E19.88680
G1 X-43.769 Y-4.278 E19.90027
G1 X-35.213 Y4.278 E20.24082
G1 X-34.735 Y4.278 E20.25429
G1 X-43.291 Y-4.278 E20.59483
G1 X-42.812 Y-4.278 E20.60831
G1 X-34.256 Y4.278 E20.94885
G1 X-33.777 Y4.278 E20.96232
G1 X-42.333 Y-4.278 E21.30287
G1 X-41.854 Y-4.278 E21.31634
G1 X-33.299 Y4.278 E21.65688
G1 X-32.820 Y4.278 E21.67036
G1 X-41.376 Y-4.278 E22.01090
G1 X-40.897 Y-4.278 E22.02437
G1 X-32.341 Y4.278 E22.36492
G1 X-31.863 Y4.278 E22.37839
G1 X-40.418 Y-4.278 E22.71893
G1 X-39.940 Y-4.278 E22.73241
G1 X-31.384 Y4.278 E23.07295
G1 X-30.905 Y4.278 E23.08642
G1 X-39.461 Y-4.278 E23.42697
G1 X-38.982 Y-4.278 E23.44044
G1 X-30.427 Y4.278 E23.78098
G1 X-29.948 Y4.278 E23.79446
G1 X-38.504 Y-4.278 E24.13500
G1 X-38.025 Y-4.278 E24.14847
G1 X-29.469 Y4.278 E24.48902
G1 X-28.991 Y4.278 E24.50249
G1 X-37.546 Y-4.278 E24.84304
G1 X-37.068 Y-4.278 E24.85651
G1 X-28.512 Y4.278 E25.19705
G1 X-28.033 Y4.278 E25.21052
G1 X-36.589 Y-4.278 E25.55107
G1 X-36.110 Y-4.278 E25.56454
G1 X-27.554 Y4.278 E25.90509
G1 X-27.076 Y4.278 E25.91856
G1 X-35.632 Y-4.278 E26.25910
G1 X-35.153 Y-4.278 E26.27257
G1 X-26.597 Y4.278 E26.61312
G1 X-26.118 Y4.278 E26.62659
G1 X-34.674 Y-4.278 E26.96714
G1 X-34.196 Y-4.278 E26.98061
G1 X-25.640 Y4.278 E27.32115
G1 X-25.161 Y4.278 E27.33462
G1 X-33.717 Y-4.278 E27.67517
G1 X-33.238 Y-4.278 E27.68864
G1 X-24.682 Y4.278 E28.02919
G1 X-24.204 Y4.278 E28.04266
G1 X-32.760 Y-4.278 E28.38320
G1 X-32.281 Y-4.278 E28.39668
G1 X-23.725 Y4.278 E28.73722
G1 X-23.246 Y4.278 E28.75069
G1 X-31.802 Y-4.278 E29.09124
G1 X-31.324 Y-4.278 E29.10471
G1 X-22.768 Y4.278 E29.44525
G1 X-22.289 Y4.278 E29.45873
G1 X-30.845 Y-4.278 E29.79927
G1 X-30.366 Y-4.278 E29.81274
G1 X-21.810 Y4.278 E30.15329
G1 X-21.332 Y4.278 E30.16676
G1 X-29.887 Y-4.278 E30.50730
G1 X-29.409 Y-4.278 E30.52078
G1 X-20.853 Y4.278 E30.86132
G1 X-20.374 Y4.278 E30.87479
G1 X-28.930 Y-4.278 E31.21534
G1 X-28.451 Y-4.278 E31.22881
G1 X-19.896 Y4.278 E31.56935
G1 X-19.417 Y4.278 E31.58283
G1 X-27.973 Y-4.278 E31.92337
G1 X-27.494 Y-4.278 E31.93684
G1 X-18.938 Y4.278 E32.27739
G1 X-18.460 Y4.278 E32.29086
G1 X-27.015 Y-4.278 E32.63140
G1 X-26.537 Y-4.278 E32.64488
G1 X-17.981 Y4.278 E32.98542
G1 X-17.502 Y4.278 E32.99889
G1 X-26.058 Y-4.278 E33.33944
G1 X-25.579 Y-4.278 E33.35291
G1 X-17.023 Y4.278 E33.69345
G1 X-16.545 Y4.278 E33.70693
G1 X-25.101 Y-4.278 E34.04747
G1 X-24.622 Y-4.278 E34.06094
G1 X-16.066 Y4.278 E34.40149
G1 X-15.587 Y4.278 E34.41496
G1 X-24.143 Y-4.278 E34.75551
G1 X-23.665 Y-4.278 E34.76898
G1 X-15.109 Y4.278 E35.10952
G1 X-14.630 Y4.278 E35.12299
G1 X-23.186 Y-4.278 E35.46354
G1 X-22.707 Y-4.278 E35.47701
G1 X-14.151 Y4.278 E35.81756
G1 X-13.673 Y4.278 E35.83103
G1 X-22.229 Y-4.278 E36.17157
G1 X-21.750 Y-4.278 E36.18504
G1 X-13.194 Y4.278 E36.52559
G1 X-12.715 Y4.278 E36.53906
G1 X-21.271 Y-4.278 E36.87961
G1 X-20.793 Y-4.278 E36.89308
G1 X-12.237 Y4.278 E37.23362
G1 X-11.758 Y4.278 E37.24709
G1 X-20.314 Y-4.278 E37.58764
G1 X-19.835 Y-4.278 E37.60111
G1 X-11.279 Y4.278 E37.94166
G1 X-10.801 Y4.278 E37.95513
G1 X-19.356 Y-4.278 E38.29567
G1 X-18.878 Y-4.278 E38.30915
G1 X-10.322 Y4.278 E38.64969
G1 X-9.843 Y4.278 E38.66316
G1 X-18.399 Y-4.278 E39.00371
G1 X-17.920 Y-4.278 E39.01718
G1 X-9.365 Y4.278 E39.35772
G1 X-8.886 Y4.278 E39.37120
G1 X-17.442 Y-4.278 E39.71174
G1 X-16.963 Y-4.278 E39.72521
G1 X-8.407 Y4.278 E40.06576
G1 X-7.929 Y4.278 E40.07923
G1 X-16.484 Y-4.278 E40.41977
G1 X-16.006 Y-4.278 E40.43325
G1 X-7.450 Y4.278 E40.77379
G1 X-6.971 Y4.278 E40.78726
G1 X-15.527 Y-4.278 E41.12781
G1 X-15.048 Y-4.278 E41.14128
G1 X-6.492 Y4.278 E41.48182
G1 X-6.014 Y4.278 E41.49530
G1 X-14.570 Y-4.278 E41.83584
G1 X-14.091 Y-4.278 E41.84931
G1 X-5.535 Y4.278 E42.18986
G1 X-5.056 Y4.278 E42.20333
G1 X-13.612 Y-4.278 E42.54387
G1 X-13.134 Y-4.278 E42.55735
G1 X-4.578 Y4.278 E42.89789
G1 X-4.099 Y4.278 E42.91136
G1 X-12.655 Y-4.278 E43.25191
G1 X-12.176 Y-4.278 E43.26538
G1 X-3.620 Y4.278 E43.60592
G1 X-3.142 Y4.278 E43.61940
G1 X-11.698 Y-4.278 E43.95994
G1 X-11.219 Y-4.278 E43.97341
G1 X-2.663 Y4.278 E44.31396
G1 X-2.184 Y4.278 E44.32743
G1 X-10.740 Y-4.278 E44.66798
G1 X-10.262 Y-4.278 E44.68145
G1 X-1.706 Y4.278 E45.02199
G1 X-1.227 Y4.278 E45.03546
G1 X-9.783 Y-4.278 E45.37601
G1 X-9.304 Y-4.278 E45.38948
G1 X-0.748 Y4.278 E45.73003
G1 X-0.270 Y4.278 E45.74350
G1 X-8.825 Y-4.278 E46.08404
G1 X-8.347 Y-4.278 E46.09751
G1 X0.209 Y4.278 E46.43806
G1 X0.688 Y4.278 E46.45153
G1 X-7.868 Y-4.278 E46.79208
G1 X-7.389 Y-4.278 E46.80555
G1 X1.166 Y4.278 E47.14609
G1 X1.645 Y4.278 E47.15957
G1 X-6.911 Y-4.278 E47.50011
G1 X-6.432 Y-4.278 E47.51358
G1 X2.124 Y4.278 E47.85413
G1 X2.602 Y4.278 E47.86760
G1 X-5.953 Y-4.278 E48.20814
G1 X-5.475 Y-4.278 E48.22162
G1 X3.081 Y4.278 E48.56216
G1 X3.560 Y4.278 E48.57563
G1 X-4.996 Y-4.278 E48.91618
G1 X-4.517 Y-4.278 E48.92965
G1 X4.038 Y4.278 E49.27019
G1 X4.517 Y4.278 E49.28367
G1 X-4.039 Y-4.278 E49.62421
G1 X-3.560 Y-4.278 E49.63768
G1 X4.996 Y4.278 E49.97823
G1 X5.475 Y4.278 E49.99170
G1 X-3.081 Y-4.278 E50.33224
G1 X-2.603 Y-4.278 E50.34572
G1 X5.953 Y4.278 E50.68626
G1 X6.432 Y4.278 E50.69973
G1 X-2.124 Y-4.278 E51.04028
G1 X-1.645 Y-4.278 E51.05375
G1 X6.911 Y4.278 E51.39429
G1 X7.389 Y4.278 E51.40777
G1 X-1.167 Y-4.278 E51.74831
G1 X-0.688 Y-4.278 E51.76178
G1 X7.868 Y4.278 E52.10233
G1 X8.347 Y4.278 E52.11580
G1 X-0.209 Y-4.278 E52.45634
G1 X0.269 Y-4.278 E52.46982
G1 X8.825 Y4.278 E52.81036
G1 X9.304 Y4.278 E52.82383
G1 X0.748 Y-4.278 E53.16438
G1 X1.227 Y-4.278 E53.17785
G1 X9.783 Y4.278 E53.51839
G1 X10.261 Y4.278 E53.53187
G1 X1.705 Y-4.278 E53.87241
G1 X2.184 Y-4.278 E53.88588
G1 X10.740 Y4.278 E54.22643
G1 X11.219 Y4.278 E54.23990
G1 X2.663 Y-4.278 E54.58045
G1 X3.142 Y-4.278 E54.59392
G1 X11.697 Y4.278 E54.93446
G1 X12.176 Y4.278 E54.94793
G1 X3.620 Y-4.278 E55.28848
G1 X4.099 Y-4.278 E55.30195
G1 X12.655 Y4.278 E55.64250
G1 X13.133 Y4.278 E55.65597
G1 X4.578 Y-4.278 E55.99651
G1 X5.056 Y-4.278 E56.00998
G1 X13.612 Y4.278 E56.35053
G1 X14.091 Y4.278 E56.36400
G1 X5.535 Y-4.278 E56.70455
G1 X6.014 Y-4.278 E56.71802
G1 X14.569 Y4.278 E57.05856
G1 X15.048 Y4.278 E57.07204
G1 X6.492 Y-4.278 E57.41258
G1 X6.971 Y-4.278 E57.42605
G1 X15.527 Y4.278 E57.76660
G1 X16.006 Y4.278 E57.78007
G1 X7.450 Y-4.278 E58.12061
G1 X7.928 Y-4.278 E58.13409
G1 X16.484 Y4.278 E58.47463
G1 X16.963 Y4.278 E58.48810
G1 X8.407 Y-4.278 E58.82865
G1 X8.886 Y-4.278 E58.84212
G1 X17.442 Y4.278 E59.18266
G1 X17.920 Y4.278 E59.19614
G1 X9.364 Y-4.278 E59.53668
G1 X9.843 Y-4.278 E59.55015
G1 X18.399 Y4.278 E59.89070
G1 X18.878 Y4.278 E59.90417
G1 X10.322 Y-4.278 E60.24471
G1 X10.800 Y-4.278 E60.25819
G1 X19.356 Y4.278 E60.59873
G1 X19.835 Y4.278 E60.61220
G1 X11.279 Y-4.278 E60.95275
G1 X11.758 Y-4.278 E60.96622
G1 X20.314 Y4.278 E61.30676
G1 X20.792 Y4.278 E61.32024
G1 X12.236 Y-4.278 E61.66078
G1 X12.715 Y-4.278 E61.67425
G1 X21.271 Y4.278 E62.01480
G1 X21.750 Y4.278 E62.02827
G1 X13.194 Y-4.278 E62.36881
G1 X13.673 Y-4.278 E62.38229
G1 X22.228 Y4.278 E62.72283
G1 X22.707 Y4.278 E62.73630
G1 X14.151 Y-4.278 E63.07685
G1 X14.630 Y-4.278 E63.09032
G1 X23.186 Y4.278 E63.43087
G1 X23.664 Y4.278 E63.44434
G1 X15.109 Y-4.278 E63.78488
G1 X15.587 Y-4.278 E63.79835
G1 X24.143 Y4.278 E64.13890
G1 X24.622 Y4.278 E64.15237
G1 X16.066 Y-4.278 E64.49292
G1 X16.545 Y-4.278 E64.50639
G1 X25.100 Y4.278 E64.84693
G1 X25.579 Y4.278 E64.86040
G1 X17.023 Y-4.278 E65.20095
G1 X17.502 Y-4.278 E65.21442
G1 X26.058 Y4.278 E65.55497
G1 X26.537 Y4.278 E65.56844
