(.../Ojciec Dyrektor/Desktop/agcode/pcb-gcode.ulp)
(Copyright 2005 - 2012 by John Johnson)
(See readme.txt for licensing terms.)
(This file generated from the board:)
(.../Ojciec Dyrektor/Documents/eagle/alfa/alfa.brd)
(Current profile is .../Desktop/agcode/profiles/turbocnc.pp  )
(This file generated 28.11.2016 13:45:03)
(Settings from pcb-machine.h)
(  Tool Size)
(0.1778 )
(Z Axis Settings)
(  High     Up        Down     Drill)
(12.7000 	2.5400 	-0.1778 	-0.8128 )
(spindle on time = 3.0000)
(milling depth = -0.2540)
(text depth = -0.1270)
(tool change at 12.7000 15.2400 25.4000 )
(feed rate xy = F508.00 )
(feed rate z  = F254.00 )
(Settings from pcb-defaults.h)
(isolate min = 0.0254)
(isolate max = 0.5080)
(isolate step = 0.1270)
(Generated top outlines, top drill, )
(Unit of measure: mm)
(Metric Mode)
G21
(Absolute Coordinates)
G90
G00 X0.0000 Y0.0000 
M03
G04 P3.000000
G00 Z2.5400 
G00 X18.0554 Y12.2972 
G01 Z-0.1778 F254.00 
G01 X18.0022 Y12.3504 F508.00 
G01 X17.9326 Y12.3792 
G01 X17.7073 Y12.3792 
G01 X17.6377 Y12.3504 
G01 X17.5845 Y12.2972 
G01 X17.5557 Y12.2276 
G01 X17.5557 Y11.6023 
G01 X17.5845 Y11.5327 
G01 X17.6377 Y11.4795 
G01 X17.7073 Y11.4507 
G01 X17.9326 Y11.4507 
G01 X18.0022 Y11.4795 
G01 X18.0554 Y11.5327 
G01 X18.0699 Y11.5680 
G01 X18.0845 Y11.5327 
G01 X18.1377 Y11.4795 
G01 X18.2073 Y11.4507 
G01 X18.4326 Y11.4507 
G01 X18.5022 Y11.4795 
G01 X18.5554 Y11.5327 
G01 X18.5699 Y11.5680 
G01 X18.5845 Y11.5327 
G01 X18.6377 Y11.4795 
G01 X18.7073 Y11.4507 
G01 X18.9326 Y11.4507 
G01 X19.0022 Y11.4795 
G01 X19.0533 Y11.5307 
G01 X19.0533 Y8.6551 
G01 X19.0533 Y8.5848 
G01 X19.0715 Y8.5170 
G01 X19.1066 Y8.4562 
G01 X21.3233 Y6.2395 
G01 X21.3233 Y3.7748 
G01 X21.3415 Y3.7070 
G01 X21.3766 Y3.6462 
G01 X21.4262 Y3.5966 
G01 X22.0878 Y2.9350 
G01 X22.0345 Y2.8818 
G01 X22.0345 Y2.1981 
G01 X22.5181 Y1.7145 
G01 X23.2018 Y1.7145 
G01 X23.6854 Y2.1981 
G01 X23.6854 Y2.8818 
G01 X23.2018 Y3.3654 
G01 X22.5181 Y3.3654 
G01 X22.4649 Y3.3121 
G01 X21.8566 Y3.9204 
G01 X21.8566 Y6.3148 
G01 X21.8566 Y6.3851 
G01 X21.8384 Y6.4529 
G01 X21.8033 Y6.5137 
G01 X19.5866 Y8.7304 
G01 X19.5866 Y9.2609 
G01 X19.6066 Y9.2262 
G01 X20.1066 Y8.7262 
G01 X20.1562 Y8.6766 
G01 X20.2170 Y8.6415 
G01 X20.2848 Y8.6233 
G01 X22.5933 Y8.6233 
G01 X22.5933 Y5.8630 
G01 X22.4689 Y5.8115 
G01 X22.3337 Y5.7211 
G01 X22.2188 Y5.6062 
G01 X22.1284 Y5.4710 
G01 X22.0662 Y5.3208 
G01 X22.0345 Y5.1613 
G01 X22.0345 Y4.9986 
G01 X22.0662 Y4.8391 
G01 X22.1284 Y4.6889 
G01 X22.2188 Y4.5537 
G01 X22.3337 Y4.4388 
G01 X22.4689 Y4.3484 
G01 X22.6191 Y4.2862 
G01 X22.7786 Y4.2545 
G01 X22.9413 Y4.2545 
G01 X23.1008 Y4.2862 
G01 X23.2510 Y4.3484 
G01 X23.3862 Y4.4388 
G01 X23.5011 Y4.5537 
G01 X23.5915 Y4.6889 
G01 X23.6537 Y4.8391 
G01 X23.6854 Y4.9986 
G01 X23.6854 Y5.1613 
G01 X23.6537 Y5.3208 
G01 X23.5915 Y5.4710 
G01 X23.5011 Y5.6062 
G01 X23.3862 Y5.7211 
G01 X23.2510 Y5.8115 
G01 X23.1266 Y5.8630 
G01 X23.1266 Y8.8548 
G01 X23.1266 Y8.9251 
G01 X23.1084 Y8.9929 
G01 X23.0733 Y9.0537 
G01 X23.0237 Y9.1033 
G01 X22.9629 Y9.1384 
G01 X22.8951 Y9.1566 
G01 X20.4304 Y9.1566 
G01 X20.0866 Y9.5004 
G01 X20.0866 Y11.5307 
G01 X20.1377 Y11.4795 
G01 X20.2073 Y11.4507 
G01 X20.4326 Y11.4507 
G01 X20.5022 Y11.4795 
G01 X20.5554 Y11.5327 
G01 X20.5699 Y11.5680 
G01 X20.5845 Y11.5327 
G01 X20.6377 Y11.4795 
G01 X20.7073 Y11.4507 
G01 X20.9326 Y11.4507 
G01 X21.0022 Y11.4795 
G01 X21.0554 Y11.5327 
G01 X21.0699 Y11.5680 
G01 X21.0845 Y11.5327 
G01 X21.1377 Y11.4795 
G01 X21.2073 Y11.4507 
G01 X21.4326 Y11.4507 
G01 X21.5022 Y11.4795 
G01 X21.5554 Y11.5327 
G01 X21.5699 Y11.5680 
G01 X21.5845 Y11.5327 
G01 X21.6377 Y11.4795 
G01 X21.7073 Y11.4507 
G01 X21.9326 Y11.4507 
G01 X22.0022 Y11.4795 
G01 X22.0554 Y11.5327 
G01 X22.0699 Y11.5680 
G01 X22.0845 Y11.5327 
G01 X22.1377 Y11.4795 
G01 X22.2073 Y11.4507 
G01 X22.4326 Y11.4507 
G01 X22.5022 Y11.4795 
G01 X22.5554 Y11.5327 
G01 X22.5699 Y11.5680 
G01 X22.5845 Y11.5327 
G01 X22.6377 Y11.4795 
G01 X22.7073 Y11.4507 
G01 X22.9326 Y11.4507 
G01 X23.0022 Y11.4795 
G01 X23.0554 Y11.5327 
G01 X23.0842 Y11.6023 
G01 X23.0842 Y12.2276 
G01 X23.0554 Y12.2972 
G01 X23.0022 Y12.3504 
G01 X22.9326 Y12.3792 
G01 X22.7073 Y12.3792 
G01 X22.6377 Y12.3504 
G01 X22.5845 Y12.2972 
G01 X22.5699 Y12.2619 
G01 X22.5554 Y12.2972 
G01 X22.5022 Y12.3504 
G01 X22.4326 Y12.3792 
G01 X22.2073 Y12.3792 
G01 X22.1377 Y12.3504 
G01 X22.0845 Y12.2972 
G01 X22.0699 Y12.2619 
G01 X22.0554 Y12.2972 
G01 X22.0022 Y12.3504 
G01 X21.9326 Y12.3792 
G01 X21.7073 Y12.3792 
G01 X21.6377 Y12.3504 
G01 X21.5845 Y12.2972 
G01 X21.5699 Y12.2619 
G01 X21.5554 Y12.2972 
G01 X21.5022 Y12.3504 
G01 X21.4326 Y12.3792 
G01 X21.2073 Y12.3792 
G01 X21.1377 Y12.3504 
G01 X21.0845 Y12.2972 
G01 X21.0699 Y12.2619 
G01 X21.0554 Y12.2972 
G01 X21.0022 Y12.3504 
G01 X20.9326 Y12.3792 
G01 X20.7073 Y12.3792 
G01 X20.6377 Y12.3504 
G01 X20.5845 Y12.2972 
G01 X20.5699 Y12.2619 
G01 X20.5554 Y12.2972 
G01 X20.5022 Y12.3504 
G01 X20.4326 Y12.3792 
G01 X20.2073 Y12.3792 
G01 X20.1377 Y12.3504 
G01 X20.0845 Y12.2972 
G01 X20.0699 Y12.2619 
G01 X20.0554 Y12.2972 
G01 X20.0022 Y12.3504 
G01 X19.9326 Y12.3792 
G01 X19.7073 Y12.3792 
G01 X19.6377 Y12.3504 
G01 X19.5845 Y12.2972 
G01 X19.5699 Y12.2619 
G01 X19.5554 Y12.2972 
G01 X19.5022 Y12.3504 
G01 X19.4326 Y12.3792 
G01 X19.2073 Y12.3792 
G01 X19.1377 Y12.3504 
G01 X19.0845 Y12.2972 
G01 X19.0699 Y12.2619 
G01 X19.0554 Y12.2972 
G01 X19.0022 Y12.3504 
G01 X18.9326 Y12.3792 
G01 X18.7073 Y12.3792 
G01 X18.6377 Y12.3504 
G01 X18.5845 Y12.2972 
G01 X18.5699 Y12.2619 
G01 X18.5554 Y12.2972 
G01 X18.5022 Y12.3504 
G01 X18.4326 Y12.3792 
G01 X18.2073 Y12.3792 
G01 X18.1377 Y12.3504 
G01 X18.0845 Y12.2972 
G01 X18.0699 Y12.2619 
G01 X18.0554 Y12.2972 
G00 Z2.5400 
G00 X28.8042 Y13.6772 
G01 Z-0.1778 F254.00 
G01 X28.8042 Y15.2227 F508.00 
G01 X28.7868 Y15.2647 
G01 X28.7547 Y15.2968 
G01 X28.7127 Y15.3142 
G01 X27.1672 Y15.3142 
G01 X27.1252 Y15.2968 
G01 X27.0931 Y15.2647 
G01 X27.0757 Y15.2227 
G01 X27.0757 Y13.9628 
G01 X26.6195 Y13.5066 
G01 X24.0292 Y13.5066 
G01 X24.0804 Y13.5577 
G01 X24.1092 Y13.6273 
G01 X24.1092 Y13.8526 
G01 X24.0804 Y13.9222 
G01 X24.0272 Y13.9754 
G01 X23.9919 Y13.9899 
G01 X24.0272 Y14.0045 
G01 X24.0804 Y14.0577 
G01 X24.1092 Y14.1273 
G01 X24.1092 Y14.3526 
G01 X24.0804 Y14.4222 
G01 X24.0272 Y14.4754 
G01 X23.9919 Y14.4899 
G01 X24.0272 Y14.5045 
G01 X24.0804 Y14.5577 
G01 X24.1092 Y14.6273 
G01 X24.1092 Y14.8526 
G01 X24.0804 Y14.9222 
G01 X24.0292 Y14.9733 
G01 X25.3648 Y14.9733 
G01 X25.4351 Y14.9733 
G01 X25.5029 Y14.9915 
G01 X25.5637 Y15.0266 
G01 X26.7804 Y16.2433 
G01 X27.8295 Y16.2433 
G01 X28.9433 Y15.1295 
G01 X28.9433 Y12.9666 
G01 X26.7051 Y12.9666 
G01 X26.6348 Y12.9666 
G01 X26.5670 Y12.9484 
G01 X26.5062 Y12.9133 
G01 X25.2362 Y11.6433 
G01 X25.1866 Y11.5937 
G01 X25.1515 Y11.5329 
G01 X25.1333 Y11.4651 
G01 X25.1333 Y1.3804 
G01 X24.0195 Y0.2666 
G01 X19.9223 Y0.2666 
G01 X19.3166 Y0.8723 
G01 X19.3166 Y6.1311 
G01 X19.2984 Y6.1989 
G01 X19.2633 Y6.2597 
G01 X19.2137 Y6.3093 
G01 X16.2686 Y9.2544 
G01 X16.2686 Y14.8755 
G01 X16.3664 Y14.9733 
G01 X16.6107 Y14.9733 
G01 X16.5595 Y14.9222 
G01 X16.5307 Y14.8526 
G01 X16.5307 Y14.6273 
G01 X16.5595 Y14.5577 
G01 X16.6127 Y14.5045 
G01 X16.6480 Y14.4900 
G01 X16.6127 Y14.4754 
G01 X16.5595 Y14.4222 
G01 X16.5307 Y14.3526 
G01 X16.5307 Y14.1273 
G01 X16.5595 Y14.0577 
G01 X16.6127 Y14.0045 
G01 X16.6480 Y13.9900 
G01 X16.6127 Y13.9754 
G01 X16.5595 Y13.9222 
G01 X16.5307 Y13.8526 
G01 X16.5307 Y13.6273 
G01 X16.5595 Y13.5577 
G01 X16.6127 Y13.5045 
G01 X16.6480 Y13.4900 
G01 X16.6127 Y13.4754 
G01 X16.5595 Y13.4222 
G01 X16.5307 Y13.3526 
G01 X16.5307 Y13.1273 
G01 X16.5595 Y13.0577 
G01 X16.6127 Y13.0045 
G01 X16.6480 Y12.9900 
G01 X16.6127 Y12.9754 
G01 X16.5595 Y12.9222 
G01 X16.5307 Y12.8526 
G01 X16.5307 Y12.6273 
G01 X16.5595 Y12.5577 
G01 X16.6127 Y12.5045 
G01 X16.6823 Y12.4757 
G01 X17.3076 Y12.4757 
G01 X17.3772 Y12.5045 
G01 X17.4304 Y12.5577 
G01 X17.4592 Y12.6273 
G01 X17.4592 Y12.8526 
G01 X17.4304 Y12.9222 
G01 X17.3772 Y12.9754 
G01 X17.3419 Y12.9900 
G01 X17.3772 Y13.0045 
G01 X17.4304 Y13.0577 
G01 X17.4592 Y13.1273 
G01 X17.4592 Y13.3526 
G01 X17.4304 Y13.4222 
G01 X17.3772 Y13.4754 
G01 X17.3419 Y13.4900 
G01 X17.3772 Y13.5045 
G01 X17.4304 Y13.5577 
G01 X17.4592 Y13.6273 
G01 X17.4592 Y13.8526 
G01 X17.4304 Y13.9222 
G01 X17.3772 Y13.9754 
G01 X17.3419 Y13.9900 
G01 X17.3772 Y14.0045 
G01 X17.4304 Y14.0577 
G01 X17.4592 Y14.1273 
G01 X17.4592 Y14.3526 
G01 X17.4304 Y14.4222 
G01 X17.3772 Y14.4754 
G01 X17.3419 Y14.4900 
G01 X17.3772 Y14.5045 
G01 X17.4304 Y14.5577 
G01 X17.4592 Y14.6273 
G01 X17.4592 Y14.8526 
G01 X17.4304 Y14.9222 
G01 X17.3772 Y14.9754 
G01 X17.3419 Y14.9900 
G01 X17.3772 Y15.0045 
G01 X17.4304 Y15.0577 
G01 X17.4592 Y15.1273 
G01 X17.4592 Y15.3526 
G01 X17.4304 Y15.4222 
G01 X17.3772 Y15.4754 
G01 X17.3419 Y15.4900 
G01 X17.3772 Y15.5045 
G01 X17.4304 Y15.5577 
G01 X17.4592 Y15.6273 
G01 X17.4592 Y15.8526 
G01 X17.4304 Y15.9222 
G01 X17.3772 Y15.9754 
G01 X17.3419 Y15.9900 
G01 X17.3772 Y16.0045 
G01 X17.4304 Y16.0577 
G01 X17.4592 Y16.1273 
G01 X17.4592 Y16.3526 
G01 X17.4304 Y16.4222 
G01 X17.3772 Y16.4754 
G01 X17.3419 Y16.4900 
G01 X17.3772 Y16.5045 
G01 X17.4304 Y16.5577 
G01 X17.4592 Y16.6273 
G01 X17.4592 Y16.8526 
G01 X17.4304 Y16.9222 
G01 X17.3772 Y16.9754 
G01 X17.3419 Y16.9900 
G01 X17.3772 Y17.0045 
G01 X17.4304 Y17.0577 
G01 X17.4592 Y17.1273 
G01 X17.4592 Y17.3526 
G01 X17.4304 Y17.4222 
G01 X17.3772 Y17.4754 
G01 X17.3419 Y17.4900 
G01 X17.3772 Y17.5045 
G01 X17.4304 Y17.5577 
G01 X17.4592 Y17.6273 
G01 X17.4592 Y17.7237 
G01 X17.7057 Y17.4772 
G01 X17.7057 Y12.9420 
G01 X17.7305 Y12.8493 
G01 X17.7785 Y12.7663 
G01 X17.8463 Y12.6985 
G01 X17.9293 Y12.6505 
G01 X18.0220 Y12.6257 
G01 X22.6179 Y12.6257 
G01 X22.7106 Y12.6505 
G01 X22.7936 Y12.6985 
G01 X22.8614 Y12.7663 
G01 X22.9094 Y12.8493 
G01 X22.9342 Y12.9420 
G01 X22.9342 Y17.5379 
G01 X22.9094 Y17.6306 
G01 X22.8614 Y17.7136 
G01 X22.7936 Y17.7814 
G01 X22.7106 Y17.8294 
G01 X22.6179 Y17.8542 
G01 X18.0827 Y17.8542 
G01 X17.8362 Y18.1007 
G01 X17.9326 Y18.1007 
G01 X18.0022 Y18.1295 
G01 X18.0554 Y18.1827 
G01 X18.0700 Y18.2180 
G01 X18.0845 Y18.1827 
G01 X18.1377 Y18.1295 
G01 X18.2073 Y18.1007 
G01 X18.4326 Y18.1007 
G01 X18.5022 Y18.1295 
G01 X18.5554 Y18.1827 
G01 X18.5700 Y18.2180 
G01 X18.5845 Y18.1827 
G01 X18.6377 Y18.1295 
G01 X18.7073 Y18.1007 
G01 X18.9326 Y18.1007 
G01 X19.0022 Y18.1295 
G01 X19.0554 Y18.1827 
G01 X19.0700 Y18.2180 
G01 X19.0845 Y18.1827 
G01 X19.1377 Y18.1295 
G01 X19.2073 Y18.1007 
G01 X19.4326 Y18.1007 
G01 X19.5022 Y18.1295 
G01 X19.5554 Y18.1827 
G01 X19.5700 Y18.2180 
G01 X19.5845 Y18.1827 
G01 X19.6377 Y18.1295 
G01 X19.7073 Y18.1007 
G01 X19.9326 Y18.1007 
G01 X20.0022 Y18.1295 
G01 X20.0554 Y18.1827 
G01 X20.0700 Y18.2180 
G01 X20.0845 Y18.1827 
G01 X20.1377 Y18.1295 
G01 X20.2073 Y18.1007 
G01 X20.4326 Y18.1007 
G01 X20.5022 Y18.1295 
G01 X20.5554 Y18.1827 
G01 X20.5700 Y18.2180 
G01 X20.5845 Y18.1827 
G01 X20.6377 Y18.1295 
G01 X20.7073 Y18.1007 
G01 X20.9326 Y18.1007 
G01 X21.0022 Y18.1295 
G01 X21.0554 Y18.1827 
G01 X21.0700 Y18.2180 
G01 X21.0845 Y18.1827 
G01 X21.1377 Y18.1295 
G01 X21.2073 Y18.1007 
G01 X21.4326 Y18.1007 
G01 X21.5022 Y18.1295 
G01 X21.5554 Y18.1827 
G01 X21.5700 Y18.2180 
G01 X21.5845 Y18.1827 
G01 X21.6377 Y18.1295 
G01 X21.7073 Y18.1007 
G01 X21.9326 Y18.1007 
G01 X22.0022 Y18.1295 
G01 X22.0554 Y18.1827 
G01 X22.0699 Y18.2180 
G01 X22.0845 Y18.1827 
G01 X22.1377 Y18.1295 
G01 X22.2073 Y18.1007 
G01 X22.4326 Y18.1007 
G01 X22.5022 Y18.1295 
G01 X22.5554 Y18.1827 
G01 X22.5700 Y18.2179 
G01 X22.5845 Y18.1827 
G01 X22.6377 Y18.1295 
G01 X22.7073 Y18.1007 
G01 X22.9326 Y18.1007 
G01 X23.0022 Y18.1295 
G01 X23.0554 Y18.1827 
G01 X23.0842 Y18.2523 
G01 X23.0842 Y18.8776 
G01 X23.0554 Y18.9472 
G01 X23.0022 Y19.0004 
G01 X22.9326 Y19.0292 
G01 X22.7073 Y19.0292 
G01 X22.6377 Y19.0004 
G01 X22.5845 Y18.9472 
G01 X22.5700 Y18.9120 
G01 X22.5554 Y18.9472 
G01 X22.5022 Y19.0004 
G01 X22.4326 Y19.0292 
G01 X22.2073 Y19.0292 
G01 X22.1377 Y19.0004 
G01 X22.0845 Y18.9472 
G01 X22.0699 Y18.9119 
G01 X22.0554 Y18.9472 
G01 X22.0022 Y19.0004 
G01 X21.9326 Y19.0292 
G01 X21.7073 Y19.0292 
G01 X21.6377 Y19.0004 
G01 X21.5845 Y18.9472 
G01 X21.5700 Y18.9119 
G01 X21.5554 Y18.9472 
G01 X21.5022 Y19.0004 
G01 X21.4326 Y19.0292 
G01 X21.2073 Y19.0292 
G01 X21.1377 Y19.0004 
G01 X21.0845 Y18.9472 
G01 X21.0700 Y18.9119 
G01 X21.0554 Y18.9472 
G01 X21.0022 Y19.0004 
G01 X20.9326 Y19.0292 
G01 X20.7073 Y19.0292 
G01 X20.6377 Y19.0004 
G01 X20.5845 Y18.9472 
G01 X20.5700 Y18.9119 
G01 X20.5554 Y18.9472 
G01 X20.5022 Y19.0004 
G01 X20.4326 Y19.0292 
G01 X20.2073 Y19.0292 
G01 X20.1377 Y19.0004 
G01 X20.0845 Y18.9472 
G01 X20.0700 Y18.9119 
G01 X20.0554 Y18.9472 
G01 X20.0022 Y19.0004 
G01 X19.9326 Y19.0292 
G01 X19.7073 Y19.0292 
G01 X19.6377 Y19.0004 
G01 X19.5845 Y18.9472 
G01 X19.5700 Y18.9119 
G01 X19.5554 Y18.9472 
G01 X19.5022 Y19.0004 
G01 X19.4326 Y19.0292 
G01 X19.2073 Y19.0292 
G01 X19.1377 Y19.0004 
G01 X19.0866 Y18.9492 
G01 X19.0866 Y19.9795 
G01 X19.1604 Y20.0533 
G01 X26.5595 Y20.0533 
G01 X30.2133 Y16.3995 
G01 X30.2133 Y11.5404 
G01 X29.8895 Y11.2166 
G01 X28.8042 Y11.2166 
G01 X28.8042 Y11.7227 
G01 X28.7868 Y11.7647 
G01 X28.7547 Y11.7968 
G01 X28.7127 Y11.8142 
G01 X27.1672 Y11.8142 
G01 X27.1252 Y11.7968 
G01 X27.0931 Y11.7647 
G01 X27.0757 Y11.7227 
G01 X27.0757 Y10.1772 
G01 X27.0931 Y10.1352 
G01 X27.1252 Y10.1031 
G01 X27.1672 Y10.0857 
G01 X28.7127 Y10.0857 
G01 X28.7547 Y10.1031 
G01 X28.7868 Y10.1352 
G01 X28.8042 Y10.1772 
G01 X28.8042 Y10.6833 
G01 X29.9648 Y10.6833 
G01 X30.0351 Y10.6833 
G01 X30.1029 Y10.7015 
G01 X30.1637 Y10.7366 
G01 X30.6437 Y11.2166 
G01 X30.6933 Y11.2662 
G01 X30.7284 Y11.3270 
G01 X30.7466 Y11.3948 
G01 X30.7466 Y16.4748 
G01 X30.7466 Y16.5451 
G01 X30.7284 Y16.6129 
G01 X30.6933 Y16.6737 
G01 X26.8833 Y20.4837 
G01 X26.8337 Y20.5333 
G01 X26.7729 Y20.5684 
G01 X26.7051 Y20.5866 
G01 X19.0148 Y20.5866 
G01 X18.9470 Y20.5684 
G01 X18.8862 Y20.5333 
G01 X18.8366 Y20.4837 
G01 X18.6066 Y20.2537 
G01 X18.5715 Y20.1929 
G01 X18.5533 Y20.1251 
G01 X18.5533 Y20.0548 
G01 X18.5533 Y18.9492 
G01 X18.5022 Y19.0004 
G01 X18.4326 Y19.0292 
G01 X18.2073 Y19.0292 
G01 X18.1377 Y19.0004 
G01 X18.0845 Y18.9472 
G01 X18.0700 Y18.9119 
G01 X18.0554 Y18.9472 
G01 X18.0022 Y19.0004 
G01 X17.9326 Y19.0292 
G01 X17.7073 Y19.0292 
G01 X17.6377 Y19.0004 
G01 X17.5845 Y18.9472 
G01 X17.5557 Y18.8776 
G01 X17.5557 Y18.3812 
G01 X16.6737 Y19.2633 
G01 X16.6129 Y19.2984 
G01 X16.5451 Y19.3166 
G01 X16.4748 Y19.3166 
G01 X16.4070 Y19.2984 
G01 X16.3462 Y19.2633 
G01 X16.2966 Y19.2137 
G01 X14.8342 Y17.7512 
G01 X14.8342 Y17.7627 
G01 X14.8168 Y17.8047 
G01 X14.7847 Y17.8368 
G01 X14.7427 Y17.8542 
G01 X13.1972 Y17.8542 
G01 X13.1552 Y17.8368 
G01 X13.1231 Y17.8047 
G01 X13.1057 Y17.7627 
G01 X13.1057 Y16.7766 
G01 X12.6648 Y16.7766 
G01 X12.5970 Y16.7584 
G01 X12.5362 Y16.7233 
G01 X12.4866 Y16.6737 
G01 X11.2166 Y15.4037 
G01 X11.1815 Y15.3429 
G01 X11.1633 Y15.2751 
G01 X11.1633 Y15.2048 
G01 X11.1633 Y12.6648 
G01 X11.1815 Y12.5970 
G01 X11.2166 Y12.5362 
G01 X11.2662 Y12.4866 
G01 X12.4333 Y11.3195 
G01 X12.4333 Y5.9054 
G01 X12.3581 Y5.9054 
G01 X11.8745 Y5.4218 
G01 X11.8745 Y4.7381 
G01 X12.3581 Y4.2545 
G01 X13.0418 Y4.2545 
G01 X13.5254 Y4.7381 
G01 X13.5254 Y5.4218 
G01 X13.0418 Y5.9054 
G01 X12.9666 Y5.9054 
G01 X12.9666 Y11.3948 
G01 X12.9666 Y11.4651 
G01 X12.9484 Y11.5329 
G01 X12.9133 Y11.5937 
G01 X11.6966 Y12.8104 
G01 X11.6966 Y15.1295 
G01 X12.8104 Y16.2433 
G01 X13.1057 Y16.2433 
G01 X13.1057 Y16.2172 
G01 X13.1231 Y16.1752 
G01 X13.1552 Y16.1431 
G01 X13.1972 Y16.1257 
G01 X14.7427 Y16.1257 
G01 X14.7847 Y16.1431 
G01 X14.8168 Y16.1752 
G01 X14.8342 Y16.2172 
G01 X14.8342 Y16.9971 
G01 X16.5099 Y18.6729 
G01 X17.1787 Y18.0042 
G01 X16.6823 Y18.0042 
G01 X16.6127 Y17.9754 
G01 X16.5595 Y17.9222 
G01 X16.5307 Y17.8526 
G01 X16.5307 Y17.6273 
G01 X16.5595 Y17.5577 
G01 X16.6127 Y17.5045 
G01 X16.6480 Y17.4900 
G01 X16.6127 Y17.4754 
G01 X16.5595 Y17.4222 
G01 X16.5307 Y17.3526 
G01 X16.5307 Y17.1273 
G01 X16.5595 Y17.0577 
G01 X16.6127 Y17.0045 
G01 X16.6480 Y16.9900 
G01 X16.6127 Y16.9754 
G01 X16.5595 Y16.9222 
G01 X16.5307 Y16.8526 
G01 X16.5307 Y16.6273 
G01 X16.5595 Y16.5577 
G01 X16.6127 Y16.5045 
G01 X16.6480 Y16.4900 
G01 X16.6127 Y16.4754 
G01 X16.5595 Y16.4222 
G01 X16.5307 Y16.3526 
G01 X16.5307 Y16.1273 
G01 X16.5595 Y16.0577 
G01 X16.6107 Y16.0066 
G01 X15.7751 Y16.0066 
G01 X15.7048 Y16.0066 
G01 X15.6370 Y15.9884 
G01 X15.5762 Y15.9533 
G01 X15.0762 Y15.4533 
G01 X15.0266 Y15.4037 
G01 X14.9915 Y15.3429 
G01 X14.9733 Y15.2751 
G01 X14.9733 Y14.2366 
G01 X14.8342 Y14.2366 
G01 X14.8342 Y14.2627 
G01 X14.8168 Y14.3047 
G01 X14.7847 Y14.3368 
G01 X14.7427 Y14.3542 
G01 X13.1972 Y14.3542 
G01 X13.1552 Y14.3368 
G01 X13.1231 Y14.3047 
G01 X13.1057 Y14.2627 
G01 X13.1057 Y12.7172 
G01 X13.1231 Y12.6752 
G01 X13.1552 Y12.6431 
G01 X13.1972 Y12.6257 
G01 X14.7427 Y12.6257 
G01 X14.7847 Y12.6431 
G01 X14.8168 Y12.6752 
G01 X14.8342 Y12.7172 
G01 X14.8342 Y13.7033 
G01 X15.2751 Y13.7033 
G01 X15.3429 Y13.7215 
G01 X15.4037 Y13.7566 
G01 X15.4533 Y13.8062 
G01 X15.4884 Y13.8670 
G01 X15.5066 Y13.9348 
G01 X15.5066 Y14.0051 
G01 X15.5066 Y15.1295 
G01 X15.8504 Y15.4733 
G01 X16.1270 Y15.4733 
G01 X16.0922 Y15.4533 
G01 X15.8382 Y15.1993 
G01 X15.7886 Y15.1497 
G01 X15.7535 Y15.0889 
G01 X15.7353 Y15.0211 
G01 X15.7353 Y9.1791 
G01 X15.7353 Y9.1088 
G01 X15.7535 Y9.0410 
G01 X15.7886 Y8.9802 
G01 X18.7833 Y5.9855 
G01 X18.7833 Y0.7268 
G01 X18.8015 Y0.6590 
G01 X18.8366 Y0.5982 
G01 X18.8862 Y0.5486 
G01 X19.5986 Y-0.1636 
G01 X19.6482 Y-0.2133 
G01 X19.7090 Y-0.2484 
G01 X19.7768 Y-0.2666 
G01 X24.0947 Y-0.2666 
G01 X24.1651 Y-0.2666 
G01 X24.2329 Y-0.2484 
G01 X24.2937 Y-0.2133 
G01 X25.6133 Y1.1062 
G01 X25.6484 Y1.1670 
G01 X25.6666 Y1.2348 
G01 X25.6666 Y1.3051 
G01 X25.6666 Y11.3195 
G01 X26.7804 Y12.4333 
G01 X29.2451 Y12.4333 
G01 X29.3129 Y12.4515 
G01 X29.3737 Y12.4866 
G01 X29.4233 Y12.5362 
G01 X29.4584 Y12.5970 
G01 X29.4766 Y12.6648 
G01 X29.4766 Y12.7351 
G01 X29.4766 Y15.2751 
G01 X29.4584 Y15.3429 
G01 X29.4233 Y15.4037 
G01 X29.3737 Y15.4533 
G01 X28.1037 Y16.7233 
G01 X28.0429 Y16.7584 
G01 X27.9751 Y16.7766 
G01 X27.9048 Y16.7766 
G01 X26.6348 Y16.7766 
G01 X26.5670 Y16.7584 
G01 X26.5062 Y16.7233 
G01 X26.4566 Y16.6737 
G01 X25.2895 Y15.5066 
G01 X24.0292 Y15.5066 
G01 X24.0804 Y15.5577 
G01 X24.1092 Y15.6273 
G01 X24.1092 Y15.8526 
G01 X24.0804 Y15.9222 
G01 X24.0272 Y15.9754 
G01 X23.9920 Y15.9899 
G01 X24.0272 Y16.0045 
G01 X24.0804 Y16.0577 
G01 X24.1092 Y16.1273 
G01 X24.1092 Y16.3526 
G01 X24.0804 Y16.4222 
G01 X24.0272 Y16.4754 
G01 X23.9920 Y16.4899 
G01 X24.0272 Y16.5045 
G01 X24.0804 Y16.5577 
G01 X24.1092 Y16.6273 
G01 X24.1092 Y16.8526 
G01 X24.0804 Y16.9222 
G01 X24.0272 Y16.9754 
G01 X23.9920 Y16.9899 
G01 X24.0272 Y17.0045 
G01 X24.0804 Y17.0577 
G01 X24.1092 Y17.1273 
G01 X24.1092 Y17.3526 
G01 X24.0804 Y17.4222 
G01 X24.0272 Y17.4754 
G01 X23.9920 Y17.4899 
G01 X24.0272 Y17.5045 
G01 X24.0804 Y17.5577 
G01 X24.1092 Y17.6273 
G01 X24.1092 Y17.8526 
G01 X24.0804 Y17.9222 
G01 X24.0272 Y17.9754 
G01 X23.9576 Y18.0042 
G01 X23.3323 Y18.0042 
G01 X23.2627 Y17.9754 
G01 X23.2095 Y17.9222 
G01 X23.1807 Y17.8526 
G01 X23.1807 Y17.6273 
G01 X23.2095 Y17.5577 
G01 X23.2627 Y17.5045 
G01 X23.2979 Y17.4899 
G01 X23.2627 Y17.4754 
G01 X23.2095 Y17.4222 
G01 X23.1807 Y17.3526 
G01 X23.1807 Y17.1273 
G01 X23.2095 Y17.0577 
G01 X23.2627 Y17.0045 
G01 X23.2979 Y16.9899 
G01 X23.2627 Y16.9754 
G01 X23.2095 Y16.9222 
G01 X23.1807 Y16.8526 
G01 X23.1807 Y16.6273 
G01 X23.2095 Y16.5577 
G01 X23.2627 Y16.5045 
G01 X23.2979 Y16.4899 
G01 X23.2627 Y16.4754 
G01 X23.2095 Y16.4222 
G01 X23.1807 Y16.3526 
G01 X23.1807 Y16.1273 
G01 X23.2095 Y16.0577 
G01 X23.2627 Y16.0045 
G01 X23.2979 Y15.9899 
G01 X23.2627 Y15.9754 
G01 X23.2095 Y15.9222 
G01 X23.1807 Y15.8526 
G01 X23.1807 Y15.6273 
G01 X23.2095 Y15.5577 
G01 X23.2627 Y15.5045 
G01 X23.2979 Y15.4899 
G01 X23.2627 Y15.4754 
G01 X23.2095 Y15.4222 
G01 X23.1807 Y15.3526 
G01 X23.1807 Y15.1273 
G01 X23.2095 Y15.0577 
G01 X23.2627 Y15.0045 
G01 X23.2980 Y14.9899 
G01 X23.2627 Y14.9754 
G01 X23.2095 Y14.9222 
G01 X23.1807 Y14.8526 
G01 X23.1807 Y14.6273 
G01 X23.2095 Y14.5577 
G01 X23.2627 Y14.5045 
G01 X23.2980 Y14.4899 
G01 X23.2627 Y14.4754 
G01 X23.2095 Y14.4222 
G01 X23.1807 Y14.3526 
G01 X23.1807 Y14.1273 
G01 X23.2095 Y14.0577 
G01 X23.2627 Y14.0045 
G01 X23.2980 Y13.9899 
G01 X23.2627 Y13.9754 
G01 X23.2095 Y13.9222 
G01 X23.1807 Y13.8526 
G01 X23.1807 Y13.6273 
G01 X23.2095 Y13.5577 
G01 X23.2627 Y13.5045 
G01 X23.2980 Y13.4899 
G01 X23.2627 Y13.4754 
G01 X23.2095 Y13.4222 
G01 X23.1807 Y13.3526 
G01 X23.1807 Y13.1273 
G01 X23.2095 Y13.0577 
G01 X23.2627 Y13.0045 
G01 X23.2980 Y12.9899 
G01 X23.2627 Y12.9754 
G01 X23.2095 Y12.9222 
G01 X23.1807 Y12.8526 
G01 X23.1807 Y12.6273 
G01 X23.2095 Y12.5577 
G01 X23.2627 Y12.5045 
G01 X23.3323 Y12.4757 
G01 X23.9576 Y12.4757 
G01 X24.0272 Y12.5045 
G01 X24.0804 Y12.5577 
G01 X24.1092 Y12.6273 
G01 X24.1092 Y12.8526 
G01 X24.0804 Y12.9222 
G01 X24.0292 Y12.9733 
G01 X26.6948 Y12.9733 
G01 X26.7651 Y12.9733 
G01 X26.8329 Y12.9915 
G01 X26.8937 Y13.0266 
G01 X27.4528 Y13.5857 
G01 X28.7127 Y13.5857 
G01 X28.7547 Y13.6031 
G01 X28.7868 Y13.6352 
G01 X28.8042 Y13.6772 
G00 Z2.5400 
G00 X21.1454 Y4.7381 
G01 Z-0.1778 F254.00 
G01 X21.1454 Y5.4218 F508.00 
G01 X20.6618 Y5.9054 
G01 X19.9781 Y5.9054 
G01 X19.4945 Y5.4218 
G01 X19.4945 Y4.7381 
G01 X19.9781 Y4.2545 
G01 X20.6618 Y4.2545 
G01 X21.1454 Y4.7381 
G00 Z2.5400 
G00 X21.1454 Y2.1981 
G01 Z-0.1778 F254.00 
G01 X21.1454 Y2.8818 F508.00 
G01 X20.6618 Y3.3654 
G01 X19.9781 Y3.3654 
G01 X19.4945 Y2.8818 
G01 X19.4945 Y2.1981 
G01 X19.9781 Y1.7145 
G01 X20.6618 Y1.7145 
G01 X21.1454 Y2.1981 
G00 Z2.5400 
G00 X18.6054 Y4.7381 
G01 Z-0.1778 F254.00 
G01 X18.6054 Y5.4218 F508.00 
G01 X18.1218 Y5.9054 
G01 X17.4381 Y5.9054 
G01 X16.9545 Y5.4218 
G01 X16.9545 Y4.7381 
G01 X17.4381 Y4.2545 
G01 X18.1218 Y4.2545 
G01 X18.6054 Y4.7381 
G00 Z2.5400 
G00 X18.6054 Y2.1981 
G01 Z-0.1778 F254.00 
G01 X18.6054 Y2.8818 F508.00 
G01 X18.1218 Y3.3654 
G01 X17.4381 Y3.3654 
G01 X16.9545 Y2.8818 
G01 X16.9545 Y2.1981 
G01 X17.4381 Y1.7145 
G01 X18.1218 Y1.7145 
G01 X18.6054 Y2.1981 
G00 Z2.5400 
G00 X16.0654 Y4.7381 
G01 Z-0.1778 F254.00 
G01 X16.0654 Y5.4218 F508.00 
G01 X15.5818 Y5.9054 
G01 X14.8981 Y5.9054 
G01 X14.4145 Y5.4218 
G01 X14.4145 Y4.7381 
G01 X14.8981 Y4.2545 
G01 X15.5818 Y4.2545 
G01 X16.0654 Y4.7381 
G00 Z2.5400 
G00 X16.0654 Y2.1981 
G01 Z-0.1778 F254.00 
G01 X16.0654 Y2.8818 F508.00 
G01 X15.5818 Y3.3654 
G01 X14.8981 Y3.3654 
G01 X14.4145 Y2.8818 
G01 X14.4145 Y2.1981 
G01 X14.8981 Y1.7145 
G01 X15.5818 Y1.7145 
G01 X16.0654 Y2.1981 
G00 Z2.5400 
G00 X13.5254 Y2.1981 
G01 Z-0.1778 F254.00 
G01 X13.5254 Y2.8818 F508.00 
G01 X13.0418 Y3.3654 
G01 X12.3581 Y3.3654 
G01 X11.8745 Y2.8818 
G01 X11.8745 Y2.1981 
G01 X12.3581 Y1.7145 
G01 X13.0418 Y1.7145 
G01 X13.5254 Y2.1981 
G00 Z2.5400 
G00 X22.0170 Y17.9952 
G01 Z-0.1778 F254.00 
G01 X22.0699 Y18.0258 F508.00 
G01 X22.1229 Y17.9952 
G01 X22.1755 Y17.9812 
G01 X21.9643 Y17.9812 
G01 X22.0170 Y17.9952 
G00 Z2.5400 
G00 X21.5170 Y17.9952 
G01 Z-0.1778 F254.00 
G01 X21.5700 Y18.0259 F508.00 
G01 X21.6229 Y17.9952 
G01 X21.6756 Y17.9812 
G01 X21.4643 Y17.9812 
G01 X21.5170 Y17.9952 
G00 Z2.5400 
G00 X21.0170 Y17.9952 
G01 Z-0.1778 F254.00 
G01 X21.0700 Y18.0259 F508.00 
G01 X21.1229 Y17.9952 
G01 X21.1756 Y17.9812 
G01 X20.9643 Y17.9812 
G01 X21.0170 Y17.9952 
G00 Z2.5400 
G00 X20.5170 Y17.9952 
G01 Z-0.1778 F254.00 
G01 X20.5700 Y18.0259 F508.00 
G01 X20.6229 Y17.9952 
G01 X20.6756 Y17.9812 
G01 X20.4643 Y17.9812 
G01 X20.5170 Y17.9952 
G00 Z2.5400 
G00 X20.0170 Y17.9952 
G01 Z-0.1778 F254.00 
G01 X20.0700 Y18.0259 F508.00 
G01 X20.1229 Y17.9952 
G01 X20.1756 Y17.9812 
G01 X19.9643 Y17.9812 
G01 X20.0170 Y17.9952 
G00 Z2.5400 
G00 X19.5170 Y17.9952 
G01 Z-0.1778 F254.00 
G01 X19.5700 Y18.0259 F508.00 
G01 X19.6229 Y17.9952 
G01 X19.6756 Y17.9812 
G01 X19.4643 Y17.9812 
G01 X19.5170 Y17.9952 
G00 Z2.5400 
G00 X19.0170 Y17.9952 
G01 Z-0.1778 F254.00 
G01 X19.0700 Y18.0259 F508.00 
G01 X19.1229 Y17.9952 
G01 X19.1756 Y17.9812 
G01 X18.9643 Y17.9812 
G01 X19.0170 Y17.9952 
G00 Z2.5400 
G00 X18.5170 Y17.9952 
G01 Z-0.1778 F254.00 
G01 X18.5700 Y18.0259 F508.00 
G01 X18.6229 Y17.9952 
G01 X18.6756 Y17.9812 
G01 X18.4643 Y17.9812 
G01 X18.5170 Y17.9952 
G00 Z2.5400 
G00 X17.5647 Y16.9370 
G01 Z-0.1778 F254.00 
G01 X17.5340 Y16.9900 F508.00 
G01 X17.5647 Y17.0429 
G01 X17.5787 Y17.0956 
G01 X17.5787 Y16.8843 
G01 X17.5647 Y16.9370 
G00 Z2.5400 
G00 X17.5647 Y16.4370 
G01 Z-0.1778 F254.00 
G01 X17.5340 Y16.4900 F508.00 
G01 X17.5647 Y16.5429 
G01 X17.5787 Y16.5956 
G01 X17.5787 Y16.3843 
G01 X17.5647 Y16.4370 
G00 Z2.5400 
G00 X17.5647 Y15.9370 
G01 Z-0.1778 F254.00 
G01 X17.5340 Y15.9900 F508.00 
G01 X17.5647 Y16.0429 
G01 X17.5787 Y16.0956 
G01 X17.5787 Y15.8843 
G01 X17.5647 Y15.9370 
G00 Z2.5400 
G00 X17.5647 Y15.4370 
G01 Z-0.1778 F254.00 
G01 X17.5340 Y15.4900 F508.00 
G01 X17.5647 Y15.5429 
G01 X17.5787 Y15.5956 
G01 X17.5787 Y15.3843 
G01 X17.5647 Y15.4370 
G00 Z2.5400 
G00 X17.5647 Y14.9370 
G01 Z-0.1778 F254.00 
G01 X17.5340 Y14.9900 F508.00 
G01 X17.5647 Y15.0429 
G01 X17.5787 Y15.0956 
G01 X17.5787 Y14.8843 
G01 X17.5647 Y14.9370 
G00 Z2.5400 
G00 X17.5647 Y14.4370 
G01 Z-0.1778 F254.00 
G01 X17.5341 Y14.4900 F508.00 
G01 X17.5647 Y14.5429 
G01 X17.5787 Y14.5956 
G01 X17.5787 Y14.3843 
G01 X17.5647 Y14.4370 
G00 Z2.5400 
G00 X17.5647 Y13.9370 
G01 Z-0.1778 F254.00 
G01 X17.5341 Y13.9900 F508.00 
G01 X17.5647 Y14.0429 
G01 X17.5787 Y14.0956 
G01 X17.5787 Y13.8843 
G01 X17.5647 Y13.9370 
G00 Z2.5400 
G00 X17.5647 Y13.4370 
G01 Z-0.1778 F254.00 
G01 X17.5341 Y13.4900 F508.00 
G01 X17.5647 Y13.5429 
G01 X17.5787 Y13.5956 
G01 X17.5787 Y13.3843 
G01 X17.5647 Y13.4370 
G00 Z2.5400 
G00 X18.6229 Y12.4847 
G01 Z-0.1778 F254.00 
G01 X18.5699 Y12.4541 F508.00 
G01 X18.5170 Y12.4847 
G01 X18.4643 Y12.4987 
G01 X18.6756 Y12.4987 
G01 X18.6229 Y12.4847 
G00 Z2.5400 
G00 X19.1229 Y12.4847 
G01 Z-0.1778 F254.00 
G01 X19.0699 Y12.4541 F508.00 
G01 X19.0170 Y12.4847 
G01 X18.9643 Y12.4987 
G01 X19.1756 Y12.4987 
G01 X19.1229 Y12.4847 
G00 Z2.5400 
G00 X19.6229 Y12.4847 
G01 Z-0.1778 F254.00 
G01 X19.5699 Y12.4541 F508.00 
G01 X19.5170 Y12.4847 
G01 X19.4643 Y12.4987 
G01 X19.6756 Y12.4987 
G01 X19.6229 Y12.4847 
G00 Z2.5400 
G00 X20.1229 Y12.4847 
G01 Z-0.1778 F254.00 
G01 X20.0699 Y12.4541 F508.00 
G01 X20.0170 Y12.4847 
G01 X19.9643 Y12.4987 
G01 X20.1756 Y12.4987 
G01 X20.1229 Y12.4847 
G00 Z2.5400 
G00 X20.6229 Y12.4847 
G01 Z-0.1778 F254.00 
G01 X20.5699 Y12.4541 F508.00 
G01 X20.5170 Y12.4847 
G01 X20.4643 Y12.4987 
G01 X20.6756 Y12.4987 
G01 X20.6229 Y12.4847 
G00 Z2.5400 
G00 X21.1229 Y12.4847 
G01 Z-0.1778 F254.00 
G01 X21.0699 Y12.4541 F508.00 
G01 X21.0170 Y12.4847 
G01 X20.9643 Y12.4987 
G01 X21.1756 Y12.4987 
G01 X21.1229 Y12.4847 
G00 Z2.5400 
G00 X21.6229 Y12.4847 
G01 Z-0.1778 F254.00 
G01 X21.5699 Y12.4541 F508.00 
G01 X21.5170 Y12.4847 
G01 X21.4643 Y12.4987 
G01 X21.6755 Y12.4987 
G01 X21.6229 Y12.4847 
G00 Z2.5400 
G00 X22.1229 Y12.4847 
G01 Z-0.1778 F254.00 
G01 X22.0699 Y12.4541 F508.00 
G01 X22.0170 Y12.4847 
G01 X21.9644 Y12.4987 
G01 X22.1755 Y12.4987 
G01 X22.1229 Y12.4847 
G00 Z2.5400 
G00 X23.0752 Y13.5429 
G01 Z-0.1778 F254.00 
G01 X23.1058 Y13.4899 F508.00 
G01 X23.0752 Y13.4370 
G01 X23.0612 Y13.3844 
G01 X23.0612 Y13.5955 
G01 X23.0752 Y13.5429 
G00 Z2.5400 
G00 X23.0752 Y14.0429 
G01 Z-0.1778 F254.00 
G01 X23.1058 Y13.9899 F508.00 
G01 X23.0752 Y13.9370 
G01 X23.0612 Y13.8844 
G01 X23.0612 Y14.0955 
G01 X23.0752 Y14.0429 
G00 Z2.5400 
G00 X23.0752 Y14.5429 
G01 Z-0.1778 F254.00 
G01 X23.1058 Y14.4899 F508.00 
G01 X23.0752 Y14.4370 
G01 X23.0612 Y14.3844 
G01 X23.0612 Y14.5955 
G01 X23.0752 Y14.5429 
G00 Z2.5400 
G00 X23.0752 Y15.0429 
G01 Z-0.1778 F254.00 
G01 X23.1058 Y14.9899 F508.00 
G01 X23.0752 Y14.9370 
G01 X23.0612 Y14.8844 
G01 X23.0612 Y15.0955 
G01 X23.0752 Y15.0429 
G00 Z2.5400 
G00 X23.0752 Y15.5429 
G01 Z-0.1778 F254.00 
G01 X23.1058 Y15.4899 F508.00 
G01 X23.0752 Y15.4370 
G01 X23.0612 Y15.3844 
G01 X23.0612 Y15.5955 
G01 X23.0752 Y15.5429 
G00 Z2.5400 
G00 X23.0752 Y16.0429 
G01 Z-0.1778 F254.00 
G01 X23.1058 Y15.9899 F508.00 
G01 X23.0752 Y15.9370 
G01 X23.0612 Y15.8844 
G01 X23.0612 Y16.0955 
G01 X23.0752 Y16.0429 
G00 Z2.5400 
G00 X23.0752 Y16.5429 
G01 Z-0.1778 F254.00 
G01 X23.1058 Y16.4899 F508.00 
G01 X23.0752 Y16.4370 
G01 X23.0612 Y16.3844 
G01 X23.0612 Y16.5955 
G01 X23.0752 Y16.5429 
G00 Z2.5400 
G00 X23.0752 Y17.0429 
G01 Z-0.1778 F254.00 
G01 X23.1058 Y16.9899 F508.00 
G01 X23.0752 Y16.9370 
G01 X23.0612 Y16.8844 
G01 X23.0612 Y17.0955 
G01 X23.0752 Y17.0429 
G00 Z2.5400 
G00 X19.7136 Y8.9396 
G01 Z-0.1778 F254.00 
G01 X20.0049 Y8.6482 F508.00 
G01 X20.0782 Y8.5749 
G01 X20.1680 Y8.5231 
G01 X20.2681 Y8.4963 
G01 X22.4663 Y8.4963 
G01 X22.4663 Y5.9478 
G01 X22.4088 Y5.9240 
G01 X22.2528 Y5.8198 
G01 X22.1201 Y5.6871 
G01 X22.0159 Y5.5311 
G01 X21.9836 Y5.4530 
G01 X21.9836 Y6.2981 
G01 X21.9836 Y6.4018 
G01 X21.9568 Y6.5019 
G01 X21.9050 Y6.5917 
G01 X19.7136 Y8.7831 
G01 X19.7136 Y8.9396 
G00 Z2.5400 
G00 X20.7144 Y6.0324 
G01 Z-0.1778 F254.00 
G01 X19.9255 Y6.0324 F508.00 
G01 X19.4436 Y5.5504 
G01 X19.4436 Y6.1478 
G01 X19.4168 Y6.2479 
G01 X19.3650 Y6.3377 
G01 X19.2917 Y6.4110 
G01 X16.3956 Y9.3071 
G01 X16.3956 Y14.8228 
G01 X16.4037 Y14.8310 
G01 X16.4037 Y14.6233 
G01 X16.4252 Y14.5429 
G01 X16.4558 Y14.4900 
G01 X16.4252 Y14.4370 
G01 X16.4037 Y14.3566 
G01 X16.4037 Y14.1233 
G01 X16.4252 Y14.0429 
G01 X16.4558 Y13.9900 
G01 X16.4252 Y13.9370 
G01 X16.4037 Y13.8566 
G01 X16.4037 Y13.6233 
G01 X16.4252 Y13.5429 
G01 X16.4558 Y13.4900 
G01 X16.4252 Y13.4370 
G01 X16.4037 Y13.3566 
G01 X16.4037 Y13.1233 
G01 X16.4252 Y13.0429 
G01 X16.4558 Y12.9900 
G01 X16.4252 Y12.9370 
G01 X16.4037 Y12.8566 
G01 X16.4037 Y12.6233 
G01 X16.4252 Y12.5429 
G01 X16.4669 Y12.4707 
G01 X16.5257 Y12.4119 
G01 X16.5979 Y12.3702 
G01 X16.6783 Y12.3487 
G01 X17.3116 Y12.3487 
G01 X17.3920 Y12.3702 
G01 X17.4642 Y12.4119 
G01 X17.5230 Y12.4707 
G01 X17.5647 Y12.5429 
G01 X17.5862 Y12.6233 
G01 X17.5862 Y12.8566 
G01 X17.5647 Y12.9370 
G01 X17.5341 Y12.9900 
G01 X17.5647 Y13.0429 
G01 X17.5787 Y13.0956 
G01 X17.5787 Y12.9252 
G01 X17.6122 Y12.8003 
G01 X17.6768 Y12.6883 
G01 X17.7683 Y12.5968 
G01 X17.8803 Y12.5322 
G01 X18.0052 Y12.4987 
G01 X18.1756 Y12.4987 
G01 X18.1229 Y12.4847 
G01 X18.0699 Y12.4541 
G01 X18.0170 Y12.4847 
G01 X17.9366 Y12.5062 
G01 X17.7033 Y12.5062 
G01 X17.6229 Y12.4847 
G01 X17.5507 Y12.4430 
G01 X17.4919 Y12.3842 
G01 X17.4502 Y12.3120 
G01 X17.4287 Y12.2316 
G01 X17.4287 Y11.5983 
G01 X17.4502 Y11.5179 
G01 X17.4919 Y11.4457 
G01 X17.5507 Y11.3869 
G01 X17.6229 Y11.3452 
G01 X17.7033 Y11.3237 
G01 X17.9366 Y11.3237 
G01 X18.0170 Y11.3452 
G01 X18.0699 Y11.3758 
G01 X18.1229 Y11.3452 
G01 X18.2033 Y11.3237 
G01 X18.4366 Y11.3237 
G01 X18.5170 Y11.3452 
G01 X18.5699 Y11.3758 
G01 X18.6229 Y11.3452 
G01 X18.7033 Y11.3237 
G01 X18.9263 Y11.3237 
G01 X18.9263 Y8.6718 
G01 X18.9263 Y8.5681 
G01 X18.9531 Y8.4680 
G01 X19.0049 Y8.3782 
G01 X21.1963 Y6.1868 
G01 X21.1963 Y5.5504 
G01 X20.7144 Y6.0324 
G00 Z2.5400 
G00 X19.4436 Y0.9250 
G01 Z-0.1778 F254.00 
G01 X19.4436 Y2.0695 F508.00 
G01 X19.9255 Y1.5875 
G01 X20.7144 Y1.5875 
G01 X21.2724 Y2.1455 
G01 X21.2724 Y2.9344 
G01 X20.7144 Y3.4924 
G01 X19.9255 Y3.4924 
G01 X19.4436 Y3.0104 
G01 X19.4436 Y4.6095 
G01 X19.9255 Y4.1275 
G01 X20.7144 Y4.1275 
G01 X21.1963 Y4.6095 
G01 X21.1963 Y3.7581 
G01 X21.2231 Y3.6580 
G01 X21.2749 Y3.5682 
G01 X21.3482 Y3.4949 
G01 X21.9082 Y2.9350 
G01 X21.9075 Y2.1455 
G01 X22.4655 Y1.5875 
G01 X23.2544 Y1.5875 
G01 X23.8124 Y2.1455 
G01 X23.8124 Y2.9344 
G01 X23.2544 Y3.4924 
G01 X22.4655 Y3.4924 
G01 X21.9836 Y3.9731 
G01 X21.9836 Y4.7069 
G01 X22.0159 Y4.6288 
G01 X22.1201 Y4.4728 
G01 X22.2528 Y4.3401 
G01 X22.4088 Y4.2359 
G01 X22.5821 Y4.1641 
G01 X22.7661 Y4.1275 
G01 X22.9538 Y4.1275 
G01 X23.1378 Y4.1641 
G01 X23.3111 Y4.2359 
G01 X23.4671 Y4.3401 
G01 X23.5998 Y4.4728 
G01 X23.7040 Y4.6288 
G01 X23.7758 Y4.8021 
G01 X23.8124 Y4.9861 
G01 X23.8124 Y5.1738 
G01 X23.7758 Y5.3578 
G01 X23.7040 Y5.5311 
G01 X23.5998 Y5.6871 
G01 X23.4671 Y5.8198 
G01 X23.3111 Y5.9240 
G01 X23.2536 Y5.9478 
G01 X23.2536 Y8.8381 
G01 X23.2536 Y8.9418 
G01 X23.2268 Y9.0419 
G01 X23.1750 Y9.1317 
G01 X23.1017 Y9.2050 
G01 X23.0119 Y9.2568 
G01 X22.9118 Y9.2836 
G01 X20.4831 Y9.2836 
G01 X20.2136 Y9.5531 
G01 X20.2136 Y11.3237 
G01 X20.4366 Y11.3237 
G01 X20.5170 Y11.3452 
G01 X20.5699 Y11.3758 
G01 X20.6229 Y11.3452 
G01 X20.7033 Y11.3237 
G01 X20.9366 Y11.3237 
G01 X21.0170 Y11.3452 
G01 X21.0699 Y11.3758 
G01 X21.1229 Y11.3452 
G01 X21.2033 Y11.3237 
G01 X21.4366 Y11.3237 
G01 X21.5170 Y11.3452 
G01 X21.5699 Y11.3758 
G01 X21.6229 Y11.3452 
G01 X21.7033 Y11.3237 
G01 X21.9366 Y11.3237 
G01 X22.0170 Y11.3452 
G01 X22.0699 Y11.3758 
G01 X22.1229 Y11.3452 
G01 X22.2033 Y11.3237 
G01 X22.4366 Y11.3237 
G01 X22.5170 Y11.3452 
G01 X22.5699 Y11.3758 
G01 X22.6229 Y11.3452 
G01 X22.7033 Y11.3237 
G01 X22.9366 Y11.3237 
G01 X23.0170 Y11.3452 
G01 X23.0892 Y11.3869 
G01 X23.1480 Y11.4457 
G01 X23.1897 Y11.5179 
G01 X23.2112 Y11.5983 
G01 X23.2112 Y12.2316 
G01 X23.1897 Y12.3120 
G01 X23.1480 Y12.3842 
G01 X23.0892 Y12.4430 
G01 X23.0170 Y12.4847 
G01 X22.9366 Y12.5062 
G01 X22.7033 Y12.5062 
G01 X22.6229 Y12.4847 
G01 X22.5699 Y12.4541 
G01 X22.5170 Y12.4847 
G01 X22.4644 Y12.4987 
G01 X22.6347 Y12.4987 
G01 X22.7596 Y12.5322 
G01 X22.8716 Y12.5968 
G01 X22.9631 Y12.6883 
G01 X23.0277 Y12.8003 
G01 X23.0612 Y12.9252 
G01 X23.0612 Y13.0955 
G01 X23.0752 Y13.0429 
G01 X23.1058 Y12.9899 
G01 X23.0752 Y12.9370 
G01 X23.0537 Y12.8566 
G01 X23.0537 Y12.6233 
G01 X23.0752 Y12.5429 
G01 X23.1169 Y12.4707 
G01 X23.1757 Y12.4119 
G01 X23.2479 Y12.3702 
G01 X23.3283 Y12.3487 
G01 X23.9616 Y12.3487 
G01 X24.0420 Y12.3702 
G01 X24.1142 Y12.4119 
G01 X24.1730 Y12.4707 
G01 X24.2147 Y12.5429 
G01 X24.2362 Y12.6233 
G01 X24.2362 Y12.8463 
G01 X26.2596 Y12.8463 
G01 X25.1582 Y11.7450 
G01 X25.0849 Y11.6717 
G01 X25.0331 Y11.5819 
G01 X25.0063 Y11.4818 
G01 X25.0063 Y1.4331 
G01 X23.9668 Y0.3936 
G01 X19.9750 Y0.3936 
G01 X19.4436 Y0.9250 
G00 Z2.5400 
G00 X28.7380 Y13.4587 
G01 Z-0.1778 F254.00 
G01 X28.8163 Y13.4912 F508.00 
G01 X28.8163 Y13.0936 
G01 X27.1403 Y13.0936 
G01 X27.5055 Y13.4587 
G01 X28.7380 Y13.4587 
G00 Z2.5400 
G00 X24.2362 Y13.8566 
G01 Z-0.1778 F254.00 
G01 X24.2147 Y13.9370 F508.00 
G01 X24.1841 Y13.9899 
G01 X24.2147 Y14.0429 
G01 X24.2362 Y14.1233 
G01 X24.2362 Y14.3566 
G01 X24.2147 Y14.4370 
G01 X24.1841 Y14.4899 
G01 X24.2147 Y14.5429 
G01 X24.2362 Y14.6233 
G01 X24.2362 Y14.8463 
G01 X25.3481 Y14.8463 
G01 X25.4518 Y14.8463 
G01 X25.5519 Y14.8731 
G01 X25.6417 Y14.9249 
G01 X26.8331 Y16.1163 
G01 X27.7768 Y16.1163 
G01 X28.4520 Y15.4412 
G01 X27.1419 Y15.4412 
G01 X27.0533 Y15.4045 
G01 X26.9854 Y15.3366 
G01 X26.9487 Y15.2480 
G01 X26.9487 Y14.0155 
G01 X26.5668 Y13.6336 
G01 X24.2362 Y13.6336 
G01 X24.2362 Y13.8566 
G00 Z2.5400 
G00 X17.5787 Y17.3843 
G01 Z-0.1778 F254.00 
G01 X17.5647 Y17.4370 F508.00 
G01 X17.5625 Y17.4407 
G01 X17.5787 Y17.4245 
G01 X17.5787 Y17.3843 
G00 Z2.5400 
G00 X18.1229 Y17.9952 
G01 Z-0.1778 F254.00 
G01 X18.1756 Y17.9812 F508.00 
G01 X18.1354 Y17.9812 
G01 X18.1192 Y17.9974 
G01 X18.1229 Y17.9952 
G00 Z2.5400 
G00 X23.2112 Y18.2483 
G01 Z-0.1778 F254.00 
G01 X23.2112 Y18.8816 F508.00 
G01 X23.1897 Y18.9620 
G01 X23.1480 Y19.0342 
G01 X23.0892 Y19.0930 
G01 X23.0170 Y19.1347 
G01 X22.9366 Y19.1562 
G01 X22.7033 Y19.1562 
G01 X22.6229 Y19.1347 
G01 X22.5700 Y19.1041 
G01 X22.5170 Y19.1347 
G01 X22.4366 Y19.1562 
G01 X22.2033 Y19.1562 
G01 X22.1229 Y19.1347 
G01 X22.0699 Y19.1041 
G01 X22.0170 Y19.1347 
G01 X21.9366 Y19.1562 
G01 X21.7033 Y19.1562 
G01 X21.6229 Y19.1347 
G01 X21.5700 Y19.1040 
G01 X21.5170 Y19.1347 
G01 X21.4366 Y19.1562 
G01 X21.2033 Y19.1562 
G01 X21.1229 Y19.1347 
G01 X21.0700 Y19.1040 
G01 X21.0170 Y19.1347 
G01 X20.9366 Y19.1562 
G01 X20.7033 Y19.1562 
G01 X20.6229 Y19.1347 
G01 X20.5700 Y19.1040 
G01 X20.5170 Y19.1347 
G01 X20.4366 Y19.1562 
G01 X20.2033 Y19.1562 
G01 X20.1229 Y19.1347 
G01 X20.0700 Y19.1040 
G01 X20.0170 Y19.1347 
G01 X19.9366 Y19.1562 
G01 X19.7033 Y19.1562 
G01 X19.6229 Y19.1347 
G01 X19.5700 Y19.1040 
G01 X19.5170 Y19.1347 
G01 X19.4366 Y19.1562 
G01 X19.2136 Y19.1562 
G01 X19.2136 Y19.9263 
G01 X26.5068 Y19.9263 
G01 X30.0863 Y16.3468 
G01 X30.0863 Y11.5931 
G01 X29.8368 Y11.3436 
G01 X28.9312 Y11.3436 
G01 X28.9312 Y11.7480 
G01 X28.8945 Y11.8366 
G01 X28.8266 Y11.9045 
G01 X28.7380 Y11.9412 
G01 X27.1419 Y11.9412 
G01 X27.0533 Y11.9045 
G01 X26.9854 Y11.8366 
G01 X26.9487 Y11.7480 
G01 X26.9487 Y10.1519 
G01 X26.9854 Y10.0633 
G01 X27.0533 Y9.9954 
G01 X27.1419 Y9.9587 
G01 X28.7380 Y9.9587 
G01 X28.8266 Y9.9954 
G01 X28.8945 Y10.0633 
G01 X28.9312 Y10.1519 
G01 X28.9312 Y10.5563 
G01 X29.9481 Y10.5563 
G01 X30.0518 Y10.5563 
G01 X30.1519 Y10.5831 
G01 X30.2417 Y10.6349 
G01 X30.7217 Y11.1149 
G01 X30.7950 Y11.1882 
G01 X30.8468 Y11.2780 
G01 X30.8736 Y11.3781 
G01 X30.8736 Y16.4581 
G01 X30.8736 Y16.5618 
G01 X30.8468 Y16.6619 
G01 X30.7950 Y16.7517 
G01 X26.9850 Y20.5617 
G01 X26.9117 Y20.6350 
G01 X26.8219 Y20.6868 
G01 X26.7218 Y20.7136 
G01 X18.9981 Y20.7136 
G01 X18.8980 Y20.6868 
G01 X18.8082 Y20.6350 
G01 X18.7349 Y20.5617 
G01 X18.5049 Y20.3317 
G01 X18.4531 Y20.2419 
G01 X18.4263 Y20.1418 
G01 X18.4263 Y20.0381 
G01 X18.4263 Y19.1562 
G01 X18.2033 Y19.1562 
G01 X18.1229 Y19.1347 
G01 X18.0700 Y19.1041 
G01 X18.0170 Y19.1347 
G01 X17.9366 Y19.1562 
G01 X17.7033 Y19.1562 
G01 X17.6229 Y19.1347 
G01 X17.5507 Y19.0930 
G01 X17.4919 Y19.0342 
G01 X17.4502 Y18.9620 
G01 X17.4287 Y18.8816 
G01 X17.4287 Y18.6879 
G01 X16.7517 Y19.3650 
G01 X16.6619 Y19.4168 
G01 X16.5618 Y19.4436 
G01 X16.4581 Y19.4436 
G01 X16.3580 Y19.4168 
G01 X16.2682 Y19.3650 
G01 X16.1949 Y19.2917 
G01 X14.8503 Y17.9470 
G01 X14.7680 Y17.9812 
G01 X13.1719 Y17.9812 
G01 X13.0833 Y17.9445 
G01 X13.0154 Y17.8766 
G01 X12.9787 Y17.7880 
G01 X12.9787 Y16.9036 
G01 X12.6481 Y16.9036 
G01 X12.5480 Y16.8768 
G01 X12.4582 Y16.8250 
G01 X12.3849 Y16.7517 
G01 X11.1149 Y15.4817 
G01 X11.0631 Y15.3919 
G01 X11.0363 Y15.2918 
G01 X11.0363 Y15.1881 
G01 X11.0363 Y12.6481 
G01 X11.0631 Y12.5480 
G01 X11.1149 Y12.4582 
G01 X11.1882 Y12.3849 
G01 X12.3063 Y11.2668 
G01 X12.3063 Y6.0324 
G01 X11.7475 Y5.4744 
G01 X11.7475 Y4.6855 
G01 X12.3055 Y4.1275 
G01 X13.0944 Y4.1275 
G01 X13.6524 Y4.6855 
G01 X13.6524 Y5.4744 
G01 X13.0944 Y6.0324 
G01 X13.0936 Y11.3781 
G01 X13.0936 Y11.4818 
G01 X13.0668 Y11.5819 
G01 X13.0150 Y11.6717 
G01 X11.8236 Y12.8631 
G01 X11.8236 Y15.0768 
G01 X12.8631 Y16.1163 
G01 X13.0101 Y16.1163 
G01 X13.0154 Y16.1033 
G01 X13.0833 Y16.0354 
G01 X13.1719 Y15.9987 
G01 X14.7680 Y15.9987 
G01 X14.8566 Y16.0354 
G01 X14.9245 Y16.1033 
G01 X14.9612 Y16.1919 
G01 X14.9612 Y16.9444 
G01 X16.5099 Y18.4932 
G01 X16.8720 Y18.1312 
G01 X16.6783 Y18.1312 
G01 X16.5979 Y18.1097 
G01 X16.5257 Y18.0680 
G01 X16.4669 Y18.0092 
G01 X16.4252 Y17.9370 
G01 X16.4037 Y17.8566 
G01 X16.4037 Y17.6233 
G01 X16.4252 Y17.5429 
G01 X16.4559 Y17.4900 
G01 X16.4252 Y17.4370 
G01 X16.4037 Y17.3566 
G01 X16.4037 Y17.1233 
G01 X16.4252 Y17.0429 
G01 X16.4559 Y16.9900 
G01 X16.4252 Y16.9370 
G01 X16.4037 Y16.8566 
G01 X16.4037 Y16.6233 
G01 X16.4252 Y16.5429 
G01 X16.4559 Y16.4900 
G01 X16.4252 Y16.4370 
G01 X16.4037 Y16.3566 
G01 X16.4037 Y16.1336 
G01 X15.7918 Y16.1336 
G01 X15.6881 Y16.1336 
G01 X15.5880 Y16.1068 
G01 X15.4982 Y16.0550 
G01 X14.9982 Y15.5550 
G01 X14.9249 Y15.4817 
G01 X14.8731 Y15.3919 
G01 X14.8463 Y15.2918 
G01 X14.8463 Y14.4487 
G01 X14.7680 Y14.4812 
G01 X13.1719 Y14.4812 
G01 X13.0833 Y14.4445 
G01 X13.0154 Y14.3766 
G01 X12.9787 Y14.2880 
G01 X12.9787 Y12.6919 
G01 X13.0154 Y12.6033 
G01 X13.0833 Y12.5354 
G01 X13.1719 Y12.4987 
G01 X14.7680 Y12.4987 
G01 X14.8566 Y12.5354 
G01 X14.9245 Y12.6033 
G01 X14.9612 Y12.6919 
G01 X14.9612 Y13.5763 
G01 X15.2918 Y13.5763 
G01 X15.3919 Y13.6031 
G01 X15.4817 Y13.6549 
G01 X15.5550 Y13.7282 
G01 X15.6068 Y13.8180 
G01 X15.6083 Y13.8238 
G01 X15.6083 Y9.1958 
G01 X15.6083 Y9.0921 
G01 X15.6351 Y8.9920 
G01 X15.6869 Y8.9022 
G01 X18.6563 Y5.9328 
G01 X18.6563 Y5.5504 
G01 X18.1744 Y6.0324 
G01 X17.3855 Y6.0324 
G01 X16.8275 Y5.4744 
G01 X16.8275 Y4.6855 
G01 X17.3855 Y4.1275 
G01 X18.1744 Y4.1275 
G01 X18.6563 Y4.6095 
G01 X18.6563 Y3.0104 
G01 X18.1744 Y3.4924 
G01 X17.3855 Y3.4924 
G01 X16.8275 Y2.9344 
G01 X16.8275 Y2.1455 
G01 X17.3855 Y1.5875 
G01 X18.1744 Y1.5875 
G01 X18.6563 Y2.0695 
G01 X18.6563 Y0.7101 
G01 X18.6831 Y0.6100 
G01 X18.7349 Y0.5202 
G01 X18.8082 Y0.4469 
G01 X19.4969 Y-0.2416 
G01 X19.5702 Y-0.3150 
G01 X19.6600 Y-0.3668 
G01 X19.7601 Y-0.3936 
G01 X24.0780 Y-0.3936 
G01 X24.1818 Y-0.3936 
G01 X24.2819 Y-0.3668 
G01 X24.3717 Y-0.3150 
G01 X25.7150 Y1.0282 
G01 X25.7668 Y1.1180 
G01 X25.7936 Y1.2181 
G01 X25.7936 Y1.3218 
G01 X25.7936 Y11.2668 
G01 X26.8331 Y12.3063 
G01 X29.2618 Y12.3063 
G01 X29.3619 Y12.3331 
G01 X29.4517 Y12.3849 
G01 X29.5250 Y12.4582 
G01 X29.5768 Y12.5480 
G01 X29.6036 Y12.6481 
G01 X29.6036 Y12.7518 
G01 X29.6036 Y15.2918 
G01 X29.5768 Y15.3919 
G01 X29.5250 Y15.4817 
G01 X29.4517 Y15.5550 
G01 X28.1817 Y16.8250 
G01 X28.0919 Y16.8768 
G01 X27.9918 Y16.9036 
G01 X27.8881 Y16.9036 
G01 X26.6181 Y16.9036 
G01 X26.5180 Y16.8768 
G01 X26.4282 Y16.8250 
G01 X26.3549 Y16.7517 
G01 X25.2368 Y15.6336 
G01 X24.2362 Y15.6336 
G01 X24.2362 Y15.8566 
G01 X24.2147 Y15.9370 
G01 X24.1841 Y15.9899 
G01 X24.2147 Y16.0429 
G01 X24.2362 Y16.1233 
G01 X24.2362 Y16.3566 
G01 X24.2147 Y16.4370 
G01 X24.1841 Y16.4899 
G01 X24.2147 Y16.5429 
G01 X24.2362 Y16.6233 
G01 X24.2362 Y16.8566 
G01 X24.2147 Y16.9370 
G01 X24.1841 Y16.9899 
G01 X24.2147 Y17.0429 
G01 X24.2362 Y17.1233 
G01 X24.2362 Y17.3566 
G01 X24.2147 Y17.4370 
G01 X24.1841 Y17.4899 
G01 X24.2147 Y17.5429 
G01 X24.2362 Y17.6233 
G01 X24.2362 Y17.8566 
G01 X24.2147 Y17.9370 
G01 X24.1730 Y18.0092 
G01 X24.1142 Y18.0680 
G01 X24.0420 Y18.1097 
G01 X23.9616 Y18.1312 
G01 X23.3283 Y18.1312 
G01 X23.2479 Y18.1097 
G01 X23.1757 Y18.0680 
G01 X23.1169 Y18.0092 
G01 X23.0752 Y17.9370 
G01 X23.0537 Y17.8566 
G01 X23.0537 Y17.6233 
G01 X23.0752 Y17.5429 
G01 X23.1058 Y17.4899 
G01 X23.0752 Y17.4370 
G01 X23.0612 Y17.3844 
G01 X23.0612 Y17.5547 
G01 X23.0277 Y17.6796 
G01 X22.9631 Y17.7916 
G01 X22.8716 Y17.8831 
G01 X22.7596 Y17.9477 
G01 X22.6347 Y17.9812 
G01 X22.4644 Y17.9812 
G01 X22.5170 Y17.9952 
G01 X22.5700 Y18.0258 
G01 X22.6229 Y17.9952 
G01 X22.7033 Y17.9737 
G01 X22.9366 Y17.9737 
G01 X23.0170 Y17.9952 
G01 X23.0892 Y18.0369 
G01 X23.1480 Y18.0957 
G01 X23.1897 Y18.1679 
G01 X23.2112 Y18.2483 
G00 Z2.5400 
G00 X16.1924 Y4.6855 
G01 Z-0.1778 F254.00 
G01 X16.1924 Y5.4744 F508.00 
G01 X15.6344 Y6.0324 
G01 X14.8455 Y6.0324 
G01 X14.2875 Y5.4744 
G01 X14.2875 Y4.6855 
G01 X14.8455 Y4.1275 
G01 X15.6344 Y4.1275 
G01 X16.1924 Y4.6855 
G00 Z2.5400 
G00 X16.1924 Y2.1455 
G01 Z-0.1778 F254.00 
G01 X16.1924 Y2.9344 F508.00 
G01 X15.6344 Y3.4924 
G01 X14.8455 Y3.4924 
G01 X14.2875 Y2.9344 
G01 X14.2875 Y2.1455 
G01 X14.8455 Y1.5875 
G01 X15.6344 Y1.5875 
G01 X16.1924 Y2.1455 
G00 Z2.5400 
G00 X13.6524 Y2.1455 
G01 Z-0.1778 F254.00 
G01 X13.6524 Y2.9344 F508.00 
G01 X13.0944 Y3.4924 
G01 X12.3055 Y3.4924 
G01 X11.7475 Y2.9344 
G01 X11.7475 Y2.1455 
G01 X12.3055 Y1.5875 
G01 X13.0944 Y1.5875 
G01 X13.6524 Y2.1455 
G00 Z2.5400 
G00 X24.3632 Y13.8733 
G01 Z-0.1778 F254.00 
G01 X24.3330 Y13.9861 F508.00 
G01 X24.3307 Y13.9899 
G01 X24.3330 Y13.9938 
G01 X24.3632 Y14.1066 
G01 X24.3632 Y14.3733 
G01 X24.3330 Y14.4861 
G01 X24.3307 Y14.4899 
G01 X24.3330 Y14.4938 
G01 X24.3632 Y14.6066 
G01 X24.3632 Y14.7193 
G01 X25.3314 Y14.7193 
G01 X25.4685 Y14.7193 
G01 X25.6009 Y14.7548 
G01 X25.7197 Y14.8233 
G01 X26.8857 Y15.9893 
G01 X27.7242 Y15.9893 
G01 X28.1454 Y15.5682 
G01 X27.1414 Y15.5682 
G01 X27.0478 Y15.5431 
G01 X26.9638 Y15.4946 
G01 X26.8953 Y15.4261 
G01 X26.8468 Y15.3421 
G01 X26.8217 Y15.2485 
G01 X26.8217 Y14.0681 
G01 X26.5142 Y13.7606 
G01 X24.3632 Y13.7606 
G01 X24.3632 Y13.8733 
G00 Z2.5400 
G00 X28.6893 Y13.3317 
G01 Z-0.1778 F254.00 
G01 X28.6893 Y13.2206 F508.00 
G01 X27.4469 Y13.2206 
G01 X27.5581 Y13.3317 
G01 X28.6893 Y13.3317 
G00 Z2.5400 
G00 X22.3393 Y8.3693 
G01 Z-0.1778 F254.00 
G01 X22.3393 Y6.0261 F508.00 
G01 X22.2942 Y6.0032 
G01 X22.1567 Y5.9033 
G01 X22.1106 Y5.8571 
G01 X22.1106 Y6.2814 
G01 X22.1106 Y6.4185 
G01 X22.0751 Y6.5509 
G01 X22.0066 Y6.6697 
G01 X20.3069 Y8.3693 
G01 X22.3393 Y8.3693 
G00 Z2.5400 
G00 X20.7671 Y6.1594 
G01 Z-0.1778 F254.00 
G01 X19.8728 Y6.1594 F508.00 
G01 X19.5706 Y5.8571 
G01 X19.5706 Y6.1645 
G01 X19.5351 Y6.2969 
G01 X19.4666 Y6.4157 
G01 X19.3697 Y6.5126 
G01 X16.5226 Y9.3597 
G01 X16.5226 Y12.2671 
G01 X16.5488 Y12.2519 
G01 X16.6616 Y12.2217 
G01 X17.3017 Y12.2217 
G01 X17.3017 Y11.5816 
G01 X17.3319 Y11.4688 
G01 X17.3903 Y11.3678 
G01 X17.4728 Y11.2853 
G01 X17.5738 Y11.2269 
G01 X17.6866 Y11.1967 
G01 X17.9533 Y11.1967 
G01 X18.0661 Y11.2269 
G01 X18.0699 Y11.2292 
G01 X18.0738 Y11.2269 
G01 X18.1866 Y11.1967 
G01 X18.4533 Y11.1967 
G01 X18.5661 Y11.2269 
G01 X18.5699 Y11.2292 
G01 X18.5738 Y11.2269 
G01 X18.6866 Y11.1967 
G01 X18.7993 Y11.1967 
G01 X18.7993 Y8.6885 
G01 X18.7993 Y8.5514 
G01 X18.8348 Y8.4190 
G01 X18.9033 Y8.3002 
G01 X21.0693 Y6.1342 
G01 X21.0693 Y5.8571 
G01 X20.7671 Y6.1594 
G00 Z2.5400 
G00 X23.9394 Y2.0928 
G01 Z-0.1778 F254.00 
G01 X23.9394 Y2.9871 F508.00 
G01 X23.3071 Y3.6194 
G01 X22.5169 Y3.6194 
G01 X22.1106 Y4.0257 
G01 X22.1106 Y4.3028 
G01 X22.1567 Y4.2566 
G01 X22.2942 Y4.1567 
G01 X22.4456 Y4.0796 
G01 X22.6071 Y4.0271 
G01 X22.7749 Y4.0005 
G01 X22.9450 Y4.0005 
G01 X23.1128 Y4.0271 
G01 X23.2743 Y4.0796 
G01 X23.4257 Y4.1567 
G01 X23.5632 Y4.2566 
G01 X23.6833 Y4.3767 
G01 X23.7832 Y4.5142 
G01 X23.8603 Y4.6656 
G01 X23.9128 Y4.8271 
G01 X23.9394 Y4.9949 
G01 X23.9394 Y5.1650 
G01 X23.9128 Y5.3328 
G01 X23.8603 Y5.4943 
G01 X23.7832 Y5.6457 
G01 X23.6833 Y5.7832 
G01 X23.5632 Y5.9033 
G01 X23.4257 Y6.0032 
G01 X23.3806 Y6.0261 
G01 X23.3806 Y8.8214 
G01 X23.3806 Y8.9585 
G01 X23.3451 Y9.0909 
G01 X23.2766 Y9.2097 
G01 X23.1797 Y9.3066 
G01 X23.0609 Y9.3751 
G01 X22.9285 Y9.4106 
G01 X20.5357 Y9.4106 
G01 X20.3406 Y9.6057 
G01 X20.3406 Y11.1967 
G01 X20.4533 Y11.1967 
G01 X20.5661 Y11.2269 
G01 X20.5699 Y11.2292 
G01 X20.5738 Y11.2269 
G01 X20.6866 Y11.1967 
G01 X20.9533 Y11.1967 
G01 X21.0661 Y11.2269 
G01 X21.0699 Y11.2292 
G01 X21.0738 Y11.2269 
G01 X21.1866 Y11.1967 
G01 X21.4533 Y11.1967 
G01 X21.5661 Y11.2269 
G01 X21.5699 Y11.2292 
G01 X21.5738 Y11.2269 
G01 X21.6866 Y11.1967 
G01 X21.9533 Y11.1967 
G01 X22.0661 Y11.2269 
G01 X22.0699 Y11.2292 
G01 X22.0738 Y11.2269 
G01 X22.1866 Y11.1967 
G01 X22.4533 Y11.1967 
G01 X22.5661 Y11.2269 
G01 X22.5699 Y11.2292 
G01 X22.5738 Y11.2269 
G01 X22.6866 Y11.1967 
G01 X22.9533 Y11.1967 
G01 X23.0661 Y11.2269 
G01 X23.1671 Y11.2853 
G01 X23.2496 Y11.3678 
G01 X23.3080 Y11.4688 
G01 X23.3382 Y11.5816 
G01 X23.3382 Y12.2217 
G01 X23.9783 Y12.2217 
G01 X24.0911 Y12.2519 
G01 X24.1921 Y12.3103 
G01 X24.2746 Y12.3928 
G01 X24.3330 Y12.4938 
G01 X24.3632 Y12.6066 
G01 X24.3632 Y12.7193 
G01 X25.9530 Y12.7193 
G01 X25.0802 Y11.8466 
G01 X24.9833 Y11.7497 
G01 X24.9148 Y11.6309 
G01 X24.8793 Y11.4985 
G01 X24.8793 Y1.4857 
G01 X23.9142 Y0.5206 
G01 X20.0276 Y0.5206 
G01 X19.5706 Y0.9776 
G01 X19.5706 Y1.7628 
G01 X19.8728 Y1.4605 
G01 X20.7671 Y1.4605 
G01 X21.3994 Y2.0928 
G01 X21.3994 Y2.9871 
G01 X20.7671 Y3.6194 
G01 X19.8728 Y3.6194 
G01 X19.5706 Y3.3171 
G01 X19.5706 Y4.3028 
G01 X19.8728 Y4.0005 
G01 X20.7671 Y4.0005 
G01 X21.0693 Y4.3028 
G01 X21.0693 Y3.7414 
G01 X21.1048 Y3.6090 
G01 X21.1733 Y3.4902 
G01 X21.2702 Y3.3933 
G01 X21.7805 Y2.8830 
G01 X21.7805 Y2.0928 
G01 X22.4128 Y1.4605 
G01 X23.3071 Y1.4605 
G01 X23.9394 Y2.0928 
G00 Z2.5400 
G00 X13.7794 Y2.0928 
G01 Z-0.1778 F254.00 
G01 X13.7794 Y2.9871 F508.00 
G01 X13.1471 Y3.6194 
G01 X12.2528 Y3.6194 
G01 X11.6205 Y2.9871 
G01 X11.6205 Y2.0928 
G01 X12.2528 Y1.4605 
G01 X13.1471 Y1.4605 
G01 X13.7794 Y2.0928 
G00 Z2.5400 
G00 X16.3194 Y2.0928 
G01 Z-0.1778 F254.00 
G01 X16.3194 Y2.9871 F508.00 
G01 X15.6871 Y3.6194 
G01 X14.7928 Y3.6194 
G01 X14.1605 Y2.9871 
G01 X14.1605 Y2.0928 
G01 X14.7928 Y1.4605 
G01 X15.6871 Y1.4605 
G01 X16.3194 Y2.0928 
G00 Z2.5400 
G00 X16.3194 Y4.6328 
G01 Z-0.1778 F254.00 
G01 X16.3194 Y5.5271 F508.00 
G01 X15.6871 Y6.1594 
G01 X14.7928 Y6.1594 
G01 X14.1605 Y5.5271 
G01 X14.1605 Y4.6328 
G01 X14.7928 Y4.0005 
G01 X15.6871 Y4.0005 
G01 X16.3194 Y4.6328 
G00 Z2.5400 
G00 X29.0582 Y10.1514 
G01 Z-0.1778 F254.00 
G01 X29.0582 Y10.4293 F508.00 
G01 X29.9314 Y10.4293 
G01 X30.0685 Y10.4293 
G01 X30.2009 Y10.4648 
G01 X30.3197 Y10.5333 
G01 X30.7997 Y11.0133 
G01 X30.8966 Y11.1102 
G01 X30.9651 Y11.2290 
G01 X31.0006 Y11.3614 
G01 X31.0006 Y16.4414 
G01 X31.0006 Y16.5785 
G01 X30.9651 Y16.7109 
G01 X30.8966 Y16.8297 
G01 X27.0866 Y20.6397 
G01 X26.9897 Y20.7366 
G01 X26.8709 Y20.8051 
G01 X26.7385 Y20.8406 
G01 X18.9814 Y20.8406 
G01 X18.8490 Y20.8051 
G01 X18.7302 Y20.7366 
G01 X18.6333 Y20.6397 
G01 X18.4033 Y20.4097 
G01 X18.3348 Y20.2909 
G01 X18.2993 Y20.1585 
G01 X18.2993 Y20.0214 
G01 X18.2993 Y19.2832 
G01 X18.1866 Y19.2832 
G01 X18.0738 Y19.2530 
G01 X18.0700 Y19.2507 
G01 X18.0661 Y19.2530 
G01 X17.9533 Y19.2832 
G01 X17.6866 Y19.2832 
G01 X17.5738 Y19.2530 
G01 X17.4728 Y19.1946 
G01 X17.3903 Y19.1121 
G01 X17.3319 Y19.0111 
G01 X17.3221 Y18.9741 
G01 X16.8297 Y19.4666 
G01 X16.7109 Y19.5351 
G01 X16.5785 Y19.5706 
G01 X16.4414 Y19.5706 
G01 X16.3090 Y19.5351 
G01 X16.1902 Y19.4666 
G01 X16.0933 Y19.3697 
G01 X14.8184 Y18.0947 
G01 X14.7685 Y18.1082 
G01 X13.1714 Y18.1082 
G01 X13.0778 Y18.0831 
G01 X12.9938 Y18.0346 
G01 X12.9253 Y17.9661 
G01 X12.8768 Y17.8821 
G01 X12.8517 Y17.7885 
G01 X12.8517 Y17.0306 
G01 X12.6314 Y17.0306 
G01 X12.4990 Y16.9951 
G01 X12.3802 Y16.9266 
G01 X12.2833 Y16.8297 
G01 X11.0133 Y15.5597 
G01 X10.9448 Y15.4409 
G01 X10.9093 Y15.3085 
G01 X10.9093 Y15.1714 
G01 X10.9093 Y12.6314 
G01 X10.9448 Y12.4990 
G01 X11.0133 Y12.3802 
G01 X11.1102 Y12.2833 
G01 X12.1793 Y11.2142 
G01 X12.1793 Y6.0859 
G01 X11.6205 Y5.5271 
G01 X11.6205 Y4.6328 
G01 X12.2528 Y4.0005 
G01 X13.1471 Y4.0005 
G01 X13.7794 Y4.6328 
G01 X13.7794 Y5.5271 
G01 X13.2206 Y6.0859 
G01 X13.2206 Y11.3614 
G01 X13.2206 Y11.4985 
G01 X13.1851 Y11.6309 
G01 X13.1166 Y11.7497 
G01 X11.9506 Y12.9157 
G01 X11.9506 Y15.0242 
G01 X12.9157 Y15.9893 
G01 X12.9499 Y15.9893 
G01 X12.9938 Y15.9453 
G01 X13.0778 Y15.8968 
G01 X13.1714 Y15.8717 
G01 X14.7685 Y15.8717 
G01 X14.8621 Y15.8968 
G01 X14.9461 Y15.9453 
G01 X15.0146 Y16.0138 
G01 X15.0631 Y16.0978 
G01 X15.0882 Y16.1914 
G01 X15.0882 Y16.8918 
G01 X16.5099 Y18.3136 
G01 X16.5858 Y18.2378 
G01 X16.5488 Y18.2280 
G01 X16.4478 Y18.1696 
G01 X16.3653 Y18.0871 
G01 X16.3069 Y17.9861 
G01 X16.2767 Y17.8733 
G01 X16.2767 Y17.6066 
G01 X16.3069 Y17.4938 
G01 X16.3092 Y17.4900 
G01 X16.3069 Y17.4861 
G01 X16.2767 Y17.3733 
G01 X16.2767 Y17.1066 
G01 X16.3069 Y16.9938 
G01 X16.3092 Y16.9900 
G01 X16.3069 Y16.9861 
G01 X16.2767 Y16.8733 
G01 X16.2767 Y16.6066 
G01 X16.3069 Y16.4938 
G01 X16.3092 Y16.4900 
G01 X16.3069 Y16.4861 
G01 X16.2767 Y16.3733 
G01 X16.2767 Y16.2606 
G01 X15.8085 Y16.2606 
G01 X15.6714 Y16.2606 
G01 X15.5390 Y16.2251 
G01 X15.4202 Y16.1566 
G01 X14.9202 Y15.6566 
G01 X14.8233 Y15.5597 
G01 X14.7548 Y15.4409 
G01 X14.7193 Y15.3085 
G01 X14.7193 Y14.6082 
G01 X13.1714 Y14.6082 
G01 X13.0778 Y14.5831 
G01 X12.9938 Y14.5346 
G01 X12.9253 Y14.4661 
G01 X12.8768 Y14.3821 
G01 X12.8517 Y14.2885 
G01 X12.8517 Y12.6914 
G01 X12.8768 Y12.5978 
G01 X12.9253 Y12.5138 
G01 X12.9938 Y12.4453 
G01 X13.0778 Y12.3968 
G01 X13.1714 Y12.3717 
G01 X14.7685 Y12.3717 
G01 X14.8621 Y12.3968 
G01 X14.9461 Y12.4453 
G01 X15.0146 Y12.5138 
G01 X15.0631 Y12.5978 
G01 X15.0882 Y12.6914 
G01 X15.0882 Y13.4493 
G01 X15.3085 Y13.4493 
G01 X15.4409 Y13.4848 
G01 X15.4813 Y13.5082 
G01 X15.4813 Y9.2125 
G01 X15.4813 Y9.0754 
G01 X15.5168 Y8.9430 
G01 X15.5853 Y8.8242 
G01 X18.5293 Y5.8802 
G01 X18.5293 Y5.8571 
G01 X18.2271 Y6.1594 
G01 X17.3328 Y6.1594 
G01 X16.7005 Y5.5271 
G01 X16.7005 Y4.6328 
G01 X17.3328 Y4.0005 
G01 X18.2271 Y4.0005 
G01 X18.5293 Y4.3028 
G01 X18.5293 Y3.3171 
G01 X18.2271 Y3.6194 
G01 X17.3328 Y3.6194 
G01 X16.7005 Y2.9871 
G01 X16.7005 Y2.0928 
G01 X17.3328 Y1.4605 
G01 X18.2271 Y1.4605 
G01 X18.5293 Y1.7628 
G01 X18.5293 Y0.6934 
G01 X18.5648 Y0.5610 
G01 X18.6333 Y0.4422 
G01 X18.7302 Y0.3453 
G01 X19.3953 Y-0.3196 
G01 X19.4922 Y-0.4166 
G01 X19.6110 Y-0.4851 
G01 X19.7434 Y-0.5206 
G01 X24.0613 Y-0.5206 
G01 X24.1985 Y-0.5206 
G01 X24.3309 Y-0.4851 
G01 X24.4497 Y-0.4166 
G01 X25.8166 Y0.9502 
G01 X25.8851 Y1.0690 
G01 X25.9206 Y1.2014 
G01 X25.9206 Y1.3385 
G01 X25.9206 Y11.2142 
G01 X26.8857 Y12.1793 
G01 X29.2785 Y12.1793 
G01 X29.4109 Y12.2148 
G01 X29.5297 Y12.2833 
G01 X29.6266 Y12.3802 
G01 X29.6951 Y12.4990 
G01 X29.7306 Y12.6314 
G01 X29.7306 Y12.7685 
G01 X29.7306 Y15.3085 
G01 X29.6951 Y15.4409 
G01 X29.6266 Y15.5597 
G01 X29.5297 Y15.6566 
G01 X28.2597 Y16.9266 
G01 X28.1409 Y16.9951 
G01 X28.0085 Y17.0306 
G01 X27.8714 Y17.0306 
G01 X26.6014 Y17.0306 
G01 X26.4690 Y16.9951 
G01 X26.3502 Y16.9266 
G01 X26.2533 Y16.8297 
G01 X25.1842 Y15.7606 
G01 X24.3632 Y15.7606 
G01 X24.3632 Y15.8733 
G01 X24.3330 Y15.9861 
G01 X24.3307 Y15.9899 
G01 X24.3330 Y15.9938 
G01 X24.3632 Y16.1066 
G01 X24.3632 Y16.3733 
G01 X24.3330 Y16.4861 
G01 X24.3307 Y16.4899 
G01 X24.3330 Y16.4938 
G01 X24.3632 Y16.6066 
G01 X24.3632 Y16.8733 
G01 X24.3330 Y16.9861 
G01 X24.3307 Y16.9899 
G01 X24.3330 Y16.9938 
G01 X24.3632 Y17.1066 
G01 X24.3632 Y17.3733 
G01 X24.3330 Y17.4861 
G01 X24.3307 Y17.4899 
G01 X24.3330 Y17.4938 
G01 X24.3632 Y17.6066 
G01 X24.3632 Y17.8733 
G01 X24.3330 Y17.9861 
G01 X24.2746 Y18.0871 
G01 X24.1921 Y18.1696 
G01 X24.0911 Y18.2280 
G01 X23.9783 Y18.2582 
G01 X23.3382 Y18.2582 
G01 X23.3382 Y18.8983 
G01 X23.3080 Y19.0111 
G01 X23.2496 Y19.1121 
G01 X23.1671 Y19.1946 
G01 X23.0661 Y19.2530 
G01 X22.9533 Y19.2832 
G01 X22.6866 Y19.2832 
G01 X22.5738 Y19.2530 
G01 X22.5700 Y19.2507 
G01 X22.5661 Y19.2530 
G01 X22.4533 Y19.2832 
G01 X22.1866 Y19.2832 
G01 X22.0738 Y19.2530 
G01 X22.0699 Y19.2507 
G01 X22.0661 Y19.2530 
G01 X21.9533 Y19.2832 
G01 X21.6866 Y19.2832 
G01 X21.5738 Y19.2530 
G01 X21.5700 Y19.2507 
G01 X21.5661 Y19.2530 
G01 X21.4533 Y19.2832 
G01 X21.1866 Y19.2832 
G01 X21.0738 Y19.2530 
G01 X21.0700 Y19.2507 
G01 X21.0661 Y19.2530 
G01 X20.9533 Y19.2832 
G01 X20.6866 Y19.2832 
G01 X20.5738 Y19.2530 
G01 X20.5700 Y19.2507 
G01 X20.5661 Y19.2530 
G01 X20.4533 Y19.2832 
G01 X20.1866 Y19.2832 
G01 X20.0738 Y19.2530 
G01 X20.0700 Y19.2507 
G01 X20.0661 Y19.2530 
G01 X19.9533 Y19.2832 
G01 X19.6866 Y19.2832 
G01 X19.5738 Y19.2530 
G01 X19.5700 Y19.2507 
G01 X19.5661 Y19.2530 
G01 X19.4533 Y19.2832 
G01 X19.3406 Y19.2832 
G01 X19.3406 Y19.7993 
G01 X26.4542 Y19.7993 
G01 X29.9593 Y16.2942 
G01 X29.9593 Y11.6457 
G01 X29.7842 Y11.4706 
G01 X29.0582 Y11.4706 
G01 X29.0582 Y11.7485 
G01 X29.0331 Y11.8421 
G01 X28.9846 Y11.9261 
G01 X28.9161 Y11.9946 
G01 X28.8321 Y12.0431 
G01 X28.7385 Y12.0682 
G01 X27.1414 Y12.0682 
G01 X27.0478 Y12.0431 
G01 X26.9638 Y11.9946 
G01 X26.8953 Y11.9261 
G01 X26.8468 Y11.8421 
G01 X26.8217 Y11.7485 
G01 X26.8217 Y10.1514 
G01 X26.8468 Y10.0578 
G01 X26.8953 Y9.9738 
G01 X26.9638 Y9.9053 
G01 X27.0478 Y9.8568 
G01 X27.1414 Y9.8317 
G01 X28.7385 Y9.8317 
G01 X28.8321 Y9.8568 
G01 X28.9161 Y9.9053 
G01 X28.9846 Y9.9738 
G01 X29.0331 Y10.0578 
G01 X29.0582 Y10.1514 
G00 Z2.5400 
G00 X15.2152 Y16.1747 
G01 Z-0.1778 F254.00 
G01 X15.2152 Y16.8393 F508.00 
G01 X16.1497 Y17.7739 
G01 X16.1497 Y17.5898 
G01 X16.1765 Y17.4900 
G01 X16.1497 Y17.3901 
G01 X16.1497 Y17.0898 
G01 X16.1765 Y16.9900 
G01 X16.1497 Y16.8901 
G01 X16.1497 Y16.5898 
G01 X16.1765 Y16.4900 
G01 X16.1497 Y16.3901 
G01 X15.8038 Y16.3876 
G01 X15.6761 Y16.3876 
G01 X15.5510 Y16.3627 
G01 X15.4331 Y16.3139 
G01 X15.3271 Y16.2430 
G01 X15.1991 Y16.1150 
G01 X15.2152 Y16.1747 
G00 Z2.5400 
G00 X29.7317 Y11.5976 
G01 Z-0.1778 F254.00 
G01 X29.1852 Y11.5976 F508.00 
G01 X29.1852 Y11.7652 
G01 X29.1515 Y11.8911 
G01 X29.0863 Y12.0041 
G01 X29.0380 Y12.0523 
G01 X29.2738 Y12.0523 
G01 X29.3989 Y12.0772 
G01 X29.5168 Y12.1260 
G01 X29.6228 Y12.1969 
G01 X29.7130 Y12.2871 
G01 X29.7839 Y12.3931 
G01 X29.8323 Y12.5102 
G01 X29.8323 Y11.6982 
G01 X29.7317 Y11.5976 
G00 Z2.5400 
G00 X29.8323 Y16.2417 
G01 Z-0.1778 F254.00 
G01 X29.8323 Y15.4297 F508.00 
G01 X29.7839 Y15.5468 
G01 X29.7130 Y15.6528 
G01 X29.6228 Y15.7430 
G01 X28.3528 Y17.0130 
G01 X28.2468 Y17.0839 
G01 X28.1289 Y17.1327 
G01 X28.0038 Y17.1576 
G01 X27.8761 Y17.1576 
G01 X26.6061 Y17.1576 
G01 X26.4810 Y17.1327 
G01 X26.3631 Y17.0839 
G01 X26.2571 Y17.0130 
G01 X26.1669 Y16.9228 
G01 X25.1317 Y15.8876 
G01 X24.4902 Y15.8876 
G01 X24.4634 Y15.9899 
G01 X24.4902 Y16.0898 
G01 X24.4902 Y16.3901 
G01 X24.4634 Y16.4899 
G01 X24.4902 Y16.5898 
G01 X24.4902 Y16.8901 
G01 X24.4634 Y16.9899 
G01 X24.4902 Y17.0898 
G01 X24.4902 Y17.3901 
G01 X24.4634 Y17.4899 
G01 X24.4902 Y17.5898 
G01 X24.4902 Y17.8901 
G01 X24.4513 Y18.0351 
G01 X24.3763 Y18.1651 
G01 X24.2701 Y18.2713 
G01 X24.1401 Y18.3463 
G01 X23.9951 Y18.3852 
G01 X23.4652 Y18.3852 
G01 X23.4652 Y18.9151 
G01 X23.4263 Y19.0601 
G01 X23.3513 Y19.1901 
G01 X23.2451 Y19.2963 
G01 X23.1151 Y19.3713 
G01 X22.9701 Y19.4102 
G01 X22.6698 Y19.4102 
G01 X22.5700 Y19.3834 
G01 X22.4701 Y19.4102 
G01 X22.1698 Y19.4102 
G01 X22.0699 Y19.3834 
G01 X21.9701 Y19.4102 
G01 X21.6698 Y19.4102 
G01 X21.5700 Y19.3834 
G01 X21.4701 Y19.4102 
G01 X21.1698 Y19.4102 
G01 X21.0700 Y19.3834 
G01 X20.9701 Y19.4102 
G01 X20.6698 Y19.4102 
G01 X20.5700 Y19.3834 
G01 X20.4701 Y19.4102 
G01 X20.1698 Y19.4102 
G01 X20.0700 Y19.3834 
G01 X19.9701 Y19.4102 
G01 X19.6698 Y19.4102 
G01 X19.5700 Y19.3834 
G01 X19.4701 Y19.4102 
G01 X19.4676 Y19.6723 
G01 X26.4017 Y19.6723 
G01 X29.8323 Y16.2417 
G00 Z2.5400 
G00 X24.4902 Y13.8901 
G01 Z-0.1778 F254.00 
G01 X24.4634 Y13.9899 F508.00 
G01 X24.4902 Y14.0898 
G01 X24.4902 Y14.3901 
G01 X24.4634 Y14.4899 
G01 X24.4902 Y14.5898 
G01 X25.3361 Y14.5923 
G01 X25.4638 Y14.5923 
G01 X25.5889 Y14.6172 
G01 X25.7068 Y14.6660 
G01 X25.8128 Y14.7369 
G01 X26.9382 Y15.8623 
G01 X27.6717 Y15.8623 
G01 X27.8389 Y15.6952 
G01 X27.1247 Y15.6952 
G01 X26.9988 Y15.6615 
G01 X26.8858 Y15.5963 
G01 X26.7936 Y15.5041 
G01 X26.7284 Y15.3911 
G01 X26.6947 Y15.2652 
G01 X26.6947 Y14.1206 
G01 X26.4617 Y13.8876 
G01 X24.4902 Y13.8876 
G00 Z2.5400 
G00 X24.0664 Y2.0402 
G01 Z-0.1778 F254.00 
G01 X24.0664 Y3.0397 F508.00 
G01 X23.3597 Y3.7464 
G01 X22.5694 Y3.7464 
G01 X22.3091 Y4.0066 
G01 X22.3968 Y3.9619 
G01 X22.5774 Y3.9032 
G01 X22.7650 Y3.8735 
G01 X22.9549 Y3.8735 
G01 X23.1425 Y3.9032 
G01 X23.3231 Y3.9619 
G01 X23.4923 Y4.0481 
G01 X23.6459 Y4.1597 
G01 X23.7802 Y4.2940 
G01 X23.8918 Y4.4476 
G01 X23.9780 Y4.6168 
G01 X24.0367 Y4.7974 
G01 X24.0664 Y4.9850 
G01 X24.0664 Y5.1749 
G01 X24.0367 Y5.3625 
G01 X23.9780 Y5.5431 
G01 X23.8918 Y5.7123 
G01 X23.7802 Y5.8659 
G01 X23.6459 Y6.0002 
G01 X23.5076 Y6.1006 
G01 X23.5076 Y8.8261 
G01 X23.5076 Y8.9538 
G01 X23.4827 Y9.0789 
G01 X23.4339 Y9.1968 
G01 X23.3630 Y9.3028 
G01 X23.2728 Y9.3930 
G01 X23.1668 Y9.4639 
G01 X23.0489 Y9.5127 
G01 X22.9238 Y9.5376 
G01 X20.5882 Y9.5376 
G01 X20.4676 Y9.6582 
G01 X20.4676 Y11.0697 
G01 X20.5699 Y11.0965 
G01 X20.6698 Y11.0697 
G01 X20.9701 Y11.0697 
G01 X21.0699 Y11.0965 
G01 X21.1698 Y11.0697 
G01 X21.4701 Y11.0697 
G01 X21.5699 Y11.0965 
G01 X21.6698 Y11.0697 
G01 X21.9701 Y11.0697 
G01 X22.0699 Y11.0965 
G01 X22.1698 Y11.0697 
G01 X22.4701 Y11.0697 
G01 X22.5699 Y11.0965 
G01 X22.6698 Y11.0697 
G01 X22.9701 Y11.0697 
G01 X23.1151 Y11.1086 
G01 X23.2451 Y11.1836 
G01 X23.3513 Y11.2898 
G01 X23.4263 Y11.4198 
G01 X23.4652 Y11.5648 
G01 X23.4652 Y12.0947 
G01 X23.9951 Y12.0947 
G01 X24.1401 Y12.1336 
G01 X24.2701 Y12.2086 
G01 X24.3763 Y12.3148 
G01 X24.4513 Y12.4448 
G01 X24.4902 Y12.5898 
G01 X25.6465 Y12.5923 
G01 X24.9871 Y11.9330 
G01 X24.8969 Y11.8428 
G01 X24.8260 Y11.7368 
G01 X24.7772 Y11.6189 
G01 X24.7523 Y11.4938 
G01 X24.7523 Y1.5382 
G01 X23.8617 Y0.6476 
G01 X20.0801 Y0.6476 
G01 X19.6976 Y1.0301 
G01 X19.6976 Y1.4562 
G01 X19.8202 Y1.3335 
G01 X20.8197 Y1.3335 
G01 X21.5264 Y2.0402 
G01 X21.5264 Y2.9577 
G01 X21.6535 Y2.8305 
G01 X21.6535 Y2.0402 
G01 X22.3602 Y1.3335 
G01 X23.3597 Y1.3335 
G01 X24.0664 Y2.0402 
G00 Z2.5400 
G00 X20.8197 Y3.7464 
G01 Z-0.1778 F254.00 
G01 X19.8202 Y3.7464 F508.00 
G01 X19.6976 Y3.6237 
G01 X19.6976 Y3.9962 
G01 X19.8202 Y3.8735 
G01 X20.8197 Y3.8735 
G01 X20.9423 Y3.9962 
G01 X20.9423 Y3.7461 
G01 X20.9672 Y3.6210 
G01 X20.9829 Y3.5831 
G01 X20.8197 Y3.7464 
G00 Z2.5400 
G00 X22.2123 Y8.2423 
G01 Z-0.1778 F254.00 
G01 X22.2123 Y6.5397 F508.00 
G01 X22.1639 Y6.6568 
G01 X22.0930 Y6.7628 
G01 X20.6134 Y8.2423 
G01 X22.2123 Y8.2423 
G00 Z2.5400 
G00 X19.8202 Y6.2864 
G01 Z-0.1778 F254.00 
G01 X19.6969 Y6.1631 F508.00 
G01 X19.6727 Y6.2849 
G01 X19.6239 Y6.4028 
G01 X19.5530 Y6.5088 
G01 X19.4628 Y6.5990 
G01 X16.6496 Y9.4122 
G01 X16.6496 Y12.0947 
G01 X17.1747 Y12.0947 
G01 X17.1747 Y11.5648 
G01 X17.2136 Y11.4198 
G01 X17.2886 Y11.2898 
G01 X17.3948 Y11.1836 
G01 X17.5248 Y11.1086 
G01 X17.6698 Y11.0697 
G01 X17.9701 Y11.0697 
G01 X18.0699 Y11.0965 
G01 X18.1698 Y11.0697 
G01 X18.4701 Y11.0697 
G01 X18.5699 Y11.0965 
G01 X18.6698 Y11.0697 
G01 X18.6723 Y8.6838 
G01 X18.6723 Y8.5561 
G01 X18.6972 Y8.4310 
G01 X18.7460 Y8.3131 
G01 X18.8169 Y8.2071 
G01 X20.7377 Y6.2864 
G01 X19.8202 Y6.2864 
G00 Z2.5400 
G00 X24.0661 Y-0.6476 
G01 Z-0.1778 F254.00 
G01 X24.1938 Y-0.6476 F508.00 
G01 X24.3189 Y-0.6227 
G01 X24.4368 Y-0.5739 
G01 X24.5428 Y-0.5030 
G01 X25.9030 Y0.8571 
G01 X25.9739 Y0.9631 
G01 X26.0227 Y1.0810 
G01 X26.0476 Y1.2061 
G01 X26.0476 Y1.3338 
G01 X26.0476 Y11.1617 
G01 X26.7107 Y11.8249 
G01 X26.6947 Y11.7652 
G01 X26.6947 Y10.1347 
G01 X26.7284 Y10.0088 
G01 X26.7936 Y9.8958 
G01 X26.8858 Y9.8036 
G01 X26.9988 Y9.7384 
G01 X27.1247 Y9.7047 
G01 X28.7552 Y9.7047 
G01 X28.8811 Y9.7384 
G01 X28.9941 Y9.8036 
G01 X29.0863 Y9.8958 
G01 X29.1515 Y10.0088 
G01 X29.1852 Y10.1347 
G01 X29.1852 Y10.3023 
G01 X29.9361 Y10.3023 
G01 X30.0638 Y10.3023 
G01 X30.1889 Y10.3272 
G01 X30.3068 Y10.3760 
G01 X30.4128 Y10.4469 
G01 X30.8928 Y10.9269 
G01 X30.9830 Y11.0171 
G01 X31.0539 Y11.1231 
G01 X31.1027 Y11.2410 
G01 X31.1276 Y11.3661 
G01 X31.1276 Y16.4461 
G01 X31.1276 Y16.5738 
G01 X31.1027 Y16.6989 
G01 X31.0539 Y16.8168 
G01 X30.9830 Y16.9228 
G01 X27.1730 Y20.7328 
G01 X27.0828 Y20.8230 
G01 X26.9768 Y20.8939 
G01 X26.8589 Y20.9427 
G01 X26.7338 Y20.9676 
G01 X18.9861 Y20.9676 
G01 X18.8610 Y20.9427 
G01 X18.7431 Y20.8939 
G01 X18.6371 Y20.8230 
G01 X18.5469 Y20.7328 
G01 X18.3169 Y20.5028 
G01 X18.2460 Y20.3968 
G01 X18.1972 Y20.2789 
G01 X18.1723 Y20.1538 
G01 X18.1723 Y20.0261 
G01 X18.1723 Y19.4102 
G01 X18.0700 Y19.3834 
G01 X17.9701 Y19.4102 
G01 X17.6698 Y19.4102 
G01 X17.5248 Y19.3713 
G01 X17.3948 Y19.2963 
G01 X17.2886 Y19.1901 
G01 X16.9228 Y19.5530 
G01 X16.8168 Y19.6239 
G01 X16.6989 Y19.6727 
G01 X16.5738 Y19.6976 
G01 X16.4461 Y19.6976 
G01 X16.3210 Y19.6727 
G01 X16.2031 Y19.6239 
G01 X16.0971 Y19.5530 
G01 X16.0069 Y19.4628 
G01 X14.7793 Y18.2352 
G01 X13.1547 Y18.2352 
G01 X13.0288 Y18.2015 
G01 X12.9158 Y18.1363 
G01 X12.8236 Y18.0441 
G01 X12.7584 Y17.9311 
G01 X12.7247 Y17.8052 
G01 X12.7247 Y17.1576 
G01 X12.6361 Y17.1576 
G01 X12.5110 Y17.1327 
G01 X12.3931 Y17.0839 
G01 X12.2871 Y17.0130 
G01 X12.1969 Y16.9228 
G01 X10.9269 Y15.6528 
G01 X10.8560 Y15.5468 
G01 X10.8072 Y15.4289 
G01 X10.7823 Y15.3038 
G01 X10.7823 Y15.1761 
G01 X10.7823 Y12.6361 
G01 X10.8072 Y12.5110 
G01 X10.8560 Y12.3931 
G01 X10.9269 Y12.2871 
G01 X11.0171 Y12.1969 
G01 X12.0523 Y11.1617 
G01 X12.0523 Y6.1385 
G01 X11.4935 Y5.5797 
G01 X11.4935 Y4.5802 
G01 X12.2002 Y3.8735 
G01 X13.1997 Y3.8735 
G01 X13.9064 Y4.5802 
G01 X13.9064 Y5.5797 
G01 X13.3476 Y6.1385 
G01 X13.3476 Y11.3661 
G01 X13.3476 Y11.4938 
G01 X13.3227 Y11.6189 
G01 X13.2739 Y11.7368 
G01 X13.2030 Y11.8428 
G01 X12.0776 Y12.9682 
G01 X12.0776 Y14.9717 
G01 X12.9372 Y15.8314 
G01 X13.0288 Y15.7784 
G01 X13.1547 Y15.7447 
G01 X14.7852 Y15.7447 
G01 X14.8449 Y15.7608 
G01 X14.8271 Y15.7430 
G01 X14.7369 Y15.6528 
G01 X14.6660 Y15.5468 
G01 X14.6172 Y15.4289 
G01 X14.5923 Y15.3038 
G01 X14.5923 Y14.7352 
G01 X13.1547 Y14.7352 
G01 X13.0288 Y14.7015 
G01 X12.9158 Y14.6363 
G01 X12.8236 Y14.5441 
G01 X12.7584 Y14.4311 
G01 X12.7247 Y14.3052 
G01 X12.7247 Y12.6747 
G01 X12.7584 Y12.5488 
G01 X12.8236 Y12.4358 
G01 X12.9158 Y12.3436 
G01 X13.0288 Y12.2784 
G01 X13.1547 Y12.2447 
G01 X14.7852 Y12.2447 
G01 X14.9111 Y12.2784 
G01 X15.0241 Y12.3436 
G01 X15.1163 Y12.4358 
G01 X15.1815 Y12.5488 
G01 X15.2152 Y12.6747 
G01 X15.2152 Y13.3223 
G01 X15.3038 Y13.3223 
G01 X15.3543 Y13.3324 
G01 X15.3543 Y9.2078 
G01 X15.3543 Y9.0801 
G01 X15.3792 Y8.9550 
G01 X15.4280 Y8.8371 
G01 X15.4989 Y8.7311 
G01 X17.9437 Y6.2864 
G01 X17.2802 Y6.2864 
G01 X16.5735 Y5.5797 
G01 X16.5735 Y4.5802 
G01 X17.2802 Y3.8735 
G01 X18.2797 Y3.8735 
G01 X18.4023 Y3.9962 
G01 X18.4023 Y3.6237 
G01 X18.2797 Y3.7464 
G01 X17.2802 Y3.7464 
G01 X16.5735 Y3.0397 
G01 X16.5735 Y2.0402 
G01 X17.2802 Y1.3335 
G01 X18.2797 Y1.3335 
G01 X18.4023 Y1.4562 
G01 X18.4023 Y0.6981 
G01 X18.4272 Y0.5730 
G01 X18.4760 Y0.4551 
G01 X18.5469 Y0.3491 
G01 X18.6371 Y0.2589 
G01 X19.3089 Y-0.4127 
G01 X19.3991 Y-0.5030 
G01 X19.5051 Y-0.5739 
G01 X19.6230 Y-0.6227 
G01 X19.7481 Y-0.6476 
G01 X24.0660 Y-0.6476 
G00 Z2.5400 
G00 X16.4464 Y4.5802 
G01 Z-0.1778 F254.00 
G01 X16.4464 Y5.5797 F508.00 
G01 X15.7397 Y6.2864 
G01 X14.7402 Y6.2864 
G01 X14.0335 Y5.5797 
G01 X14.0335 Y4.5802 
G01 X14.7402 Y3.8735 
G01 X15.7397 Y3.8735 
G01 X16.4464 Y4.5802 
G00 Z2.5400 
G00 X16.4464 Y2.0402 
G01 Z-0.1778 F254.00 
G01 X16.4464 Y3.0397 F508.00 
G01 X15.7397 Y3.7464 
G01 X14.7402 Y3.7464 
G01 X14.0335 Y3.0397 
G01 X14.0335 Y2.0402 
G01 X14.7402 Y1.3335 
G01 X15.7397 Y1.3335 
G01 X16.4464 Y2.0402 
G00 Z2.5400 
G00 X13.9064 Y2.0402 
G01 Z-0.1778 F254.00 
G01 X13.9064 Y3.0397 F508.00 
G01 X13.1997 Y3.7464 
G01 X12.2002 Y3.7464 
G01 X11.4935 Y3.0397 
G01 X11.4935 Y2.0402 
G01 X12.2002 Y1.3335 
G01 X13.1997 Y1.3335 
G01 X13.9064 Y2.0402 
G00 Z2.5400 
G00 X13.9700 Y4.4642 
G01 Z-0.1778 F254.00 
G01 X14.6242 Y3.8100 F508.00 
G01 X13.9700 Y3.1557 
G01 X13.3157 Y3.8100 
G01 X13.9700 Y4.4642 
G00 Z2.5400 
G00 X16.5100 Y4.4642 
G01 Z-0.1778 F254.00 
G01 X17.1642 Y3.8100 F508.00 
G01 X16.5100 Y3.1557 
G01 X15.8557 Y3.8100 
G01 X16.5100 Y4.4642 
G00 Z2.5400 
G00 X22.0853 Y8.1153 
G01 Z-0.1778 F254.00 
G01 X22.0853 Y6.9501 F508.00 
G01 X20.9201 Y8.1153 
G01 X22.0853 Y8.1153 
G00 Z2.5400 
G00 X19.7676 Y6.4134 
G01 Z-0.1778 F254.00 
G01 X19.7600 Y6.4058 F508.00 
G01 X19.7364 Y6.4629 
G01 X19.6517 Y6.5898 
G01 X19.5438 Y6.6977 
G01 X16.7766 Y9.4649 
G01 X16.7766 Y11.9677 
G01 X17.0477 Y11.9677 
G01 X17.0477 Y11.5712 
G01 X17.0745 Y11.4365 
G01 X17.1270 Y11.3097 
G01 X17.2033 Y11.1955 
G01 X17.3005 Y11.0983 
G01 X17.4147 Y11.0220 
G01 X17.5415 Y10.9695 
G01 X17.6762 Y10.9427 
G01 X17.9637 Y10.9427 
G01 X18.0699 Y10.9639 
G01 X18.1762 Y10.9427 
G01 X18.4637 Y10.9427 
G01 X18.5453 Y10.9590 
G01 X18.5453 Y8.6963 
G01 X18.5453 Y8.5436 
G01 X18.5751 Y8.3940 
G01 X18.6335 Y8.2530 
G01 X18.7182 Y8.1261 
G01 X20.4310 Y6.4134 
G01 X19.7676 Y6.4134 
G00 Z2.5400 
G00 X19.8246 Y1.0828 
G01 Z-0.1778 F254.00 
G01 X19.8246 Y1.2065 F508.00 
G01 X20.8723 Y1.2065 
G01 X21.5900 Y1.9242 
G01 X22.3076 Y1.2065 
G01 X23.4123 Y1.2065 
G01 X24.1934 Y1.9876 
G01 X24.1934 Y3.0923 
G01 X23.4179 Y3.8677 
G01 X23.5589 Y3.9395 
G01 X23.7287 Y4.0628 
G01 X23.8771 Y4.2112 
G01 X24.0004 Y4.3810 
G01 X24.0957 Y4.5681 
G01 X24.1606 Y4.7677 
G01 X24.1934 Y4.9750 
G01 X24.1934 Y5.1849 
G01 X24.1606 Y5.3922 
G01 X24.0957 Y5.5918 
G01 X24.0004 Y5.7789 
G01 X23.8771 Y5.9487 
G01 X23.7287 Y6.0971 
G01 X23.6346 Y6.1654 
G01 X23.6346 Y8.8136 
G01 X23.6346 Y8.9663 
G01 X23.6048 Y9.1159 
G01 X23.5464 Y9.2569 
G01 X23.4617 Y9.3838 
G01 X23.3538 Y9.4917 
G01 X23.2269 Y9.5764 
G01 X23.0859 Y9.6348 
G01 X22.9363 Y9.6646 
G01 X20.6409 Y9.6646 
G01 X20.5946 Y9.7109 
G01 X20.5946 Y10.9590 
G01 X20.6762 Y10.9427 
G01 X20.9637 Y10.9427 
G01 X21.0699 Y10.9639 
G01 X21.1762 Y10.9427 
G01 X21.4637 Y10.9427 
G01 X21.5699 Y10.9639 
G01 X21.6762 Y10.9427 
G01 X21.9637 Y10.9427 
G01 X22.0699 Y10.9639 
G01 X22.1762 Y10.9427 
G01 X22.4637 Y10.9427 
G01 X22.5699 Y10.9639 
G01 X22.6762 Y10.9427 
G01 X22.9637 Y10.9427 
G01 X23.0984 Y10.9695 
G01 X23.2252 Y11.0220 
G01 X23.3394 Y11.0983 
G01 X23.4366 Y11.1955 
G01 X23.5129 Y11.3097 
G01 X23.5654 Y11.4365 
G01 X23.5922 Y11.5712 
G01 X23.5922 Y11.9677 
G01 X23.9887 Y11.9677 
G01 X24.1234 Y11.9945 
G01 X24.2502 Y12.0470 
G01 X24.3644 Y12.1233 
G01 X24.4616 Y12.2205 
G01 X24.5379 Y12.3347 
G01 X24.5904 Y12.4615 
G01 X24.5911 Y12.4653 
G01 X25.3398 Y12.4653 
G01 X24.9061 Y12.0317 
G01 X24.7982 Y11.9238 
G01 X24.7135 Y11.7969 
G01 X24.6551 Y11.6559 
G01 X24.6253 Y11.5063 
G01 X24.6253 Y1.5909 
G01 X23.8090 Y0.7746 
G01 X20.1328 Y0.7746 
G01 X19.8246 Y1.0828 
G00 Z2.5400 
G00 X24.6172 Y14.0962 
G01 Z-0.1778 F254.00 
G01 X24.6172 Y14.3837 F508.00 
G01 X24.6009 Y14.4653 
G01 X25.3236 Y14.4653 
G01 X25.4763 Y14.4653 
G01 X25.6259 Y14.4951 
G01 X25.7669 Y14.5535 
G01 X25.8938 Y14.6382 
G01 X26.5804 Y15.3248 
G01 X26.5677 Y15.2613 
G01 X26.5677 Y14.1733 
G01 X26.4090 Y14.0146 
G01 X24.6009 Y14.0146 
G01 X24.6172 Y14.0962 
G00 Z2.5400 
G00 X15.3422 Y16.7866 
G01 Z-0.1778 F254.00 
G01 X16.0435 Y17.4880 F508.00 
G01 X16.0227 Y17.3837 
G01 X16.0227 Y17.0962 
G01 X16.0439 Y16.9900 
G01 X16.0227 Y16.8837 
G01 X16.0227 Y16.5962 
G01 X16.0390 Y16.5146 
G01 X15.8163 Y16.5146 
G01 X15.6636 Y16.5146 
G01 X15.5140 Y16.4848 
G01 X15.3730 Y16.4264 
G01 X15.3422 Y16.4057 
G01 X15.3422 Y16.7866 
G00 Z2.5400 
G00 X13.1586 Y14.8622 
G01 Z-0.1778 F254.00 
G01 X13.0384 Y14.8383 F508.00 
G01 X12.9252 Y14.7914 
G01 X12.8233 Y14.7233 
G01 X12.7366 Y14.6366 
G01 X12.6685 Y14.5347 
G01 X12.6216 Y14.4215 
G01 X12.5977 Y14.3013 
G01 X12.5977 Y12.6786 
G01 X12.6104 Y12.6150 
G01 X12.2046 Y13.0209 
G01 X12.2046 Y14.9190 
G01 X12.9598 Y15.6743 
G01 X13.0384 Y15.6416 
G01 X13.1586 Y15.6177 
G01 X14.5608 Y15.6177 
G01 X14.5535 Y15.6069 
G01 X14.4951 Y15.4659 
G01 X14.4653 Y15.3163 
G01 X14.4653 Y14.8622 
G01 X13.1586 Y14.8622 
G00 Z2.5400 
G00 X29.6790 Y11.7246 
G01 Z-0.1778 F254.00 
G01 X29.3122 Y11.7246 F508.00 
G01 X29.3122 Y11.7613 
G01 X29.2883 Y11.8815 
G01 X29.2701 Y11.9253 
G01 X29.2863 Y11.9253 
G01 X29.4359 Y11.9551 
G01 X29.5769 Y12.0135 
G01 X29.7038 Y12.0982 
G01 X29.7053 Y11.7509 
G01 X29.6790 Y11.7246 
G00 Z2.5400 
G00 X29.7053 Y16.1890 
G01 Z-0.1778 F254.00 
G01 X29.7053 Y15.8401 F508.00 
G01 X29.7038 Y15.8417 
G01 X28.4338 Y17.1117 
G01 X28.3069 Y17.1964 
G01 X28.1659 Y17.2548 
G01 X28.0163 Y17.2846 
G01 X27.8636 Y17.2846 
G01 X26.5936 Y17.2846 
G01 X26.4440 Y17.2548 
G01 X26.3030 Y17.1964 
G01 X26.1761 Y17.1117 
G01 X26.0682 Y17.0038 
G01 X25.0790 Y16.0146 
G01 X24.6009 Y16.0146 
G01 X24.6172 Y16.0962 
G01 X24.6172 Y16.3837 
G01 X24.5960 Y16.4899 
G01 X24.6172 Y16.5962 
G01 X24.6172 Y16.8837 
G01 X24.5960 Y16.9899 
G01 X24.6172 Y17.0962 
G01 X24.6172 Y17.3837 
G01 X24.5960 Y17.4899 
G01 X24.6172 Y17.5962 
G01 X24.6172 Y17.8837 
G01 X24.5904 Y18.0184 
G01 X24.5379 Y18.1452 
G01 X24.4616 Y18.2594 
G01 X24.3644 Y18.3566 
G01 X24.2502 Y18.4329 
G01 X24.1234 Y18.4854 
G01 X23.9887 Y18.5122 
G01 X23.5922 Y18.5122 
G01 X23.5922 Y18.9087 
G01 X23.5654 Y19.0434 
G01 X23.5129 Y19.1702 
G01 X23.4366 Y19.2844 
G01 X23.3394 Y19.3816 
G01 X23.2252 Y19.4579 
G01 X23.0984 Y19.5104 
G01 X22.9637 Y19.5372 
G01 X22.6762 Y19.5372 
G01 X22.5700 Y19.5160 
G01 X22.4637 Y19.5372 
G01 X22.1762 Y19.5372 
G01 X22.0699 Y19.5160 
G01 X21.9637 Y19.5372 
G01 X21.6762 Y19.5372 
G01 X21.5700 Y19.5160 
G01 X21.4637 Y19.5372 
G01 X21.1762 Y19.5372 
G01 X21.0700 Y19.5160 
G01 X20.9637 Y19.5372 
G01 X20.6762 Y19.5372 
G01 X20.5700 Y19.5160 
G01 X20.4637 Y19.5372 
G01 X20.1762 Y19.5372 
G01 X20.0700 Y19.5160 
G01 X19.9637 Y19.5372 
G01 X19.6762 Y19.5372 
G01 X19.5946 Y19.5209 
G01 X19.5946 Y19.5453 
G01 X26.3490 Y19.5453 
G01 X29.7053 Y16.1890 
G00 Z2.5400 
G00 X13.1586 Y12.1177 
G01 Z-0.1778 F254.00 
G01 X14.7813 Y12.1177 F508.00 
G01 X14.9015 Y12.1416 
G01 X15.0147 Y12.1885 
G01 X15.1166 Y12.2566 
G01 X15.2033 Y12.3433 
G01 X15.2273 Y12.3794 
G01 X15.2273 Y9.2203 
G01 X15.2273 Y9.0676 
G01 X15.2571 Y8.9180 
G01 X15.3155 Y8.7770 
G01 X15.4002 Y8.6501 
G01 X17.6370 Y6.4134 
G01 X17.2276 Y6.4134 
G01 X16.5100 Y5.6957 
G01 X15.7923 Y6.4134 
G01 X14.6876 Y6.4134 
G01 X13.9700 Y5.6957 
G01 X13.4746 Y6.1911 
G01 X13.4746 Y11.3536 
G01 X13.4746 Y11.5063 
G01 X13.4448 Y11.6559 
G01 X13.3864 Y11.7969 
G01 X13.3017 Y11.9238 
G01 X13.0950 Y12.1304 
G01 X13.1586 Y12.1177 
G00 Z2.5400 
G00 X10.6553 Y12.6236 
G01 Z-0.1778 F254.00 
G01 X10.6851 Y12.4740 F508.00 
G01 X10.7435 Y12.3330 
G01 X10.8282 Y12.2061 
G01 X10.9361 Y12.0982 
G01 X11.9253 Y11.1090 
G01 X11.9253 Y6.1911 
G01 X11.3665 Y5.6323 
G01 X11.3665 Y4.5276 
G01 X12.0842 Y3.8100 
G01 X11.3665 Y3.0923 
G01 X11.3665 Y1.9876 
G01 X12.1476 Y1.2065 
G01 X13.2523 Y1.2065 
G01 X13.9700 Y1.9242 
G01 X14.6876 Y1.2065 
G01 X15.7923 Y1.2065 
G01 X16.5100 Y1.9242 
G01 X17.2276 Y1.2065 
G01 X18.2753 Y1.2065 
G01 X18.2753 Y0.6856 
G01 X18.3051 Y0.5360 
G01 X18.3635 Y0.3950 
G01 X18.4482 Y0.2681 
G01 X18.5561 Y0.1602 
G01 X19.2102 Y-0.4937 
G01 X19.3181 Y-0.6017 
G01 X19.4450 Y-0.6864 
G01 X19.5860 Y-0.7448 
G01 X19.7356 Y-0.7746 
G01 X24.0535 Y-0.7746 
G01 X24.2063 Y-0.7746 
G01 X24.3559 Y-0.7448 
G01 X24.4969 Y-0.6864 
G01 X24.6238 Y-0.6017 
G01 X26.0017 Y0.7761 
G01 X26.0864 Y0.9030 
G01 X26.1448 Y1.0440 
G01 X26.1746 Y1.1936 
G01 X26.1746 Y1.3463 
G01 X26.1746 Y11.1090 
G01 X26.5677 Y11.5022 
G01 X26.5677 Y10.1386 
G01 X26.5916 Y10.0184 
G01 X26.6385 Y9.9052 
G01 X26.7066 Y9.8033 
G01 X26.7933 Y9.7166 
G01 X26.8952 Y9.6485 
G01 X27.0084 Y9.6016 
G01 X27.1286 Y9.5777 
G01 X28.7513 Y9.5777 
G01 X28.8715 Y9.6016 
G01 X28.9847 Y9.6485 
G01 X29.0866 Y9.7166 
G01 X29.1733 Y9.8033 
G01 X29.2414 Y9.9052 
G01 X29.2883 Y10.0184 
G01 X29.3122 Y10.1386 
G01 X29.3122 Y10.1753 
G01 X29.9236 Y10.1753 
G01 X30.0763 Y10.1753 
G01 X30.2259 Y10.2051 
G01 X30.3669 Y10.2635 
G01 X30.4938 Y10.3482 
G01 X30.9738 Y10.8282 
G01 X31.0817 Y10.9361 
G01 X31.1664 Y11.0630 
G01 X31.2248 Y11.2040 
G01 X31.2546 Y11.3536 
G01 X31.2546 Y16.4336 
G01 X31.2546 Y16.5863 
G01 X31.2248 Y16.7359 
G01 X31.1664 Y16.8769 
G01 X31.0817 Y17.0038 
G01 X27.2717 Y20.8138 
G01 X27.1638 Y20.9217 
G01 X27.0369 Y21.0064 
G01 X26.8959 Y21.0648 
G01 X26.7463 Y21.0946 
G01 X18.9736 Y21.0946 
G01 X18.8240 Y21.0648 
G01 X18.6830 Y21.0064 
G01 X18.5561 Y20.9217 
G01 X18.4482 Y20.8138 
G01 X18.2182 Y20.5838 
G01 X18.1335 Y20.4569 
G01 X18.0751 Y20.3159 
G01 X18.0453 Y20.1663 
G01 X18.0453 Y20.0136 
G01 X18.0453 Y19.5209 
G01 X17.9637 Y19.5372 
G01 X17.6762 Y19.5372 
G01 X17.5415 Y19.5104 
G01 X17.4147 Y19.4579 
G01 X17.3005 Y19.3816 
G01 X17.2872 Y19.3682 
G01 X17.0038 Y19.6517 
G01 X16.8769 Y19.7364 
G01 X16.7359 Y19.7948 
G01 X16.5863 Y19.8246 
G01 X16.4336 Y19.8246 
G01 X16.2840 Y19.7948 
G01 X16.1430 Y19.7364 
G01 X16.0161 Y19.6517 
G01 X15.9082 Y19.5438 
G01 X14.7266 Y18.3622 
G01 X13.1586 Y18.3622 
G01 X13.0384 Y18.3383 
G01 X12.9252 Y18.2914 
G01 X12.8233 Y18.2233 
G01 X12.7366 Y18.1366 
G01 X12.6685 Y18.0347 
G01 X12.6216 Y17.9215 
G01 X12.5977 Y17.8013 
G01 X12.5977 Y17.2794 
G01 X12.4740 Y17.2548 
G01 X12.3330 Y17.1964 
G01 X12.2061 Y17.1117 
G01 X12.0982 Y17.0038 
G01 X10.8282 Y15.7338 
G01 X10.7435 Y15.6069 
G01 X10.6851 Y15.4659 
G01 X10.6553 Y15.3163 
G01 X10.6553 Y15.1636 
G01 X10.6553 Y12.6236 
G00 Z2.5400 
G82 X22.8600 Y5.0800 Z-0.2794 F254.00 R2.5400 P1.000000
G82 X22.8600 Y2.5400 
G82 X20.3200 Y5.0800 
G82 X20.3200 Y2.5400 
G82 X17.7800 Y5.0800 
G82 X17.7800 Y2.5400 
G82 X15.2400 Y5.0800 
G82 X15.2400 Y2.5400 
G82 X12.7000 Y5.0800 
G82 X12.7000 Y2.5400 
G00 Z12.7000 
M05
M02
