; generated by Slic3r 1.2.9 on 2016-11-06 at 14:19:03

; external perimeters extrusion width = 2.50mm
; perimeters extrusion width = 2.50mm
; infill extrusion width = 2.50mm
; solid infill extrusion width = 2.50mm
; top infill extrusion width = 2.50mm

G28 ; home all axes
T1;
M150;


G21 ; set units to millimeters
G90 ; use absolute coordinates
M82 ; use absolute distances for extrusion
G92 E0
G1 Z1.200 F1200.000
G1 X81.251 Y81.250 F1200.000
G1 X118.749 Y81.250 E82.22570 F1200.000
G1 X118.749 Y118.750 E164.45579
G1 X81.251 Y118.750 E246.68149 F1200.000
G1 X81.251 Y81.550 E328.25374
G1 Z1.2 F1200.000
G1 Z1.202 X81.251 Y81.250 E328.91158 F1200.000
G1 Z1.502 X118.749 Y81.250 E411.13728
G1 Z1.802 X118.749 Y118.750 E493.36737
G1 Z2.102 X81.251 Y118.750 E575.59307 F1200.000
G1 Z2.400 X81.251 Y81.550 E657.16532
G1 Z2.4 F1200.000
G1 Z2.402 X81.251 Y81.250 E657.82316 F1200.000
G1 Z2.702 X118.749 Y81.250 E740.04887
G1 Z3.002 X118.749 Y118.750 E822.27895
G1 Z3.302 X81.251 Y118.750 E904.50466 F1200.000
G1 Z3.600 X81.251 Y81.550 E986.07690
G1 Z3.6 F1200.000
G1 Z3.602 X81.251 Y81.250 E986.73474 F1200.000
G1 Z3.902 X118.749 Y81.250 E1068.96045
G1 Z4.202 X118.749 Y118.750 E1151.19054
G1 Z4.502 X81.251 Y118.750 E1233.41624 F1200.000
G1 Z4.800 X81.251 Y81.550 E1314.98849
G1 Z4.8 F1200.000
G1 Z4.802 X81.251 Y81.250 E1315.64633 F1200.000
G1 Z5.102 X118.749 Y81.250 E1397.87203
G1 Z5.402 X118.749 Y118.750 E1480.10212
G1 Z5.702 X81.251 Y118.750 E1562.32782 F1200.000
G1 Z6.000 X81.251 Y81.550 E1643.90007
G1 Z6 F1200.000
G1 Z6.002 X81.251 Y81.250 E1644.55791 F1200.000
G1 Z6.302 X118.749 Y81.250 E1726.78361
G1 Z6.602 X118.749 Y118.750 E1809.01370
G1 Z6.902 X81.251 Y118.750 E1891.23940 F1200.000
G1 Z7.200 X81.251 Y81.550 E1972.81165
G1 Z7.2 F1200.000
G1 Z7.202 X81.251 Y81.250 E1973.46949 F1200.000
G1 Z7.502 X118.749 Y81.250 E2055.69519
G1 Z7.802 X118.749 Y118.750 E2137.92528
G1 Z8.102 X81.251 Y118.750 E2220.15098 F1200.000
G1 Z8.400 X81.251 Y81.550 E2301.72323
G1 Z8.4 F1200.000
G1 Z8.402 X81.251 Y81.250 E2302.38107 F1200.000
G1 Z8.702 X118.749 Y81.250 E2384.60677
G1 Z9.002 X118.749 Y118.750 E2466.83686
G1 Z9.302 X81.251 Y118.750 E2549.06256 F1200.000
G1 Z9.600 X81.251 Y81.550 E2630.63481
G1 Z9.6 F1200.000
G1 Z9.602 X81.251 Y81.250 E2631.29265 F1200.000
G1 Z9.902 X118.749 Y81.250 E2713.51835
G1 Z10.202 X118.749 Y118.750 E2795.74844
G1 Z10.502 X81.251 Y118.750 E2877.97415 F1200.000
G1 Z10.800 X81.251 Y81.550 E2959.54639
G1 Z10.8 F1200.000
G1 Z10.802 X81.251 Y81.250 E2960.20423 F1200.000
G1 Z11.102 X118.749 Y81.250 E3042.42994
G1 Z11.402 X118.749 Y118.750 E3124.66002
G1 Z11.702 X81.251 Y118.750 E3206.88573 F1200.000
G1 Z12.000 X81.251 Y81.550 E3288.45797
G1 Z12 F1200.000
G1 Z12.002 X81.251 Y81.250 E3289.11582 F1200.000
G1 Z12.302 X118.749 Y81.250 E3371.34152
G1 Z12.602 X118.749 Y118.750 E3453.57161
G1 Z12.902 X81.251 Y118.750 E3535.79731 F1200.000
G1 Z13.200 X81.251 Y81.550 E3617.36956
G1 Z13.2 F1200.000
G1 Z13.202 X81.251 Y81.250 E3618.02740 F1200.000
G1 Z13.502 X118.749 Y81.250 E3700.25310
G1 Z13.802 X118.749 Y118.750 E3782.48319
G1 Z14.102 X81.251 Y118.750 E3864.70889 F1200.000
G1 Z14.400 X81.251 Y81.550 E3946.28114
G1 Z14.4 F1200.000
G1 Z14.402 X81.251 Y81.250 E3946.93898 F1200.000
G1 Z14.702 X118.749 Y81.250 E4029.16468
G1 Z15.002 X118.749 Y118.750 E4111.39477
G1 Z15.302 X81.251 Y118.750 E4193.62047 F1200.000
G1 Z15.600 X81.251 Y81.550 E4275.19272
G1 Z15.6 F1200.000
G1 Z15.602 X81.251 Y81.250 E4275.85056 F1200.000
G1 Z15.902 X118.749 Y81.250 E4358.07626
G1 Z16.202 X118.749 Y118.750 E4440.30635
G1 Z16.502 X81.251 Y118.750 E4522.53205 F1200.000
G1 Z16.800 X81.251 Y81.550 E4604.10430
G1 Z16.8 F1200.000
G1 Z16.802 X81.251 Y81.250 E4604.76214 F1200.000
G1 Z17.102 X118.749 Y81.250 E4686.98784
G1 Z17.402 X118.749 Y118.750 E4769.21793
G1 Z17.702 X81.251 Y118.750 E4851.44363 F1200.000
G1 Z18.000 X81.251 Y81.550 E4933.01588
G1 Z18 F1200.000
G1 Z18.002 X81.251 Y81.250 E4933.67372 F1200.000
G1 Z18.302 X118.749 Y81.250 E5015.89943
G1 Z18.602 X118.749 Y118.750 E5098.12951
G1 Z18.902 X81.251 Y118.750 E5180.35522 F1200.000
G1 Z19.200 X81.251 Y81.550 E5261.92746
G1 Z19.2 F1200.000
G1 Z19.202 X81.251 Y81.250 E5262.58530 F1200.000
G1 Z19.502 X118.749 Y81.250 E5344.81101
G1 Z19.802 X118.749 Y118.750 E5427.04109
G1 Z20.102 X81.251 Y118.750 E5509.26680 F1200.000
G1 Z20.400 X81.251 Y81.550 E5590.83904
G1 Z20.4 F1200.000
G1 Z20.402 X81.251 Y81.250 E5591.49689 F1200.000
G1 Z20.702 X118.749 Y81.250 E5673.72259
G1 Z21.002 X118.749 Y118.750 E5755.95268
G1 Z21.302 X81.251 Y118.750 E5838.17838 F1200.000
G1 Z21.600 X81.251 Y81.550 E5919.75063
G1 Z21.6 F1200.000
G1 Z21.602 X81.251 Y81.250 E5920.40847 F1200.000
G1 Z21.902 X118.749 Y81.250 E6002.63417
G1 Z22.202 X118.749 Y118.750 E6084.86426
G1 Z22.502 X81.251 Y118.750 E6167.08996 F1200.000
G1 Z22.800 X81.251 Y81.550 E6248.66221
G1 Z22.8 F1200.000
G1 Z22.802 X81.251 Y81.250 E6249.32005 F1200.000
G1 Z23.102 X118.749 Y81.250 E6331.54575
G1 Z23.402 X118.749 Y118.750 E6413.77584
G1 Z23.702 X81.251 Y118.750 E6496.00154 F1200.000
G1 Z24.000 X81.251 Y81.550 E6577.57379
G1 Z24 F1200.000
G1 Z24.002 X81.251 Y81.250 E6578.23163 F1200.000
G1 Z24.302 X118.749 Y81.250 E6660.45733
G1 Z24.602 X118.749 Y118.750 E6742.68742
G1 Z24.902 X81.251 Y118.750 E6824.91312 F1200.000
G1 Z25.200 X81.251 Y81.550 E6906.48537
G1 Z25.2 F1200.000
G1 Z25.202 X81.251 Y81.250 E6907.14321 F1200.000
G1 Z25.502 X118.749 Y81.250 E6989.36891
G1 Z25.802 X118.749 Y118.750 E7071.59900
G1 Z26.102 X81.251 Y118.750 E7153.82471 F1200.000
G1 Z26.400 X81.251 Y81.550 E7235.39695
G1 Z26.4 F1200.000
G1 Z26.402 X81.251 Y81.250 E7236.05479 F1200.000
G1 Z26.702 X118.749 Y81.250 E7318.28050
G1 Z27.002 X118.749 Y118.750 E7400.51058
G1 Z27.302 X81.251 Y118.750 E7482.73629 F1200.000
G1 Z27.600 X81.251 Y81.550 E7564.30853
G1 Z27.6 F1200.000
G1 Z27.602 X81.251 Y81.250 E7564.96637 F1200.000
G1 Z27.902 X118.749 Y81.250 E7647.19208
G1 Z28.202 X118.749 Y118.750 E7729.42217
G1 Z28.502 X81.251 Y118.750 E7811.64787 F1200.000
G1 Z28.800 X81.251 Y81.550 E7893.22012
G1 Z28.8 F1200.000
G1 Z28.802 X81.251 Y81.250 E7893.87796 F1200.000
G1 Z29.102 X118.749 Y81.250 E7976.10366
G1 Z29.402 X118.749 Y118.750 E8058.33375
G1 Z29.702 X81.251 Y118.750 E8140.55945 F1200.000
G1 Z30.000 X81.251 Y81.550 E8222.13170
G1 Z30 F1200.000
G1 Z30.002 X81.251 Y81.250 E8222.78954 F1200.000
G1 Z30.302 X118.749 Y81.250 E8305.01524
G1 Z30.602 X118.749 Y118.750 E8387.24533
G1 Z30.902 X81.251 Y118.750 E8469.47103 F1200.000
G1 Z31.200 X81.251 Y81.550 E8551.04328
G1 Z31.2 F1200.000
G1 Z31.202 X81.251 Y81.250 E8551.70112 F1200.000
G1 Z31.502 X118.749 Y81.250 E8633.92682
G1 Z31.802 X118.749 Y118.750 E8716.15691
G1 Z32.102 X81.251 Y118.750 E8798.38261 F1200.000
G1 Z32.400 X81.251 Y81.550 E8879.95486
G1 Z32.4 F1200.000
G1 Z32.402 X81.251 Y81.250 E8880.61270 F1200.000
G1 Z32.702 X118.749 Y81.250 E8962.83840
G1 Z33.002 X118.749 Y118.750 E9045.06849
G1 Z33.302 X81.251 Y118.750 E9127.29419 F1200.000
G1 Z33.600 X81.251 Y81.550 E9208.86644
G1 Z33.6 F1200.000
G1 Z33.602 X81.251 Y81.250 E9209.52428 F1200.000
G1 Z33.902 X118.749 Y81.250 E9291.74998
G1 Z34.202 X118.749 Y118.750 E9373.98007
G1 Z34.502 X81.251 Y118.750 E9456.20578 F1200.000
G1 Z34.800 X81.251 Y81.550 E9537.77802
G1 Z34.8 F1200.000
G1 Z34.802 X81.251 Y81.250 E9538.43586 F1200.000
G1 Z35.102 X118.749 Y81.250 E9620.66157
G1 Z35.402 X118.749 Y118.750 E9702.89165
G1 Z35.702 X81.251 Y118.750 E9785.11736 F1200.000
G1 Z36.000 X81.251 Y81.550 E9866.68960
G1 Z36 F1200.000
G1 Z36.002 X81.251 Y81.250 E9867.34745 F1200.000
G1 Z36.302 X118.749 Y81.250 E9949.57315
G1 Z36.602 X118.749 Y118.750 E10031.80324
G1 Z36.902 X81.251 Y118.750 E10114.02894 F1200.000
G1 Z37.200 X81.251 Y81.550 E10195.60119
G1 Z37.2 F1200.000
G1 Z37.202 X81.251 Y81.250 E10196.25903 F1200.000
G1 Z37.502 X118.749 Y81.250 E10278.48473
G1 Z37.802 X118.749 Y118.750 E10360.71482
G1 Z38.102 X81.251 Y118.750 E10442.94052 F1200.000
G1 Z38.400 X81.251 Y81.550 E10524.51277
G1 Z38.4 F1200.000
G1 Z38.402 X81.251 Y81.250 E10525.17061 F1200.000
G1 Z38.702 X118.749 Y81.250 E10607.39631
G1 Z39.002 X118.749 Y118.750 E10689.62640
G1 Z39.302 X81.251 Y118.750 E10771.85210 F1200.000
G1 Z39.600 X81.251 Y81.550 E10853.42435
G92 E0
M151;
M104 S0 ; turn off temperature
G28 X0  ; home X axis
M84     ; disable motors

; filament used = 10853.4mm (13.3cm3)

; avoid_crossing_perimeters = 0
; bed_shape = 0x0,200x0,200x200,0x200
; bed_temperature = 0
; before_layer_gcode = 
; bridge_acceleration = 0
; bridge_fan_speed = 100
; brim_width = 0
; complete_objects = 0
; cooling = 0
; default_acceleration = 0
; disable_fan_first_layers = 1
; duplicate_distance = 6
; end_gcode = M151;\nM104 S0 ; turn off temperature\nG28 X0  ; home X axis\nM84     ; disable motors\n
; extruder_clearance_height = 20
; extruder_clearance_radius = 20
; extruder_offset = 0x0
; extrusion_axis = E
; extrusion_multiplier = 1
; fan_always_on = 0
; fan_below_layer_time = 60
; filament_colour = #FFFFFF
; filament_diameter = 1.25
; first_layer_acceleration = 0
; first_layer_bed_temperature = 0
; first_layer_extrusion_width = 2.5
; first_layer_speed = 20
; first_layer_temperature = 0
; gcode_arcs = 0
; gcode_comments = 0
; gcode_flavor = reprap
; infill_acceleration = 0
; infill_first = 0
; layer_gcode = 
; max_fan_speed = 100
; max_print_speed = 80
; max_volumetric_speed = 0
; min_fan_speed = 35
; min_print_speed = 10
; min_skirt_length = 0
; notes = 
; nozzle_diameter = 2
; only_retract_when_crossing_perimeters = 1
; ooze_prevention = 0
; output_filename_format = [input_filename_base].gcode
; perimeter_acceleration = 0
; post_process = 
; pressure_advance = 0
; resolution = 0
; retract_before_travel = 0
; retract_layer_change = 0
; retract_length = 0
; retract_length_toolchange = 10
; retract_lift = 0
; retract_restart_extra = 0
; retract_restart_extra_toolchange = 0
; retract_speed = 0
; skirt_distance = 6
; skirt_height = 1
; skirts = 0
; slowdown_below_layer_time = 30
; spiral_vase = 1
; standby_temperature_delta = -5
; start_gcode = G28 ; home all axes\nT1;\nM150;\n\n
; temperature = 0
; threads = 2
; toolchange_gcode = 
; travel_speed = 20
; use_firmware_retraction = 0
; use_relative_e_distances = 0
; use_volumetric_e = 0
; vibration_limit = 0
; wipe = 0
; z_offset = 0
; dont_support_bridges = 1
; extrusion_width = 2.5
; first_layer_height = 1.2
; infill_only_where_needed = 0
; interface_shells = 0
; layer_height = 1.2
; raft_layers = 0
; seam_position = aligned
; support_material = 0
; support_material_angle = 0
; support_material_contact_distance = 0.2
; support_material_enforce_layers = 0
; support_material_extruder = 1
; support_material_extrusion_width = 2.5
; support_material_interface_extruder = 1
; support_material_interface_layers = 3
; support_material_interface_spacing = 0
; support_material_interface_speed = 20
; support_material_pattern = pillars
; support_material_spacing = 2.5
; support_material_speed = 20
; support_material_threshold = 0
; xy_size_compensation = 0
; bottom_solid_layers = 0
; bridge_flow_ratio = 1
; bridge_speed = 20
; external_fill_pattern = rectilinear
; external_perimeter_extrusion_width = 0
; external_perimeter_speed = 20
; external_perimeters_first = 0
; extra_perimeters = 1
; fill_angle = 45
; fill_density = 0%
; fill_pattern = honeycomb
; gap_fill_speed = 20
; infill_every_layers = 1
; infill_extruder = 1
; infill_extrusion_width = 2.5
; infill_overlap = 15%
; infill_speed = 20
; overhangs = 1
; perimeter_extruder = 1
; perimeter_extrusion_width = 2.5
; perimeter_speed = 20
; perimeters = 1
; small_perimeter_speed = 20
; solid_infill_below_area = 70
; solid_infill_every_layers = 0
; solid_infill_extruder = 1
; solid_infill_extrusion_width = 2.5
; solid_infill_speed = 20
; thin_walls = 1
; top_infill_extrusion_width = 2.5
; top_solid_infill_speed = 20
; top_solid_layers = 0
