; generated by Slic3r 1.2.9 on 2017-06-21 at 12:12:19

; external perimeters extrusion width = 0.38mm
; perimeters extrusion width = 0.38mm
; infill extrusion width = 0.38mm
; solid infill extrusion width = 0.38mm
; top infill extrusion width = 0.36mm

M107
M190 S60 ; set bed temperature
M104 S210 ; set temperature
G28 ; home all axes
G1 Z5 F5000 ; lift nozzle

M109 S210 ; wait for temperature to be reached
G21 ; set units to millimeters
G90 ; use absolute coordinates
M82 ; use absolute distances for extrusion
G92 E0
G1 E-0.57000 F3300.00000
G92 E0
G1 Z0.250 F2700.000
G1 X-26.542 Y19.369 F2700.000
G1 E0.57000 F3300.00000
M204 S1000
G1 X-40.457 Y0.300 E1.23163 F2700.000
G1 X-40.771 Y-0.162 E1.24730
G1 X-41.386 Y-1.136 E1.27959
G1 X-41.840 Y-1.917 E1.30490
G1 X-42.564 Y-3.320 E1.34916
G1 X-42.779 Y-3.775 E1.36326
G1 X-43.260 Y-4.883 E1.39712
G1 X-43.847 Y-6.444 E1.44385
G1 X-44.353 Y-8.099 E1.49237
G1 X-44.746 Y-9.752 E1.53998
G1 X-44.851 Y-10.297 E1.55555
G1 X-45.032 Y-11.449 E1.58822
G1 X-45.102 Y-12.021 E1.60437
G1 X-45.226 Y-13.559 E1.64762
G1 X-45.247 Y-14.313 E1.66877
G1 X-45.239 Y-15.388 E1.69889
G1 X-45.214 Y-15.964 E1.71506
G1 X-45.133 Y-17.028 E1.74496
G1 X-45.065 Y-17.626 E1.76184
G1 X-44.907 Y-18.677 E1.79162
G1 X-44.744 Y-19.505 E1.81527
G1 X-44.380 Y-21.018 E1.85891
G1 X-43.935 Y-22.463 E1.90127
G1 X-43.323 Y-24.109 E1.95049
G1 X-42.615 Y-25.701 E1.99932
G1 X-41.814 Y-27.233 E2.04779
G1 X-41.534 Y-27.717 E2.06347
G1 X-40.892 Y-28.741 E2.09733
G1 X-40.473 Y-29.359 E2.11826
G1 X-39.808 Y-30.263 E2.14970
G1 X-39.450 Y-30.715 E2.16586
G1 X-38.747 Y-31.543 E2.19630
G1 X-38.357 Y-31.972 E2.21257
G1 X-37.607 Y-32.740 E2.24264
G1 X-37.164 Y-33.162 E2.25980
G1 X-36.370 Y-33.864 E2.28951
G1 X-35.939 Y-34.219 E2.30517
G1 X-34.892 Y-35.005 E2.34185
G1 X-34.056 Y-35.568 E2.37010
G1 X-33.540 Y-35.889 E2.38715
G1 X-32.673 Y-36.385 E2.41513
G1 X-32.102 Y-36.683 E2.43319
G1 X-31.203 Y-37.108 E2.46106
G1 X-30.639 Y-37.350 E2.47827
G1 X-29.198 Y-37.888 E2.52136
G1 X-28.109 Y-38.215 E2.55324
G1 X-27.134 Y-38.460 E2.58141
G1 X-26.529 Y-38.588 E2.59875
G1 X-24.993 Y-38.837 E2.64235
G1 X17.367 Y-43.379 E3.83644
G1 X17.907 Y-43.419 E3.85161
G1 X19.547 Y-43.473 E3.89762
G1 X20.358 Y-43.458 E3.92034 F2700.000
G1 X21.553 Y-43.394 E3.95388
G1 X23.244 Y-43.217 E4.00154
G1 X23.750 Y-43.145 E4.01587
G1 X25.411 Y-42.837 E4.06322
G1 X26.575 Y-42.557 E4.09678
G1 X28.212 Y-42.068 E4.14466
G1 X28.748 Y-41.882 E4.16056
G1 X29.827 Y-41.466 E4.19297
G1 X30.359 Y-41.239 E4.20918
G1 X31.745 Y-40.581 E4.25219
G1 X32.605 Y-40.106 E4.27972
G1 X33.831 Y-39.364 E4.31990
G1 X34.709 Y-38.762 E4.34972
G1 X35.182 Y-38.413 E4.36620
G1 X36.020 Y-37.746 E4.39623
G1 X36.479 Y-37.353 E4.41316
G1 X37.627 Y-36.278 E4.45723
G1 X38.817 Y-35.005 E4.50610
G1 X39.929 Y-33.663 E4.55492
G1 X40.251 Y-33.241 E4.56979
G1 X40.959 Y-32.247 E4.60400
G1 X41.885 Y-30.787 E4.65246
G1 X42.164 Y-30.303 E4.66814
G1 X42.868 Y-28.964 E4.71052
G1 X43.506 Y-27.533 E4.75446
G1 X43.712 Y-27.016 E4.77004
G1 X44.083 Y-25.980 E4.80090
G1 X44.264 Y-25.414 E4.81755
G1 X44.552 Y-24.383 E4.84754
G1 X44.694 Y-23.793 E4.86454
G1 X44.993 Y-22.232 E4.90910
G1 X45.155 Y-20.905 E4.94657
G1 X45.225 Y-19.908 E4.97457
G1 X45.245 Y-19.289 E4.99195
G1 X45.240 Y-18.295 E5.01980
G1 X45.214 Y-17.664 E5.03751
G1 X45.131 Y-16.656 E5.06585
G1 X45.059 Y-16.051 E5.08294
G1 X44.904 Y-15.059 E5.11108
G1 X44.661 Y-13.892 E5.14447
G1 X44.268 Y-12.463 E5.18604
G1 X44.084 Y-11.894 E5.20277
G1 X43.525 Y-10.419 E5.24700
G1 X26.280 Y28.532 E6.44094
G1 X26.041 Y29.028 E6.45635
G1 X25.498 Y30.060 E6.48905
G1 X25.061 Y30.825 E6.51375
G1 X24.201 Y32.165 E6.55838
G1 X23.915 Y32.577 E6.57244
G1 X23.194 Y33.552 E6.60643
G1 X22.717 Y34.145 E6.62774
G1 X21.788 Y35.230 E6.66779
G1 X20.968 Y36.094 E6.70117
G1 X20.576 Y36.482 E6.71663
G1 X19.712 Y37.281 E6.74961
G1 X18.391 Y38.371 E6.79761
G1 X17.929 Y38.718 E6.81381
G1 X16.654 Y39.598 E6.85722
G1 X16.028 Y39.982 E6.87782
G1 X15.094 Y40.514 E6.90793
G1 X14.576 Y40.785 E6.92434
G1 X13.600 Y41.251 E6.95463
G1 X13.065 Y41.484 E6.97099
G1 X12.076 Y41.874 E7.00079
G1 X11.515 Y42.072 E7.01746
G1 X10.486 Y42.394 E7.04769
G1 X9.968 Y42.538 E7.06276
G1 X8.334 Y42.920 E7.10979
G1 X7.184 Y43.129 E7.14255
G1 X6.451 Y43.233 E7.16331
G1 X5.051 Y43.387 E7.20279
G1 X3.911 Y43.456 E7.23479
G1 X2.252 Y43.469 E7.28129
G1 X1.726 Y43.452 E7.29604
G1 X0.213 Y43.342 E7.33857
G1 X-0.665 Y43.232 E7.36337
G1 X-1.698 Y43.062 E7.39269
G1 X-3.222 Y42.728 E7.43645
G1 X-3.790 Y42.576 E7.45290
G1 X-4.767 Y42.276 E7.48156
G1 X-5.327 Y42.083 E7.49817
G1 X-6.270 Y41.718 E7.52651
G1 X-7.383 Y41.226 E7.56062
G1 X-8.759 Y40.502 E7.60419
G1 X-9.297 Y40.185 E7.62170
G1 X-10.134 Y39.648 E7.64957
G1 X-10.644 Y39.294 E7.66695
G1 X-11.435 Y38.699 E7.69471
G1 X-11.916 Y38.309 E7.71207
G1 X-12.675 Y37.644 E7.74036
G1 X-13.093 Y37.250 E7.75645
G1 X-14.094 Y36.214 E7.79683
G1 X-14.782 Y35.419 E7.82631
G1 X-15.162 Y34.946 E7.84332
G1 X-26.507 Y19.417 E8.38232
G1 X-26.270 Y19.170 F2700.000
G1 X-40.185 Y0.102 E9.04395 F2700.000
G1 X-40.486 Y-0.342 E9.05898
G1 X-41.101 Y-1.316 E9.09128
G1 X-41.547 Y-2.083 E9.11614
G1 X-42.264 Y-3.473 E9.15997
G1 X-42.470 Y-3.910 E9.17350
G1 X-42.951 Y-5.018 E9.20736
G1 X-43.531 Y-6.560 E9.25354
G1 X-44.030 Y-8.194 E9.30144
G1 X-44.417 Y-9.826 E9.34846
G1 X-44.518 Y-10.350 E9.36340
G1 X-44.699 Y-11.501 E9.39606
G1 X-44.766 Y-12.050 E9.41156
G1 X-44.890 Y-13.572 E9.45436
G1 X-44.910 Y-14.310 E9.47507
G1 X-44.902 Y-15.385 E9.50519
G1 X-44.878 Y-15.938 E9.52071
G1 X-44.797 Y-17.002 E9.55060
G1 X-44.732 Y-17.576 E9.56681
G1 X-44.574 Y-18.627 E9.59658
G1 X-44.471 Y-19.181 E9.61237
G1 X-44.114 Y-20.715 E9.65653
G1 X-43.613 Y-22.362 E9.70479
G1 X-43.447 Y-22.841 E9.71899
G1 X-42.817 Y-24.447 E9.76734
G1 X-42.308 Y-25.561 E9.80165
G1 X-41.517 Y-27.074 E9.84952
G1 X-41.248 Y-27.539 E9.86457
G1 X-40.606 Y-28.562 E9.89842
G1 X-40.058 Y-29.355 E9.92545
G1 X-39.193 Y-30.497 E9.96558
G1 X-38.490 Y-31.325 E9.99602
G1 X-38.115 Y-31.736 E10.01163
G1 X-37.366 Y-32.504 E10.04170
G1 X-36.940 Y-32.909 E10.05817
G1 X-36.146 Y-33.611 E10.08788
G1 X-35.733 Y-33.953 E10.10290
G1 X-34.704 Y-34.726 E10.13899
G1 X-33.868 Y-35.289 E10.16723
G1 X-33.372 Y-35.597 E10.18359
G1 X-32.506 Y-36.092 E10.21157
G1 X-31.957 Y-36.378 E10.22890
G1 X-31.059 Y-36.803 E10.25676
G1 X-30.517 Y-37.036 E10.27328
G1 X-29.097 Y-37.567 E10.31577
G1 X-28.027 Y-37.888 E10.34709
G1 X-27.052 Y-38.133 E10.37526
G1 X-26.471 Y-38.256 E10.39191
G1 X-24.957 Y-38.502 E10.43489
G1 X17.403 Y-43.044 E11.62897
G1 X17.920 Y-43.082 E11.64353
G1 X19.546 Y-43.136 E11.68911
G1 X20.340 Y-43.121 E11.71136 F2700.000
G1 X21.535 Y-43.057 E11.74491
G1 X23.206 Y-42.883 E11.79201
G1 X23.692 Y-42.813 E11.80576
G1 X25.333 Y-42.509 E11.85253
G1 X26.496 Y-42.229 E11.88608
G1 X28.113 Y-41.746 E11.93336
G1 X28.627 Y-41.567 E11.94861
G1 X29.706 Y-41.151 E11.98103
G1 X30.216 Y-40.934 E11.99658
G1 X31.255 Y-40.448 E12.02873
G1 X32.232 Y-39.934 E12.05966
G1 X33.161 Y-39.390 E12.08984
G1 X33.641 Y-39.086 E12.10576
G1 X34.518 Y-38.484 E12.13558
G1 X34.973 Y-38.149 E12.15140
G1 X35.810 Y-37.482 E12.18141
G1 X36.251 Y-37.105 E12.19766
G1 X37.387 Y-36.041 E12.24129
G1 X38.569 Y-34.776 E12.28983
G1 X39.668 Y-33.451 E12.33807
G1 X39.976 Y-33.046 E12.35234
G1 X40.684 Y-32.052 E12.38654
G1 X41.599 Y-30.610 E12.43441
G1 X41.866 Y-30.144 E12.44945
G1 X42.565 Y-28.818 E12.49148
G1 X43.197 Y-27.398 E12.53505
G1 X43.395 Y-26.902 E12.55001
G1 X43.766 Y-25.866 E12.58084
G1 X43.939 Y-25.323 E12.59682
G1 X44.227 Y-24.292 E12.62682
G1 X44.364 Y-23.726 E12.64313
G1 X44.659 Y-22.186 E12.68709
G1 X44.819 Y-20.882 E12.72393
G1 X44.888 Y-19.885 E12.75193
G1 X44.908 Y-19.290 E12.76860
G1 X44.903 Y-18.297 E12.79646
G1 X44.878 Y-17.691 E12.81345
G1 X44.795 Y-16.684 E12.84178
G1 X44.726 Y-16.103 E12.85817
G1 X44.571 Y-15.111 E12.88632
G1 X44.332 Y-13.966 E12.91909
G1 X43.944 Y-12.555 E12.96011
G1 X43.767 Y-12.010 E12.97618
G1 X43.216 Y-10.555 E13.01976
G1 X25.972 Y28.396 E14.21370
G1 X25.743 Y28.871 E14.22849
G1 X25.200 Y29.903 E14.26118
G1 X24.770 Y30.655 E14.28545
G1 X23.918 Y31.981 E14.32963
G1 X23.644 Y32.377 E14.34313
G1 X22.923 Y33.352 E14.37711
G1 X22.459 Y33.928 E14.39785
G1 X21.543 Y34.998 E14.43732
G1 X20.724 Y35.862 E14.47070
G1 X19.483 Y37.033 E14.51851
G1 X18.179 Y38.109 E14.56589
G1 X17.736 Y38.442 E14.58143
G1 X16.475 Y39.312 E14.62439
G1 X15.861 Y39.689 E14.64457
G1 X14.928 Y40.221 E14.67467
G1 X14.430 Y40.481 E14.69043
G1 X13.455 Y40.947 E14.72070
G1 X12.942 Y41.170 E14.73640
G1 X11.952 Y41.560 E14.76619
G1 X11.414 Y41.750 E14.78219
G1 X10.385 Y42.072 E14.81241
G1 X9.888 Y42.210 E14.82687
G1 X8.274 Y42.589 E14.87335
G1 X7.124 Y42.798 E14.90611
G1 X6.410 Y42.899 E14.92631
G1 X5.030 Y43.050 E14.96522
G1 X3.891 Y43.120 E14.99722
G1 X2.253 Y43.132 E15.04312
G1 X1.748 Y43.115 E15.05728
G1 X0.251 Y43.007 E15.09936
G1 X-0.611 Y42.899 E15.12369
G1 X-1.643 Y42.730 E15.15301
G1 X-3.147 Y42.400 E15.19616
G1 X-3.691 Y42.254 E15.21195
G1 X-4.668 Y41.954 E15.24061
G1 X-5.206 Y41.768 E15.25655
G1 X-6.149 Y41.404 E15.28488
G1 X-7.243 Y40.919 E15.31842
G1 X-8.599 Y40.206 E15.36137
G1 X-9.115 Y39.901 E15.37817
G1 X-9.952 Y39.365 E15.40604
G1 X-10.441 Y39.025 E15.42272
G1 X-11.233 Y38.430 E15.45048
G1 X-11.695 Y38.055 E15.46714
G1 X-12.854 Y37.013 E15.51085
G1 X-13.839 Y35.994 E15.55058
G1 X-14.527 Y35.198 E15.58006
G1 X-14.892 Y34.744 E15.59638
G1 X-26.234 Y19.219 E16.13529
G1 X-25.997 Y18.971 F2700.000
G1 X-39.912 Y-0.097 E16.79692 F2700.000
G1 X-40.201 Y-0.522 E16.81132
G1 X-40.817 Y-1.496 E16.84361
G1 X-41.254 Y-2.249 E16.86803
G1 X-41.963 Y-3.626 E16.91142
G1 X-42.160 Y-4.044 E16.92439
G1 X-42.642 Y-5.152 E16.95825
G1 X-43.214 Y-6.675 E17.00386
G1 X-43.706 Y-8.289 E17.05116
G1 X-44.088 Y-9.901 E17.09758
G1 X-44.185 Y-10.403 E17.11190
G1 X-44.366 Y-11.553 E17.14455
G1 X-44.430 Y-12.079 E17.15939
G1 X-44.553 Y-13.585 E17.20175
G1 X-44.573 Y-14.308 E17.22201
G1 X-44.542 Y-15.913 E17.26700
G1 X-44.461 Y-16.976 E17.29689
G1 X-44.398 Y-17.526 E17.31241
G1 X-44.241 Y-18.577 E17.34219
G1 X-44.142 Y-19.108 E17.35731
G1 X-43.788 Y-20.628 E17.40106
G1 X-43.291 Y-22.262 E17.44894
G1 X-43.132 Y-22.721 E17.46255
G1 X-42.510 Y-24.307 E17.51031
G1 X-41.787 Y-25.854 E17.55816
G1 X-40.962 Y-27.360 E17.60630
G1 X-40.113 Y-28.698 E17.65071
G1 X-39.265 Y-29.863 E17.69109
G1 X-38.233 Y-31.106 E17.73638
G1 X-37.874 Y-31.501 E17.75133
G1 X-37.125 Y-32.269 E17.78140
G1 X-36.717 Y-32.656 E17.79718
G1 X-35.527 Y-33.686 E17.84127
G1 X-34.515 Y-34.447 E17.87676
G1 X-33.680 Y-35.009 E17.90499
G1 X-33.205 Y-35.304 E17.92066
G1 X-32.338 Y-35.800 E17.94863
G1 X-31.813 Y-36.073 E17.96524
G1 X-30.914 Y-36.499 E17.99310
G1 X-30.396 Y-36.721 E18.00893
G1 X-28.996 Y-37.245 E18.05081
G1 X-27.945 Y-37.561 E18.08158
G1 X-26.970 Y-37.806 E18.10975
G1 X-26.413 Y-37.924 E18.12569
G1 X-24.921 Y-38.166 E18.16807
G1 X17.438 Y-42.709 E19.36214
G1 X17.934 Y-42.745 E19.37608
G1 X19.545 Y-42.799 E19.42124
G1 X20.322 Y-42.785 E19.44302 F2700.000
G1 X21.517 Y-42.721 E19.47657
G1 X23.168 Y-42.548 E19.52311
G1 X23.633 Y-42.481 E19.53628
G1 X25.254 Y-42.181 E19.58247
G1 X26.417 Y-41.901 E19.61601
G1 X28.013 Y-41.424 E19.66269
G1 X28.505 Y-41.253 E19.67730
G1 X29.584 Y-40.837 E19.70971
G1 X30.073 Y-40.628 E19.72461
G1 X31.113 Y-40.143 E19.75676
G1 X32.062 Y-39.643 E19.78682
G1 X32.991 Y-39.099 E19.81700
G1 X33.450 Y-38.808 E19.83225
G1 X34.328 Y-38.206 E19.86207
G1 X34.763 Y-37.885 E19.87723
G1 X35.600 Y-37.219 E19.90723
G1 X36.022 Y-36.857 E19.92279
G1 X37.147 Y-35.805 E19.96597
G1 X38.322 Y-34.548 E20.01419
G1 X39.406 Y-33.238 E20.06185
G1 X39.702 Y-32.850 E20.07552
G1 X40.410 Y-31.856 E20.10972
G1 X41.312 Y-30.432 E20.15699
G1 X41.569 Y-29.986 E20.17140
G1 X42.261 Y-28.671 E20.21306
G1 X42.889 Y-27.263 E20.25627
G1 X43.078 Y-26.788 E20.27060
G1 X43.449 Y-25.753 E20.30142
G1 X43.614 Y-25.232 E20.31673
G1 X43.903 Y-24.201 E20.34672
G1 X44.033 Y-23.659 E20.36235
G1 X44.325 Y-22.140 E20.40570
G1 X44.483 Y-20.858 E20.44192
G1 X44.552 Y-19.861 E20.46992
G1 X44.571 Y-19.292 E20.48589
G1 X44.566 Y-18.298 E20.51374
G1 X44.542 Y-17.718 E20.53002
G1 X44.459 Y-16.711 E20.55833
G1 X44.393 Y-16.155 E20.57403
G1 X44.238 Y-15.163 E20.60218
G1 X44.003 Y-14.040 E20.63434
G1 X43.619 Y-12.647 E20.67482
G1 X43.450 Y-12.125 E20.69020
G1 X42.908 Y-10.692 E20.73315
G1 X25.664 Y28.259 E21.92709
G1 X24.902 Y29.746 E21.97392
G1 X24.479 Y30.485 E21.99778
G1 X23.636 Y31.798 E22.04151
G1 X23.373 Y32.177 E22.05443
G1 X22.652 Y33.151 E22.08842
G1 X22.201 Y33.712 E22.10859
G1 X21.298 Y34.766 E22.14748
G1 X20.479 Y35.631 E22.18086
G1 X19.254 Y36.785 E22.22804
G1 X17.967 Y37.846 E22.27479
G1 X17.543 Y38.166 E22.28968
G1 X16.295 Y39.027 E22.33218
G1 X15.694 Y39.396 E22.35194
G1 X14.761 Y39.928 E22.38205
G1 X14.284 Y40.177 E22.39714
G1 X13.310 Y40.643 E22.42739
G1 X11.829 Y41.247 E22.47222
G1 X11.313 Y41.429 E22.48754
G1 X10.285 Y41.751 E22.51775
G1 X9.809 Y41.883 E22.53160
G1 X8.213 Y42.257 E22.57753
G1 X7.063 Y42.466 E22.61029
G1 X6.369 Y42.564 E22.62994
G1 X5.010 Y42.714 E22.66828
G1 X3.870 Y42.783 E22.70028
G1 X2.254 Y42.795 E22.74558
G1 X1.770 Y42.779 E22.75914
G1 X0.288 Y42.672 E22.80078
G1 X-0.556 Y42.567 E22.82464
G1 X-1.588 Y42.397 E22.85395
G1 X-3.071 Y42.071 E22.89650
G1 X-3.592 Y41.931 E22.91163
G1 X-4.569 Y41.632 E22.94027
G1 X-5.084 Y41.454 E22.95554
G1 X-6.027 Y41.089 E22.98388
G1 X-7.103 Y40.613 E23.01684
G1 X-8.439 Y39.909 E23.05917
G1 X-8.933 Y39.618 E23.07526
G1 X-9.770 Y39.081 E23.10313
G1 X-10.239 Y38.755 E23.11912
G1 X-11.030 Y38.161 E23.14687
G1 X-11.473 Y37.802 E23.16284
G1 X-12.615 Y36.775 E23.20588
G1 X-13.584 Y35.773 E23.24496
G1 X-14.272 Y34.978 E23.27444
G1 X-14.622 Y34.543 E23.29007
G1 X-25.962 Y19.020 E23.82889
G1 X-25.725 Y18.773 F2700.000
G1 X-39.640 Y-0.296 E24.49051 F2700.000
G1 X-39.916 Y-0.702 E24.50429
G1 X-40.532 Y-1.676 E24.53658
G1 X-40.961 Y-2.416 E24.56055
G1 X-41.851 Y-4.178 E24.61590
G1 X-42.333 Y-5.286 E24.64976
G1 X-42.898 Y-6.791 E24.69481
G1 X-43.383 Y-8.385 E24.74150
G1 X-43.760 Y-9.976 E24.78733
G1 X-43.852 Y-10.455 E24.80102
G1 X-44.094 Y-12.108 E24.84784
G1 X-44.216 Y-13.599 E24.88975
G1 X-44.235 Y-14.305 E24.90957
G1 X-44.206 Y-15.887 E24.95390
G1 X-44.124 Y-16.950 E24.98379
G1 X-44.065 Y-17.476 E24.99863
G1 X-43.813 Y-19.034 E25.04287
G1 X-43.463 Y-20.540 E25.08620
G1 X-42.969 Y-22.162 E25.13371
G1 X-42.817 Y-22.600 E25.14672
G1 X-42.203 Y-24.168 E25.19390
G1 X-41.490 Y-25.695 E25.24114
G1 X-40.676 Y-27.182 E25.28865
G1 X-39.834 Y-28.510 E25.33275
G1 X-38.994 Y-29.663 E25.37272
G1 X-37.976 Y-30.888 E25.41736
G1 X-37.633 Y-31.266 E25.43165
G1 X-36.884 Y-32.033 E25.46172
G1 X-36.494 Y-32.404 E25.47680
G1 X-35.321 Y-33.419 E25.52027
G1 X-34.327 Y-34.167 E25.55515
G1 X-33.492 Y-34.730 E25.58337
G1 X-33.038 Y-35.012 E25.59836
G1 X-32.171 Y-35.507 E25.62633
G1 X-31.669 Y-35.769 E25.64220
G1 X-30.770 Y-36.194 E25.67007
G1 X-30.274 Y-36.407 E25.68519
G1 X-28.895 Y-36.924 E25.72647
G1 X-27.863 Y-37.234 E25.75669
G1 X-26.888 Y-37.479 E25.78486
G1 X-26.356 Y-37.592 E25.80010
G1 X-24.885 Y-37.831 E25.84186
G1 X17.474 Y-42.373 E27.03593
G1 X17.948 Y-42.408 E27.04926
G1 X19.543 Y-42.462 E27.09399
G1 X20.304 Y-42.448 E27.11530 F2700.000
G1 X21.499 Y-42.384 E27.14885
G1 X23.130 Y-42.213 E27.19483
G1 X23.575 Y-42.149 E27.20743
G1 X25.175 Y-41.853 E27.25303
G1 X26.339 Y-41.574 E27.28657
G1 X27.913 Y-41.102 E27.33264
G1 X28.384 Y-40.938 E27.34661
G1 X29.931 Y-40.323 E27.39326
G1 X30.970 Y-39.837 E27.42541
G1 X31.891 Y-39.352 E27.45460
G1 X32.820 Y-38.808 E27.48478
G1 X34.137 Y-37.928 E27.52917
G1 X34.553 Y-37.621 E27.54366
