; generated by Slic3r 1.1.7 on 2017-06-19 at 14:05:40

; perimeters extrusion width = 0.38mm
; infill extrusion width = 0.38mm
; solid infill extrusion width = 0.38mm
; top infill extrusion width = 0.36mm

G21 ; set units to millimeters
M107
M190 S100 ; wait for bed temperature to be reached
M104 S210 ; set temperature
G28 ; home all axes
G1 Z5 F5000 ; lift nozzle

M109 S210 ; wait for temperature to be reached
G90 ; use absolute coordinates
G92 E0
M82 ; use absolute distances for extrusion
M204 S1000
G1 F3300.000 E-0.57000
G92 E0
G1 Z0.250 F2700.000
G1 X-17.278 Y-22.889 F2700.000
G1 E0.57000 F3300.000
G1 X-16.677 Y-23.343 E0.59408 F2700.000
G1 X-15.437 Y-24.181 E0.64190
G1 X-14.146 Y-24.958 E0.69005
G1 X-12.822 Y-25.663 E0.73798
G1 X-11.456 Y-26.302 E0.78617
G1 X-10.068 Y-26.863 E0.83402
G1 X-8.649 Y-27.353 E0.88197
G1 X-7.206 Y-27.768 E0.92994
G1 X-6.189 Y-28.012 E0.96336
G1 X-4.267 Y-28.369 E1.02585
G1 X-2.768 Y-28.554 E1.07411
G1 X-1.279 Y-28.659 E1.12180
G1 X0.231 Y-28.687 E1.17005
G1 X1.727 Y-28.636 E1.21788 F2700.000
G1 X3.226 Y-28.506 E1.26596
G1 X4.714 Y-28.298 E1.31399
G1 X6.188 Y-28.013 E1.36196
G1 X7.644 Y-27.651 E1.40989
G1 X9.078 Y-27.214 E1.45781
G1 X10.491 Y-26.701 E1.50583
G1 X11.876 Y-26.114 E1.55390
G1 X13.226 Y-25.458 E1.60186
G1 X14.544 Y-24.728 E1.64999
G1 X15.813 Y-23.936 E1.69780
G1 X17.047 Y-23.074 E1.74590
G1 X18.230 Y-22.151 E1.79385
G1 X19.025 Y-21.471 E1.82727
G1 X20.446 Y-20.124 E1.88985
G1 X21.471 Y-19.026 E1.93784
G1 X22.437 Y-17.877 E1.98582
G1 X23.342 Y-16.678 E2.03379
G1 X24.183 Y-15.433 E2.08181
G1 X24.957 Y-14.147 E2.12979
G1 X25.665 Y-12.819 E2.17787
G1 X26.299 Y-11.460 E2.22578
G1 X26.863 Y-10.068 E2.27378
G1 X27.353 Y-8.649 E2.32176
G1 X27.768 Y-7.206 E2.36973
G1 X28.108 Y-5.742 E2.41775
G1 X28.370 Y-4.263 E2.46576
G1 X28.554 Y-2.773 E2.51372
G1 X28.660 Y-1.274 E2.56174
G1 X28.687 Y0.227 E2.60971
G1 X28.636 Y1.724 E2.65757
G1 X28.506 Y3.228 E2.70579
G1 X28.298 Y4.712 E2.75370
G1 X28.013 Y6.187 E2.80169
G1 X27.651 Y7.645 E2.84969
G1 X27.214 Y9.077 E2.89755
G1 X26.700 Y10.493 E2.94567
G1 X26.114 Y11.876 E2.99366
G1 X25.457 Y13.227 E3.04166
G1 X24.730 Y14.540 E3.08964
G1 X23.935 Y15.815 E3.13764
G1 X23.343 Y16.677 E3.17106
G1 X22.151 Y18.230 E3.23362
G1 X21.167 Y19.364 E3.28161
G1 X20.124 Y20.446 E3.32961
G1 X19.027 Y21.470 E3.37757
G1 X17.877 Y22.437 E3.42559
G1 X16.678 Y23.342 E3.47359
G1 X15.433 Y24.183 E3.52159
G1 X14.147 Y24.957 E3.56956
G1 X13.225 Y25.458 E3.60306
G1 X11.460 Y26.299 E3.66555
G1 X10.068 Y26.863 E3.71355
G1 X9.080 Y27.213 E3.74705
G1 X7.202 Y27.769 E3.80961
G1 X5.742 Y28.108 E3.85752
G1 X4.263 Y28.370 E3.90553
G1 X2.772 Y28.554 E3.95351
G1 X1.274 Y28.660 E4.00149
G1 X-0.230 Y28.687 E4.04958
G1 X-1.728 Y28.636 E4.09748
G1 X-3.216 Y28.507 E4.14520
G1 X-4.706 Y28.299 E4.19327
G1 X-6.187 Y28.013 E4.24146
G1 X-7.645 Y27.651 E4.28946
G1 X-8.647 Y27.354 E4.32288
G1 X-10.493 Y26.700 E4.38544
G1 X-11.876 Y26.114 E4.43343
G1 X-13.225 Y25.458 E4.48139
G1 X-14.540 Y24.730 E4.52941
G1 X-15.815 Y23.935 E4.57741
G1 X-17.046 Y23.075 E4.62539
G1 X-18.230 Y22.151 E4.67339
G1 X-19.362 Y21.168 E4.72130
G1 X-20.445 Y20.124 E4.76937
G1 X-21.470 Y19.027 E4.81733
G1 X-22.439 Y17.875 E4.86543
G1 X-23.342 Y16.677 E4.91337
G1 X-24.183 Y15.434 E4.96133
G1 X-24.957 Y14.148 E5.00928
G1 X-25.664 Y12.821 E5.05734
G1 X-26.300 Y11.458 E5.10541
G1 X-26.863 Y10.068 E5.15333
G1 X-27.353 Y8.648 E5.20132
G1 X-27.768 Y7.205 E5.24930
G1 X-28.107 Y5.742 E5.29730
G1 X-28.369 Y4.263 E5.34529
G1 X-28.554 Y2.772 E5.39328
G1 X-28.660 Y1.272 E5.44135
G1 X-28.687 Y-0.226 E5.48921
G1 X-28.636 Y-1.724 E5.53711
G1 X-28.506 Y-3.225 E5.58525
G1 X-28.298 Y-4.712 E5.63324
G1 X-28.013 Y-6.187 E5.68124
G1 X-27.652 Y-7.640 E5.72908
G1 X-27.213 Y-9.081 E5.77722
G1 X-26.700 Y-10.493 E5.82522
G1 X-26.114 Y-11.876 E5.87321
G1 X-25.456 Y-13.229 E5.92129
G1 X-24.730 Y-14.541 E5.96920
G1 X-23.935 Y-15.815 E6.01720
G1 X-23.073 Y-17.048 E6.06528
G1 X-22.151 Y-18.229 E6.11315
G1 X-21.167 Y-19.364 E6.16115
G1 X-20.124 Y-20.446 E6.20916
G1 X-19.027 Y-21.470 E6.25711
G1 X-17.877 Y-22.436 E6.30510
G1 X-17.326 Y-22.853 E6.32718
G1 X-17.047 Y-22.582 F2700.000
G1 X-16.459 Y-23.026 E6.35070 F2700.000
G1 X-15.236 Y-23.853 E6.39789
G1 X-13.963 Y-24.620 E6.44539
G1 X-12.657 Y-25.316 E6.49268
G1 X-11.309 Y-25.946 E6.54022
G1 X-9.939 Y-26.501 E6.58743
G1 X-8.540 Y-26.985 E6.63474
G1 X-7.117 Y-27.394 E6.68207
G1 X-6.100 Y-27.639 E6.71549
G1 X-4.216 Y-27.988 E6.77670
G1 X-2.738 Y-28.171 E6.82431
G1 X-1.269 Y-28.275 E6.87136
G1 X0.221 Y-28.303 E6.91897
G1 X1.697 Y-28.253 E6.96615 F2700.000
G1 X3.175 Y-28.125 E7.01358
G1 X4.640 Y-27.921 E7.06082
G1 X6.099 Y-27.639 E7.10830
G1 X7.535 Y-27.282 E7.15559
G1 X8.950 Y-26.851 E7.20287
G1 X10.344 Y-26.346 E7.25025
G1 X11.711 Y-25.768 E7.29767
G1 X13.043 Y-25.120 E7.34499
G1 X14.343 Y-24.401 E7.39247
G1 X15.595 Y-23.619 E7.43964
G1 X16.813 Y-22.769 E7.48710
G1 X17.980 Y-21.859 E7.53441
G1 X18.776 Y-21.179 E7.56783
G1 X20.167 Y-19.859 E7.62912
G1 X21.179 Y-18.776 E7.67647
G1 X22.132 Y-17.643 E7.72380
G1 X23.025 Y-16.461 E7.77114
G1 X23.855 Y-15.232 E7.81851
G1 X24.620 Y-13.963 E7.86585
G1 X25.318 Y-12.653 E7.91329
G1 X25.944 Y-11.313 E7.96055
G1 X26.501 Y-9.940 E8.00791
G1 X26.985 Y-8.540 E8.05524
G1 X27.395 Y-7.116 E8.10258
G1 X27.730 Y-5.672 E8.14995
G1 X27.989 Y-4.212 E8.19732
G1 X28.171 Y-2.743 E8.24464
G1 X28.276 Y-1.264 E8.29201
G1 X28.303 Y0.217 E8.33934
G1 X28.253 Y1.694 E8.38656
G1 X28.125 Y3.177 E8.43414
G1 X27.920 Y4.642 E8.48140
G1 X27.639 Y6.097 E8.52875
G1 X27.282 Y7.536 E8.57611
G1 X26.852 Y8.949 E8.62333
G1 X26.345 Y10.346 E8.67080
G1 X25.768 Y11.710 E8.71815
G1 X25.119 Y13.043 E8.76551
G1 X24.402 Y14.340 E8.81284
G1 X23.618 Y15.597 E8.86020
G1 X23.026 Y16.459 E8.89362
G1 X21.859 Y17.981 E8.95490
G1 X20.888 Y19.100 E9.00224
G1 X19.859 Y20.167 E9.04960
G1 X18.777 Y21.178 E9.09692
G1 X17.643 Y22.132 E9.14430
G1 X16.460 Y23.025 E9.19165
G1 X15.232 Y23.855 E9.23900
G1 X13.963 Y24.620 E9.28634
G1 X13.042 Y25.120 E9.31983
G1 X11.313 Y25.944 E9.38104
G1 X9.940 Y26.501 E9.42840
G1 X8.952 Y26.851 E9.46189
G1 X7.113 Y27.395 E9.52317
G1 X5.672 Y27.730 E9.57044
G1 X4.212 Y27.989 E9.61780
G1 X2.742 Y28.171 E9.66514
G1 X1.264 Y28.275 E9.71248
G1 X-0.220 Y28.303 E9.75993
G1 X-1.698 Y28.253 E9.80719
G1 X-3.166 Y28.126 E9.85427
G1 X-4.637 Y27.922 E9.90170
G1 X-6.097 Y27.639 E9.94924
G1 X-7.536 Y27.282 E9.99660
G1 X-8.538 Y26.985 E10.03001
G1 X-10.346 Y26.345 E10.09129
G1 X-11.710 Y25.768 E10.13863
G1 X-13.042 Y25.120 E10.18595
G1 X-14.340 Y24.402 E10.23333
G1 X-15.597 Y23.618 E10.28068
G1 X-16.812 Y22.770 E10.32803
G1 X-17.981 Y21.859 E10.37539
G1 X-19.098 Y20.889 E10.42265
G1 X-20.167 Y19.860 E10.47008
G1 X-21.178 Y18.778 E10.51739
G1 X-22.134 Y17.641 E10.56486
G1 X-23.026 Y16.460 E10.61215
G1 X-23.855 Y15.233 E10.65946
G1 X-24.619 Y13.965 E10.70677
G1 X-25.317 Y12.655 E10.75418
G1 X-25.945 Y11.311 E10.80161
G1 X-26.501 Y9.940 E10.84889
G1 X-26.985 Y8.539 E10.89624
G1 X-27.395 Y7.115 E10.94358
G1 X-27.730 Y5.672 E10.99093
G1 X-27.988 Y4.213 E11.03828
G1 X-28.171 Y2.742 E11.08563
G1 X-28.276 Y1.262 E11.13306
G1 X-28.303 Y-0.216 E11.18028
G1 X-28.253 Y-1.694 E11.22754
G1 X-28.125 Y-3.175 E11.27503
G1 X-27.920 Y-4.642 E11.32238
G1 X-27.639 Y-6.097 E11.36973
G1 X-27.284 Y-7.531 E11.41694
G1 X-26.851 Y-8.953 E11.46442
G1 X-26.345 Y-10.346 E11.51178
G1 X-25.768 Y-11.710 E11.55913
G1 X-25.118 Y-13.045 E11.60657
G1 X-24.402 Y-14.340 E11.65383
G1 X-23.618 Y-15.597 E11.70119
G1 X-22.768 Y-16.814 E11.74863
G1 X-21.859 Y-17.980 E11.79585
G1 X-20.888 Y-19.100 E11.84322
G1 X-19.859 Y-20.167 E11.89058
G1 X-18.777 Y-21.178 E11.93789
G1 X-17.643 Y-22.131 E11.98524
G1 X-17.095 Y-22.546 E12.00722
G1 X-16.815 Y-22.276 F2700.000
G1 X-16.242 Y-22.709 E12.03019 F2700.000
G1 X-15.035 Y-23.525 E12.07675
G1 X-13.779 Y-24.283 E12.12360
G1 X-12.491 Y-24.970 E12.17024
G1 X-11.162 Y-25.591 E12.21713
G1 X-9.811 Y-26.139 E12.26371
G1 X-8.431 Y-26.616 E12.31038
G1 X-7.027 Y-27.021 E12.35706
G1 X-6.010 Y-27.265 E12.39048
G1 X-4.166 Y-27.607 E12.45041
G1 X-2.708 Y-27.788 E12.49737
G1 X-1.259 Y-27.891 E12.54379
G1 X0.211 Y-27.919 E12.59074
G1 X1.666 Y-27.870 E12.63729 F2700.000
G1 X3.125 Y-27.744 E12.68407
G1 X4.570 Y-27.543 E12.73068
G1 X6.009 Y-27.265 E12.77751
G1 X7.426 Y-26.914 E12.82416
G1 X8.822 Y-26.489 E12.87079
G1 X10.197 Y-25.991 E12.91753
G1 X11.545 Y-25.421 E12.96430
G1 X12.859 Y-24.782 E13.01098
G1 X14.142 Y-24.073 E13.05782
G1 X15.378 Y-23.303 E13.10436
G1 X16.579 Y-22.464 E13.15116
G1 X17.731 Y-21.566 E13.19783
G1 X18.526 Y-20.887 E13.23125
G1 X19.888 Y-19.595 E13.29126
G1 X20.887 Y-18.527 E13.33796
G1 X21.827 Y-17.409 E13.38465
G1 X22.708 Y-16.243 E13.43135
G1 X23.528 Y-15.032 E13.47808
G1 X24.282 Y-13.780 E13.52477
G1 X24.971 Y-12.488 E13.57157
G1 X25.589 Y-11.166 E13.61819
G1 X26.139 Y-9.811 E13.66490
G1 X26.616 Y-8.430 E13.71160
G1 X27.021 Y-7.026 E13.75829
G1 X27.352 Y-5.602 E13.80502
G1 X27.608 Y-4.162 E13.85174
G1 X27.787 Y-2.712 E13.89842
G1 X27.891 Y-1.254 E13.94515
G1 X27.919 Y0.207 E13.99184
G1 X27.870 Y1.664 E14.03842
G1 X27.744 Y3.127 E14.08535
G1 X27.543 Y4.572 E14.13197
G1 X27.266 Y6.007 E14.17868
G1 X26.914 Y7.426 E14.22539
G1 X26.489 Y8.821 E14.27197
G1 X25.990 Y10.199 E14.31880
G1 X25.421 Y11.545 E14.36550
G1 X24.782 Y12.860 E14.41222
G1 X24.075 Y14.139 E14.45891
G1 X23.302 Y15.379 E14.50562
G1 X22.709 Y16.241 E14.53904
G1 X21.566 Y17.731 E14.59904
G1 X20.609 Y18.835 E14.64574
G1 X19.595 Y19.888 E14.69245
G1 X18.528 Y20.886 E14.73913
G1 X17.409 Y21.827 E14.78587
G1 X16.242 Y22.709 E14.83257
G1 X15.032 Y23.528 E14.87929
G1 X13.780 Y24.282 E14.92598
G1 X12.859 Y24.782 E14.95947
G1 X11.166 Y25.589 E15.01940
G1 X9.811 Y26.139 E15.06611
G1 X8.824 Y26.489 E15.09960
G1 X7.023 Y27.022 E15.15960
G1 X5.602 Y27.352 E15.20622
G1 X4.162 Y27.608 E15.25294
G1 X2.712 Y27.787 E15.29964
G1 X1.254 Y27.891 E15.34634
G1 X-0.210 Y27.919 E15.39314
G1 X-1.668 Y27.870 E15.43976
G1 X-3.117 Y27.745 E15.48621
G1 X-4.567 Y27.544 E15.53299
G1 X-6.007 Y27.266 E15.57988
G1 X-7.426 Y26.914 E15.62659
G1 X-8.429 Y26.617 E15.66001
G1 X-10.199 Y25.990 E15.72000
G1 X-11.545 Y25.421 E15.76670
G1 X-12.859 Y24.782 E15.81338
G1 X-14.139 Y24.075 E15.86011
G1 X-15.380 Y23.302 E15.90683
G1 X-16.578 Y22.465 E15.95353
G1 X-17.731 Y21.566 E16.00024
G1 X-18.834 Y20.611 E16.04687
G1 X-19.888 Y19.595 E16.09365
G1 X-20.886 Y18.528 E16.14032
G1 X-21.829 Y17.407 E16.18714
G1 X-22.709 Y16.242 E16.23379
G1 X-23.527 Y15.032 E16.28046
G1 X-24.281 Y13.781 E16.32713
G1 X-24.970 Y12.490 E16.37390
G1 X-25.590 Y11.164 E16.42069
G1 X-26.139 Y9.811 E16.46732
G1 X-26.616 Y8.430 E16.51402
G1 X-27.021 Y7.026 E16.56072
G1 X-27.352 Y5.602 E16.60743
G1 X-27.607 Y4.163 E16.65414
G1 X-27.787 Y2.712 E16.70085
G1 X-27.891 Y1.252 E16.74763
G1 X-27.919 Y-0.206 E16.79421
G1 X-27.870 Y-1.664 E16.84083
G1 X-27.744 Y-3.125 E16.88768
G1 X-27.543 Y-4.572 E16.93438
G1 X-27.266 Y-6.008 E16.98109
G1 X-26.915 Y-7.422 E17.02766
G1 X-26.488 Y-8.824 E17.07450
G1 X-25.990 Y-10.199 E17.12121
G1 X-25.421 Y-11.545 E17.16792
G1 X-24.780 Y-12.862 E17.21471
G1 X-24.075 Y-14.139 E17.26134
G1 X-23.302 Y-15.380 E17.30805
G1 X-22.463 Y-16.580 E17.35484
G1 X-21.567 Y-17.730 E17.40143
G1 X-20.609 Y-18.835 E17.44815
G1 X-19.595 Y-19.888 E17.49487
G1 X-18.528 Y-20.886 E17.54154
G1 X-17.409 Y-21.827 E17.58824
G1 X-16.863 Y-22.240 E17.61013
G1 X-16.583 Y-21.969 F2700.000
G1 X-16.024 Y-22.392 E17.63255 F2700.000
G1 X-14.834 Y-23.198 E17.67847
G1 X-13.596 Y-23.945 E17.72467
G1 X-12.326 Y-24.623 E17.77067
G1 X-11.015 Y-25.236 E17.81692
G1 X-9.683 Y-25.777 E17.86285
G1 X-8.322 Y-26.248 E17.90888
G1 X-6.937 Y-26.647 E17.95492
G1 X-5.920 Y-26.891 E17.98834
G1 X-4.116 Y-27.226 E18.04699
G1 X-2.678 Y-27.405 E18.09329
G1 X-1.248 Y-27.507 E18.13908
G1 X0.201 Y-27.534 E18.18539
G1 X1.636 Y-27.487 E18.23129 F2700.000
G1 X3.075 Y-27.363 E18.27743
G1 X4.500 Y-27.165 E18.32340
G1 X5.919 Y-26.892 E18.36958
G1 X7.316 Y-26.545 E18.41559
G1 X8.694 Y-26.127 E18.46159
G1 X10.050 Y-25.636 E18.50767
G1 X11.380 Y-25.074 E18.55380
G1 X12.676 Y-24.444 E18.59984
G1 X13.941 Y-23.746 E18.64603
G1 X15.160 Y-22.986 E18.69193
G1 X16.345 Y-22.159 E18.73809
G1 X17.481 Y-21.274 E18.78411
G1 X18.277 Y-20.595 E18.81753
G1 X19.610 Y-19.330 E18.87626
G1 X20.594 Y-18.277 E18.92232
G1 X21.522 Y-17.175 E18.96837
G1 X22.392 Y-16.025 E19.01442
G1 X23.200 Y-14.831 E19.06051
G1 X23.944 Y-13.597 E19.10656
G1 X24.624 Y-12.322 E19.15271
G1 X25.234 Y-11.019 E19.19869
G1 X25.777 Y-9.683 E19.24476
G1 X26.248 Y-8.321 E19.29081
G1 X26.647 Y-6.937 E19.33686
G1 X26.974 Y-5.532 E19.38295
G1 X27.227 Y-4.112 E19.42903
G1 X27.404 Y-2.682 E19.47507
G1 X27.507 Y-1.244 E19.52115
G1 X27.535 Y0.197 E19.56720
G1 X27.487 Y1.634 E19.61314
G1 X27.363 Y3.077 E19.65942
G1 X27.165 Y4.502 E19.70540
G1 X26.892 Y5.918 E19.75146
G1 X26.545 Y7.317 E19.79753
G1 X26.127 Y8.693 E19.84348
G1 X25.635 Y10.052 E19.88966
G1 X25.074 Y11.380 E19.93572
G1 X24.444 Y12.676 E19.98179
G1 X23.747 Y13.938 E20.02784
G1 X22.985 Y15.162 E20.07391
G1 X22.393 Y16.024 E20.10733
G1 X21.274 Y17.481 E20.16604
G1 X20.330 Y18.571 E20.21210
G1 X19.330 Y19.609 E20.25817
G1 X18.278 Y20.594 E20.30421
G1 X17.175 Y21.523 E20.35030
G1 X16.025 Y22.392 E20.39636
G1 X14.831 Y23.200 E20.44243
G1 X13.597 Y23.944 E20.48848
G1 X12.676 Y24.444 E20.52197
G1 X11.019 Y25.234 E20.58061
G1 X9.683 Y25.776 E20.62668
G1 X8.695 Y26.126 E20.66017
G1 X6.933 Y26.648 E20.71889
G1 X5.532 Y26.974 E20.76487
G1 X4.112 Y27.227 E20.81095
G1 X2.682 Y27.404 E20.85700
G1 X1.244 Y27.507 E20.90306
G1 X-0.200 Y27.534 E20.94922
G1 X-1.638 Y27.486 E20.99519
G1 X-3.067 Y27.364 E21.04102
G1 X-4.497 Y27.166 E21.08715
G1 X-5.918 Y26.892 E21.13338
G1 X-7.317 Y26.545 E21.17946
G1 X-8.320 Y26.248 E21.21287
G1 X-10.052 Y25.635 E21.27158
G1 X-11.380 Y25.074 E21.31764
G1 X-12.675 Y24.444 E21.36368
G1 X-13.938 Y23.747 E21.40976
G1 X-15.162 Y22.985 E21.45583
G1 X-16.344 Y22.160 E21.50189
G1 X-17.481 Y21.274 E21.54796
G1 X-18.569 Y20.332 E21.59395
G1 X-19.609 Y19.331 E21.64008
G1 X-20.593 Y18.278 E21.68612
G1 X-21.524 Y17.173 E21.73229
G1 X-22.392 Y16.024 E21.77830
G1 X-23.200 Y14.831 E21.82433
G1 X-23.944 Y13.598 E21.87036
G1 X-24.623 Y12.325 E21.91648
G1 X-25.235 Y11.017 E21.96262
G1 X-25.777 Y9.683 E22.00861
G1 X-26.248 Y8.321 E22.05467
G1 X-26.647 Y6.936 E22.10073
G1 X-26.974 Y5.532 E22.14680
G1 X-27.226 Y4.113 E22.19286
G1 X-27.404 Y2.682 E22.23893
G1 X-27.507 Y1.242 E22.28507
G1 X-27.535 Y-0.196 E22.33101
G1 X-27.487 Y-1.634 E22.37699
G1 X-27.363 Y-3.074 E22.42318
G1 X-27.165 Y-4.502 E22.46925
G1 X-26.892 Y-5.918 E22.51531
G1 X-26.546 Y-7.313 E22.56124
G1 X-26.126 Y-8.696 E22.60743
G1 X-25.635 Y-10.052 E22.65351
G1 X-25.074 Y-11.380 E22.69957
G1 X-24.443 Y-12.679 E22.74572
G1 X-23.747 Y-13.938 E22.79170
G1 X-22.985 Y-15.162 E22.83777
G1 X-22.158 Y-16.346 E22.88392
G1 X-21.275 Y-17.481 E22.92987
G1 X-20.330 Y-18.571 E22.97595
G1 X-19.330 Y-19.609 E23.02202
G1 X-18.278 Y-20.593 E23.06805
G1 X-17.175 Y-21.522 E23.11411
G1 X-16.631 Y-21.933 E23.13591
G1 X-16.352 Y-21.663 F2700.000
G1 X-15.806 Y-22.076 E23.15776 F2700.000
G1 X-14.633 Y-22.870 E23.20305
G1 X-13.413 Y-23.607 E23.24860
G1 X-12.160 Y-24.276 E23.29397
G1 X-10.868 Y-24.881 E23.33956
G1 X-9.555 Y-25.414 E23.38486
G1 X-8.212 Y-25.879 E23.43024
G1 X-6.847 Y-26.273 E23.47565
G1 X-5.831 Y-26.518 E23.50906
G1 X-4.065 Y-26.845 E23.56643
G1 X-2.648 Y-27.022 E23.61208
G1 X-1.238 Y-27.123 E23.65724
G1 X0.190 Y-27.150 E23.70289
G1 X1.606 Y-27.103 E23.74816 F2700.000
G1 X3.025 Y-26.982 E23.79365
G1 X4.430 Y-26.787 E23.83898
G1 X5.829 Y-26.518 E23.88451
