; generated by Slic3r 1.2.9 on 2017-07-04 at 09:10:28

; external perimeters extrusion width = 0.40mm
; perimeters extrusion width = 0.48mm
; infill extrusion width = 0.48mm
; solid infill extrusion width = 0.48mm
; top infill extrusion width = 0.48mm

M107
M190 S50 ; set bed temperature
M104 S210 ; set temperature
G28 ; home all axes
G1 Z5 F5000 ; lift nozzle

M109 S210 ; wait for temperature to be reached
G21 ; set units to millimeters
G90 ; use absolute coordinates
M82 ; use absolute distances for extrusion
G92 E0
G1 E-0.57000 F3300.00000
G92 E0
G1 Z1.750 F7800.000
G1 X10.794 Y-12.639 F7800.000
G1 E0.57000 F3300.00000
G1 X11.248 Y-12.241 E0.62489 F816.252
G1 X11.877 Y-11.631 E0.70456
G1 X12.469 Y-10.994 E0.78369
G1 X12.809 Y-10.595 E0.83129
G1 X13.550 Y-9.631 E0.94188
G1 X14.035 Y-8.908 E1.02108
G1 X14.478 Y-8.169 E1.09940
G1 X14.732 Y-7.701 E1.14779
G1 X15.115 Y-6.919 E1.22694
G1 X15.581 Y-5.795 E1.33757
G1 X15.863 Y-4.972 E1.41672
G1 X16.101 Y-4.135 E1.49582
G1 X16.223 Y-3.626 E1.54348
G1 X16.391 Y-2.772 E1.62262
G1 X16.550 Y-1.565 E1.73324
G1 X16.591 Y-1.043 E1.78085
G1 X16.623 Y-0.173 E1.86003
G1 X16.609 Y0.697 E1.93914
G1 X16.550 Y1.565 E2.01829
G1 X16.391 Y2.772 E2.12895
G1 X16.295 Y3.286 E2.17655
G1 X16.101 Y4.135 E2.25570
G1 X15.863 Y4.972 E2.33485
G1 X15.581 Y5.795 E2.41395
G1 X15.115 Y6.919 E2.52462
G1 X14.732 Y7.701 E2.60378
G1 X14.311 Y8.458 E2.68256
G1 X14.035 Y8.908 E2.73049
G1 X13.550 Y9.630 E2.80963
G1 X12.809 Y10.596 E2.92030
G1 X12.469 Y10.994 E2.96791
G1 X11.877 Y11.631 E3.04703
G1 X11.252 Y12.237 E3.12619
G1 X10.596 Y12.809 E3.20531
G1 X9.630 Y13.550 E3.31598
G1 X8.908 Y14.035 E3.39512
G1 X8.161 Y14.482 E3.47423
G1 X7.701 Y14.732 E3.52184
G1 X6.919 Y15.115 E3.60099
G1 X5.795 Y15.581 E3.71166
G1 X4.972 Y15.863 E3.79077
G1 X4.135 Y16.101 E3.86986
G1 X3.626 Y16.223 E3.91753
G1 X2.772 Y16.391 E3.99666
G1 X1.910 Y16.513 E4.07583
G1 X1.043 Y16.591 E4.15494
G1 X-0.174 Y16.623 E4.26561
G1 X-0.697 Y16.609 E4.31322
G1 X-1.565 Y16.550 E4.39233
G1 X-2.770 Y16.391 E4.50288
G1 X-3.621 Y16.224 E4.58170
G1 X-4.135 Y16.101 E4.62974
G1 X-4.972 Y15.863 E4.70889
G1 X-5.795 Y15.581 E4.78800
G1 X-6.920 Y15.115 E4.89875
G1 X-7.701 Y14.732 E4.97781
G1 X-8.460 Y14.310 E5.05683
G1 X-8.908 Y14.035 E5.10454
G1 X-9.630 Y13.550 E5.18369
G1 X-10.596 Y12.809 E5.29435
G1 X-11.247 Y12.241 E5.37295
G1 X-11.873 Y11.635 E5.45219
G1 X-12.237 Y11.252 E5.50021
G1 X-12.809 Y10.596 E5.57938
G1 X-13.550 Y9.631 E5.68997
G1 X-14.035 Y8.908 E5.76914
G1 X-14.482 Y8.161 E5.84828
G1 X-14.890 Y7.392 E5.92742
G1 X-15.115 Y6.919 E5.97504
G1 X-15.581 Y5.794 E6.08579
G1 X-15.863 Y4.972 E6.16484
G1 X-16.101 Y4.135 E6.24391
G1 X-16.223 Y3.626 E6.29157
G1 X-16.391 Y2.772 E6.37071
G1 X-16.550 Y1.565 E6.48137
G1 X-16.609 Y0.697 E6.56048
G1 X-16.623 Y-0.166 E6.63901
G1 X-16.591 Y-1.038 E6.71827
G1 X-16.550 Y-1.565 E6.76638
G1 X-16.445 Y-2.429 E6.84553
G1 X-16.295 Y-3.286 E6.92466
G1 X-16.011 Y-4.470 E7.03539
G1 X-15.756 Y-5.301 E7.11444
G1 X-15.459 Y-6.113 E7.19298
G1 X-15.256 Y-6.603 E7.24120
G1 X-14.890 Y-7.392 E7.32033
G1 X-14.308 Y-8.462 E7.43109
G1 X-13.846 Y-9.199 E7.51015
G1 X-13.346 Y-9.910 E7.58922
G1 X-12.811 Y-10.594 E7.66817
G1 X-12.469 Y-10.993 E7.71596
G1 X-11.631 Y-11.877 E7.82670
G1 X-10.997 Y-12.466 E7.90544
G1 X-10.327 Y-13.027 E7.98485
G1 X-9.629 Y-13.550 E8.06415
G1 X-9.198 Y-13.847 E8.11179
G1 X-8.161 Y-14.483 E8.22239
G1 X-7.701 Y-14.732 E8.27000
G1 X-6.920 Y-15.115 E8.34906
G1 X-6.117 Y-15.457 E8.42837
G1 X-5.301 Y-15.756 E8.50740
G1 X-4.136 Y-16.101 E8.61791
G1 X-3.286 Y-16.295 E8.69714
G1 X-2.438 Y-16.444 E8.77542
G1 X-1.567 Y-16.550 E8.85528
G1 X-1.042 Y-16.591 E8.90316
G1 X0.174 Y-16.623 E9.01376
G1 X1.042 Y-16.591 E9.09269 F816.252
G1 X1.906 Y-16.514 E9.17161
G1 X2.766 Y-16.392 E9.25058
G1 X3.286 Y-16.295 E9.29867
G1 X4.469 Y-16.011 E9.40932
G1 X4.976 Y-15.861 E9.45737
G1 X5.795 Y-15.581 E9.53606
G1 X6.920 Y-15.115 E9.64677
G1 X7.701 Y-14.732 E9.72586
G1 X8.464 Y-14.308 E9.80530
G1 X9.198 Y-13.847 E9.88407
G1 X9.629 Y-13.550 E9.93170
G1 X10.327 Y-13.027 E10.01100
G1 X10.749 Y-12.678 E10.06074
G1 E9.49074 F3300.00000
G92 E0
G1 X0.420 Y-8.389 F7800.000
G1 E0.57000 F3300.00000
G1 X0.440 Y-8.388 E0.57181 F816.252
G1 X0.878 Y-8.354 E0.61178 F816.252
G1 X1.746 Y-8.216 E0.69172
G1 X2.596 Y-7.988 E0.77169
G1 X3.417 Y-7.674 E0.85163
G1 X4.200 Y-7.275 E0.93154
G1 X4.937 Y-6.795 E1.01152
G1 X5.620 Y-6.243 E1.09140
G1 X6.242 Y-5.620 E1.17141
G1 X6.528 Y-5.286 E1.21140
G1 X7.045 Y-4.575 E1.29134
G1 X7.484 Y-3.813 E1.37129
G1 X7.842 Y-3.010 E1.45123
G1 X8.113 Y-2.174 E1.53118
G1 X8.296 Y-1.314 E1.61112
G1 X8.388 Y-0.440 E1.69107
G1 X8.388 Y0.440 E1.77102
G1 X8.296 Y1.314 E1.85096
G1 X8.113 Y2.174 E1.93091
G1 X7.842 Y3.010 E2.01086
G1 X7.484 Y3.813 E2.09080
G1 X7.045 Y4.575 E2.17075
G1 X6.795 Y4.937 E2.21074
G1 X6.242 Y5.620 E2.29068
G1 X5.620 Y6.242 E2.37063
G1 X4.937 Y6.795 E2.45057
G1 X4.575 Y7.045 E2.49056
G1 X3.813 Y7.484 E2.57051
G1 X3.010 Y7.842 E2.65045
G1 X2.174 Y8.113 E2.73040
G1 X1.314 Y8.296 E2.81034
G1 X0.440 Y8.388 E2.89029
G1 X-0.440 Y8.388 E2.97024
G1 X-1.314 Y8.296 E3.05019
G1 X-1.746 Y8.216 E3.09017
G1 X-2.596 Y7.989 E3.17012
G1 X-3.416 Y7.673 E3.25006
G1 X-4.200 Y7.274 E3.33001
G1 X-4.937 Y6.795 E3.40996
G1 X-5.620 Y6.242 E3.48990
G1 X-6.242 Y5.620 E3.56985
G1 X-6.795 Y4.937 E3.64979
G1 X-7.274 Y4.200 E3.72974
G1 X-7.484 Y3.813 E3.76973
G1 X-7.842 Y3.010 E3.84967
G1 X-8.113 Y2.174 E3.92962
G1 X-8.296 Y1.314 E4.00957
G1 X-8.388 Y0.440 E4.08951
G1 X-8.388 Y-0.440 E4.16946
G1 X-8.296 Y-1.314 E4.24940
G1 X-8.113 Y-2.174 E4.32935
G1 X-7.841 Y-3.011 E4.40938
G1 X-7.484 Y-3.813 E4.48924
G1 X-7.045 Y-4.575 E4.56919
G1 X-6.796 Y-4.937 E4.60916
G1 X-6.242 Y-5.620 E4.68912
G1 X-5.621 Y-6.242 E4.76905
G1 X-4.937 Y-6.795 E4.84901
G1 X-4.200 Y-7.275 E4.92899
G1 X-3.417 Y-7.674 E5.00890
G1 X-3.010 Y-7.842 E5.04887
G1 X-2.174 Y-8.113 E5.12884
G1 X-1.314 Y-8.296 E5.20880
G1 X-0.440 Y-8.388 E5.28871
G1 X0.360 Y-8.390 E5.36143
G1 X0.436 Y-9.013 F7800.000
G1 X0.472 Y-9.012 E5.36471 F816.252
G1 X0.943 Y-8.975 E5.40767 F816.252
G1 X1.876 Y-8.828 E5.49356
G1 X2.789 Y-8.583 E5.57947
G1 X3.671 Y-8.245 E5.66536
G1 X4.512 Y-7.816 E5.75123
G1 X5.305 Y-7.301 E5.83715
G1 X6.038 Y-6.707 E5.92298
G1 X6.707 Y-6.039 E6.00894
G1 X7.301 Y-5.305 E6.09485
G1 X7.569 Y-4.915 E6.13780
G1 X8.041 Y-4.097 E6.22369
G1 X8.425 Y-3.234 E6.30959
G1 X8.717 Y-2.336 E6.39549
G1 X8.914 Y-1.412 E6.48138
G1 X9.012 Y-0.472 E6.56728
G1 X9.012 Y0.472 E6.65317
G1 X8.914 Y1.412 E6.73907
G1 X8.717 Y2.336 E6.82496
G1 X8.425 Y3.234 E6.91086
G1 X8.041 Y4.097 E6.99676
G1 X7.569 Y4.915 E7.08265
G1 X7.301 Y5.305 E7.12562
G1 X6.707 Y6.039 E7.21151
G1 X6.039 Y6.707 E7.29741
G1 X5.305 Y7.301 E7.38330
G1 X4.915 Y7.569 E7.42626
G1 X4.097 Y8.041 E7.51216
G1 X3.234 Y8.425 E7.59806
G1 X2.336 Y8.717 E7.68395
G1 X1.412 Y8.914 E7.76985
G1 X0.472 Y9.012 E7.85575
G1 X-0.472 Y9.012 E7.94164
G1 X-1.412 Y8.914 E8.02754
G1 X-1.876 Y8.828 E8.07050
G1 X-2.789 Y8.583 E8.15639
G1 X-3.671 Y8.245 E8.24229
G1 X-4.512 Y7.816 E8.32819
G1 X-5.305 Y7.301 E8.41408
G1 X-6.039 Y6.707 E8.49998
G1 X-6.707 Y6.039 E8.58587
G1 X-7.301 Y5.305 E8.67177
G1 X-7.816 Y4.512 E8.75767
G1 X-8.041 Y4.097 E8.80063
G1 X-8.425 Y3.234 E8.88652
G1 X-8.717 Y2.336 E8.97242
G1 X-8.914 Y1.412 E9.05831
G1 X-9.012 Y0.472 E9.14421
G1 X-9.012 Y-0.472 E9.23010
G1 X-8.914 Y-1.412 E9.31600
G1 X-8.717 Y-2.336 E9.40190
G1 X-8.425 Y-3.235 E9.48787
G1 X-8.041 Y-4.097 E9.57369
G1 X-7.569 Y-4.915 E9.65958
G1 X-7.301 Y-5.305 E9.70254
G1 X-6.707 Y-6.039 E9.78844
G1 X-6.039 Y-6.707 E9.87433
G1 X-5.305 Y-7.301 E9.96023
G1 X-4.512 Y-7.816 E10.04615
G1 X-3.671 Y-8.245 E10.13202
G1 X-3.234 Y-8.425 E10.17497
G1 X-2.336 Y-8.717 E10.26088
G1 X-1.412 Y-8.914 E10.34679
G1 X-0.472 Y-9.012 E10.43266
G1 X0.376 Y-9.015 E10.50984
G1 X0.453 Y-9.638 F7800.000
G1 X0.505 Y-9.637 E10.51460 F816.252
G1 X1.009 Y-9.597 E10.56054 F816.252
G1 X1.510 Y-9.531 E10.60647
G1 X2.006 Y-9.439 E10.65241
G1 X2.498 Y-9.321 E10.69835
G1 X2.982 Y-9.178 E10.74430
G1 X3.458 Y-9.009 E10.79024
G1 X3.925 Y-8.816 E10.83617
G1 X4.381 Y-8.598 E10.88210
G1 X4.825 Y-8.357 E10.92803
G1 X5.256 Y-8.093 E10.97399
G1 X5.672 Y-7.807 E11.01993
G1 X6.073 Y-7.499 E11.06587
G1 X6.456 Y-7.172 E11.11172
G1 X6.824 Y-6.823 E11.15774
G1 X7.171 Y-6.457 E11.20368
G1 X7.499 Y-6.073 E11.24962
G1 X7.807 Y-5.672 E11.29556
G1 X8.093 Y-5.256 E11.34149
G1 X8.357 Y-4.825 E11.38743
G1 X8.598 Y-4.381 E11.43337
G1 X8.816 Y-3.925 E11.47930
G1 X9.009 Y-3.458 E11.52524
G1 X9.178 Y-2.982 E11.57118
G1 X9.321 Y-2.498 E11.61712
G1 X9.439 Y-2.006 E11.66306
G1 X9.531 Y-1.510 E11.70900
G1 X9.597 Y-1.009 E11.75494
G1 X9.637 Y-0.505 E11.80087
G1 X9.650 Y0.000 E11.84681
G1 X9.637 Y0.505 E11.89275
G1 X9.597 Y1.009 E11.93869
G1 X9.531 Y1.510 E11.98463
G1 X9.439 Y2.006 E12.03057
G1 X9.321 Y2.498 E12.07650
G1 X9.178 Y2.982 E12.12244
G1 X9.009 Y3.458 E12.16838
G1 X8.816 Y3.925 E12.21432
G1 X8.598 Y4.381 E12.26026
G1 X8.357 Y4.825 E12.30620
G1 X8.093 Y5.256 E12.35214
G1 X7.807 Y5.672 E12.39807
G1 X7.499 Y6.073 E12.44401
G1 X7.171 Y6.457 E12.48995
G1 X6.824 Y6.824 E12.53589
G1 X6.457 Y7.171 E12.58183
G1 X6.073 Y7.499 E12.62777
G1 X5.672 Y7.807 E12.67370
G1 X5.256 Y8.093 E12.71964
G1 X4.825 Y8.357 E12.76558
G1 X4.381 Y8.598 E12.81152
G1 X3.925 Y8.816 E12.85746
G1 X3.458 Y9.009 E12.90340
G1 X2.982 Y9.178 E12.94933
G1 X2.498 Y9.321 E12.99527
G1 X2.006 Y9.439 E13.04121
G1 X1.510 Y9.531 E13.08715
G1 X1.009 Y9.597 E13.13309
G1 X0.505 Y9.637 E13.17903
G1 X0.000 Y9.650 E13.22497
G1 X-0.505 Y9.637 E13.27090
G1 X-1.009 Y9.597 E13.31684
G1 X-1.510 Y9.531 E13.36278
G1 X-2.006 Y9.439 E13.40872
G1 X-2.498 Y9.321 E13.45466
G1 X-2.982 Y9.178 E13.50060
G1 X-3.458 Y9.009 E13.54653
G1 X-3.925 Y8.816 E13.59247
G1 X-4.381 Y8.598 E13.63841
G1 X-4.825 Y8.357 E13.68435
G1 X-5.256 Y8.093 E13.73029
G1 X-5.672 Y7.807 E13.77623
G1 X-6.073 Y7.499 E13.82217
G1 X-6.457 Y7.171 E13.86810
G1 X-6.823 Y6.824 E13.91404
G1 X-7.171 Y6.457 E13.95998
G1 X-7.499 Y6.073 E14.00592
G1 X-7.807 Y5.672 E14.05186
G1 X-8.093 Y5.256 E14.09779
G1 X-8.357 Y4.825 E14.14373
G1 X-8.598 Y4.381 E14.18967
G1 X-8.816 Y3.925 E14.23561
G1 X-9.009 Y3.458 E14.28155
G1 X-9.178 Y2.982 E14.32749
G1 X-9.321 Y2.498 E14.37343
G1 X-9.439 Y2.006 E14.41936
G1 X-9.531 Y1.510 E14.46530
G1 X-9.597 Y1.009 E14.51124
G1 X-9.637 Y0.505 E14.55718
G1 X-9.650 Y0.000 E14.60312
G1 X-9.637 Y-0.505 E14.64906
G1 X-9.597 Y-1.009 E14.69499
G1 X-9.531 Y-1.510 E14.74093
G1 X-9.439 Y-2.006 E14.78687
G1 X-9.321 Y-2.498 E14.83281
G1 X-9.178 Y-2.982 E14.87875
G1 X-9.009 Y-3.459 E14.92477
G1 X-8.816 Y-3.925 E14.97063
G1 X-8.598 Y-4.381 E15.01656
G1 X-8.357 Y-4.825 E15.06250
G1 X-8.093 Y-5.256 E15.10844
G1 X-7.807 Y-5.672 E15.15437
G1 X-7.499 Y-6.073 E15.20031
G1 X-7.171 Y-6.457 E15.24625
G1 X-6.823 Y-6.823 E15.29219
G1 X-6.457 Y-7.171 E15.33812
G1 X-6.073 Y-7.499 E15.38406
G1 X-5.672 Y-7.807 E15.43000
G1 X-5.256 Y-8.093 E15.47594
G1 X-4.825 Y-8.357 E15.52190
G1 X-4.381 Y-8.598 E15.56783
G1 X-3.925 Y-8.816 E15.61376
G1 X-3.458 Y-9.009 E15.65970
G1 X-2.982 Y-9.178 E15.70563
G1 X-2.498 Y-9.321 E15.75158
G1 X-2.006 Y-9.439 E15.79752
G1 X-1.510 Y-9.531 E15.84346
G1 X-1.009 Y-9.597 E15.88939
G1 X-0.505 Y-9.637 E15.93533
G1 X0.393 Y-9.640 E16.01696
G1 X0.478 Y-9.592 F7800.000
G1 X2.765 Y-7.458 F7800.000
G1 X7.471 Y-2.752 E16.62572 F816.252
G1 X7.840 Y-1.494 E16.74562
G1 X1.481 Y-7.852 E17.56808
G1 X0.448 Y-7.997 E17.66355
G1 X7.991 Y-0.453 E18.63932
G1 X8.010 Y0.454 E18.72230
G1 X-0.454 Y-8.010 E19.81703
G1 X-1.267 Y-7.934 E19.89173
G1 X7.934 Y1.267 E21.08182
G1 X7.787 Y2.009 E21.15100
G1 X-2.009 Y-7.787 E22.41804
G1 X-2.694 Y-7.583 E22.48341
G1 X7.583 Y2.694 E23.81267
G1 X7.331 Y3.331 E23.87533
G1 X-3.339 Y-7.339 E25.25553
G1 X-3.928 Y-7.039 E25.31598
G1 X7.038 Y3.927 E26.73441
G1 X6.709 Y4.486 E26.79381
G1 X-4.480 Y-6.702 E28.24101
G1 X-4.996 Y-6.330 E28.29925
G1 X6.330 Y4.996 E29.76428
G1 X5.911 Y5.466 E29.82186
G1 X-5.466 Y-5.910 E31.29342
G1 X-5.911 Y-5.466 E31.35091
G1 X5.466 Y5.911 E32.82247
G1 X4.996 Y6.330 E32.88005
G1 X-6.330 Y-4.996 E34.34507
G1 X-6.709 Y-4.486 E34.40319
G1 X4.486 Y6.709 E35.85127
G1 X3.926 Y7.038 E35.91067
G1 X-7.038 Y-3.926 E37.32889
G1 X-7.331 Y-3.331 E37.38961
G1 X3.331 Y7.331 E38.76873
G1 X2.694 Y7.583 E38.83139
G1 X-7.583 Y-2.694 E40.16064
G1 X-7.787 Y-2.009 E40.22601
G1 X2.009 Y7.787 E41.49305
G1 X1.267 Y7.934 E41.56223
G1 X-7.934 Y-1.267 E42.75231
G1 X-8.010 Y-0.454 E42.82701
G1 X0.454 Y8.010 E43.92173
G1 X-0.453 Y7.991 E44.00471
G1 X-7.991 Y0.453 E44.97974
G1 X-7.840 Y1.494 E45.07591
G1 X-1.480 Y7.854 E45.89854
G1 X-2.765 Y7.458 E46.02150
G1 X-7.471 Y2.752 E46.63023
G1 X-6.115 Y4.997 F7800.000
G1 X-4.997 Y6.115 E46.77483 F816.252
G1 X6.165 Y-4.947 F7800.000
G1 X4.997 Y-6.115 E46.92588 F816.252
M106 S255
G1 E46.35588 F3300.00000
G92 E0
G1 Z2.050 F7800.000
G1 X0.436 Y-8.992 F7800.000
G1 E0.57000 F3300.00000
G1 X0.471 Y-8.991 E0.57186 F2674.132
G1 X0.941 Y-8.954 E0.59648 F2674.132
G1 X1.872 Y-8.807 E0.64572
G1 X2.782 Y-8.563 E0.69496
G1 X3.662 Y-8.225 E0.74420
G1 X4.502 Y-7.798 E0.79342
G1 X5.292 Y-7.284 E0.84267
G1 X6.023 Y-6.692 E0.89178
G1 X6.691 Y-6.024 E0.94114
G1 X7.284 Y-5.292 E0.99038
G1 X7.551 Y-4.904 E1.01500
G1 X8.022 Y-4.088 E1.06424
G1 X8.406 Y-3.227 E1.11347
G1 X8.697 Y-2.330 E1.16270
G1 X8.893 Y-1.408 E1.21195
G1 X8.991 Y-0.471 E1.26118
G1 X8.991 Y0.471 E1.31042
G1 X8.893 Y1.408 E1.35966
G1 X8.697 Y2.330 E1.40890
G1 X8.406 Y3.227 E1.45813
G1 X8.022 Y4.088 E1.50737
G1 X7.551 Y4.904 E1.55660
G1 X7.284 Y5.292 E1.58123
G1 X6.691 Y6.025 E1.63047
G1 X6.025 Y6.691 E1.67970
G1 X5.292 Y7.284 E1.72894
G1 X4.904 Y7.551 E1.75356
G1 X4.088 Y8.022 E1.80280
G1 X3.227 Y8.406 E1.85204
G1 X2.330 Y8.697 E1.90128
G1 X1.408 Y8.893 E1.95051
G1 X0.471 Y8.991 E1.99975
G1 X-0.471 Y8.991 E2.04898
G1 X-1.409 Y8.893 E2.09823
G1 X-1.872 Y8.807 E2.12285
G1 X-2.782 Y8.563 E2.17208
G1 X-3.662 Y8.225 E2.22132
G1 X-4.502 Y7.797 E2.27056
G1 X-5.292 Y7.284 E2.31979
G1 X-6.025 Y6.691 E2.36903
G1 X-6.691 Y6.025 E2.41827
G1 X-7.284 Y5.292 E2.46750
G1 X-7.797 Y4.502 E2.51674
G1 X-8.022 Y4.088 E2.54137
G1 X-8.406 Y3.227 E2.59060
G1 X-8.697 Y2.330 E2.63984
G1 X-8.893 Y1.408 E2.68908
G1 X-8.991 Y0.471 E2.73831
G1 X-8.991 Y-0.471 E2.78755
G1 X-8.893 Y-1.408 E2.83678
G1 X-8.697 Y-2.330 E2.88602
G1 X-8.405 Y-3.229 E2.93539
G1 X-8.022 Y-4.088 E2.98449
G1 X-7.551 Y-4.904 E3.03373
G1 X-7.284 Y-5.292 E3.05835
G1 X-6.691 Y-6.024 E3.10759
G1 X-6.025 Y-6.691 E3.15682
G1 X-5.292 Y-7.284 E3.20606
G1 X-4.502 Y-7.798 E3.25531
G1 X-3.662 Y-8.225 E3.30454
G1 X-3.227 Y-8.405 E3.32916
G1 X-2.330 Y-8.697 E3.37840
G1 X-1.408 Y-8.893 E3.42764
G1 X-0.471 Y-8.991 E3.47686
G1 X0.376 Y-8.994 E3.52112
G1 X0.447 Y-9.411 F7800.000
G1 X0.493 Y-9.410 E3.52355 F2674.132
G1 X0.985 Y-9.371 E3.54932 F2674.132
G1 X1.474 Y-9.307 E3.57509
G1 X1.959 Y-9.217 E3.60087
G1 X2.439 Y-9.101 E3.62664
G1 X2.912 Y-8.961 E3.65242
G1 X3.377 Y-8.797 E3.67819
G1 X3.833 Y-8.608 E3.70396
G1 X4.278 Y-8.396 E3.72973
G1 X4.711 Y-8.160 E3.75549
G1 X5.132 Y-7.902 E3.78128
G1 X5.538 Y-7.623 E3.80705
G1 X5.930 Y-7.323 E3.83282
G1 X6.303 Y-7.004 E3.85847
G1 X6.663 Y-6.663 E3.88437
G1 X7.002 Y-6.305 E3.91014
G1 X7.323 Y-5.930 E3.93592
G1 X7.623 Y-5.538 E3.96169
G1 X7.902 Y-5.132 E3.98746
G1 X8.160 Y-4.711 E4.01323
G1 X8.396 Y-4.278 E4.03900
G1 X8.608 Y-3.833 E4.06478
G1 X8.797 Y-3.377 E4.09055
G1 X8.961 Y-2.912 E4.11632
G1 X9.101 Y-2.439 E4.14209
G1 X9.217 Y-1.957 E4.16800
G1 X9.307 Y-1.474 E4.19364
G1 X9.371 Y-0.985 E4.21941
G1 X9.410 Y-0.493 E4.24519
G1 X9.423 Y0.000 E4.27096
G1 X9.410 Y0.493 E4.29673
G1 X9.371 Y0.985 E4.32250
